3d-lut/luts/Arabica 12.CUBE
#Created by: Adobe Photoshop Export Color Lookup Plugin
#Copyright: (C) Copyright 2017 RocketStock
TITLE "Sepia"
#LUT size
LUT_3D_SIZE 32
#data domain
DOMAIN_MIN 0.0 0.0 0.0
DOMAIN_MAX 1.0 1.0 1.0
#LUT data points
0.086273 0.086273 0.086273
0.098907 0.087311 0.086761
0.111694 0.088409 0.087250
0.124847 0.089630 0.087769
0.138275 0.090942 0.088348
0.151978 0.092285 0.088959
0.166077 0.093750 0.089600
0.180420 0.095245 0.090240
0.195160 0.096832 0.090912
0.210175 0.098541 0.091675
0.225311 0.100250 0.092377
0.240631 0.102081 0.093170
0.255951 0.103973 0.093994
0.271210 0.105927 0.094849
0.286560 0.107971 0.095734
0.301910 0.110077 0.096710
0.317169 0.112183 0.097656
0.332581 0.114410 0.098663
0.347961 0.116638 0.099731
0.363647 0.119019 0.100830
0.379547 0.121429 0.101990
0.395752 0.123871 0.103149
0.412476 0.126404 0.104370
0.429749 0.128998 0.105682
0.447571 0.131561 0.106964
0.466248 0.134308 0.108337
0.485840 0.137024 0.109802
0.506256 0.139740 0.111237
0.526855 0.142090 0.112488
0.545776 0.143127 0.113037
0.565735 0.144226 0.113678
0.586731 0.145386 0.114288
0.089905 0.099243 0.087219
0.102905 0.100464 0.087769
0.116119 0.101746 0.088318
0.129608 0.103088 0.088928
0.143433 0.104553 0.089569
0.157501 0.106079 0.090210
0.171967 0.107697 0.090912
0.186676 0.109344 0.091614
0.201752 0.111115 0.092346
0.217072 0.112946 0.093170
0.232391 0.114807 0.093964
0.247894 0.116791 0.094818
0.263397 0.118835 0.095734
0.278748 0.120911 0.096649
0.294189 0.123077 0.097626
0.309570 0.125275 0.098633
0.325012 0.127594 0.099701
0.340515 0.129944 0.100800
0.356018 0.132324 0.101929
0.371857 0.134827 0.103088
0.387970 0.137390 0.104370
0.404358 0.139923 0.105621
0.421387 0.142609 0.106964
0.438965 0.145325 0.108307
0.457092 0.148010 0.109711
0.476166 0.150848 0.111206
0.495209 0.153259 0.112457
0.512695 0.154297 0.113037
0.531036 0.155426 0.113647
0.550262 0.156555 0.114258
0.570526 0.157745 0.114899
0.591888 0.158966 0.115540
0.094269 0.112579 0.088318
0.107635 0.113983 0.088898
0.121185 0.115387 0.089539
0.135040 0.116974 0.090210
0.149139 0.118530 0.090881
0.163635 0.120239 0.091614
0.178467 0.121979 0.092346
0.193481 0.123810 0.093140
0.208832 0.125702 0.093933
0.224365 0.127716 0.094818
0.239868 0.129730 0.095703
0.255524 0.131866 0.096619
0.271149 0.134064 0.097626
0.286560 0.136261 0.098602
0.302094 0.138580 0.099640
0.317474 0.140930 0.100739
0.332977 0.143402 0.101898
0.348602 0.145905 0.103088
0.364227 0.148407 0.104279
0.380188 0.151062 0.105591
0.396515 0.153748 0.106903
0.413086 0.156433 0.108246
0.430328 0.159241 0.109680
0.448212 0.162079 0.111176
0.465973 0.164490 0.112427
0.482178 0.165588 0.113007
0.499084 0.166687 0.113586
0.516846 0.167877 0.114227
0.535492 0.169067 0.114868
0.555023 0.170258 0.115509
0.575623 0.171509 0.116211
0.597260 0.172791 0.116913
0.099274 0.126312 0.089539
0.112976 0.127899 0.090179
0.126862 0.129486 0.090851
0.141083 0.131195 0.091583
0.155518 0.132935 0.092316
0.170319 0.134796 0.093109
0.185455 0.136749 0.093933
0.200745 0.138672 0.094788
0.216339 0.140747 0.095642
0.232056 0.142914 0.096619
0.247681 0.145050 0.097534
0.263397 0.147369 0.098572
0.279053 0.149689 0.099640
0.294525 0.152069 0.100739
0.310120 0.154510 0.101868
0.325500 0.157013 0.103027
0.341095 0.159637 0.104279
0.356750 0.162262 0.105560
0.372467 0.164917 0.106812
0.388611 0.167725 0.108246
0.405029 0.170532 0.109650
0.421844 0.173340 0.111084
0.438721 0.175903 0.112427
0.453857 0.177002 0.113007
0.469574 0.178131 0.113586
0.486053 0.179291 0.114227
0.503204 0.180481 0.114838
0.521210 0.181702 0.115509
0.540131 0.182983 0.116180
0.559967 0.184235 0.116882
0.580872 0.185577 0.117584
0.602814 0.186920 0.118317
0.104889 0.140503 0.090820
0.118835 0.142181 0.091522
0.133087 0.144012 0.092285
0.147614 0.145905 0.093079
0.162323 0.147797 0.093872
0.177460 0.149811 0.094757
0.192841 0.151886 0.095642
0.208374 0.154022 0.096558
0.224152 0.156250 0.097534
0.239990 0.158539 0.098541
0.255676 0.160858 0.099579
0.271454 0.163269 0.100677
0.287018 0.165741 0.101807
0.302612 0.168304 0.102997
0.318146 0.170929 0.104248
0.333588 0.173523 0.105499
0.349182 0.176270 0.106781
0.364899 0.179108 0.108185
0.380737 0.181854 0.109589
0.396973 0.184784 0.111053
0.413086 0.187408 0.112396
0.427368 0.188507 0.112976
0.442139 0.189667 0.113586
0.457428 0.190796 0.114197
0.473358 0.192017 0.114807
0.490051 0.193268 0.115479
0.507446 0.194519 0.116150
0.525726 0.195831 0.116852
0.544952 0.197144 0.117554
0.565094 0.198486 0.118286
0.586334 0.199860 0.119019
0.608643 0.201294 0.119781
0.111023 0.155182 0.092285
0.125214 0.157043 0.093048
0.139771 0.158997 0.093872
0.154572 0.161011 0.094727
0.169586 0.163086 0.095581
0.184967 0.165253 0.096527
0.200623 0.167542 0.097504
0.216309 0.169800 0.098480
0.232239 0.172211 0.099548
0.248077 0.174652 0.100647
0.263794 0.177124 0.101776
0.279572 0.179688 0.102966
0.295135 0.182281 0.104187
0.310669 0.184967 0.105438
0.326233 0.187775 0.106781
0.341644 0.190491 0.108124
0.357269 0.193390 0.109528
0.373047 0.196320 0.111023
0.388611 0.199005 0.112366
0.402252 0.200104 0.112976
0.416290 0.201263 0.113556
0.430695 0.202423 0.114197
0.445648 0.203644 0.114807
0.461151 0.204895 0.115448
0.477295 0.206146 0.116150
0.494202 0.207458 0.116852
0.511871 0.208771 0.117523
0.530457 0.210144 0.118256
0.549957 0.211548 0.119019
0.570404 0.212921 0.119781
0.591980 0.214355 0.120544
0.614624 0.215851 0.121368
0.117584 0.170319 0.093842
0.132080 0.172333 0.094696
0.146912 0.174469 0.095581
0.161957 0.176666 0.096497
0.177216 0.178894 0.097473
0.192841 0.181213 0.098480
0.208618 0.183624 0.099548
0.224457 0.186005 0.100616
0.240417 0.188568 0.101746
0.256195 0.191132 0.102875
0.272003 0.193787 0.104126
0.287750 0.196503 0.105408
0.303223 0.199249 0.106689
0.318726 0.202118 0.108063
0.334229 0.204956 0.109497
0.349640 0.207855 0.110931
0.364990 0.210663 0.112366
0.378204 0.211792 0.112946
0.391693 0.212921 0.113525
0.405426 0.214081 0.114166
0.419586 0.215332 0.114777
0.434174 0.216553 0.115448
0.449371 0.217834 0.116150
0.465027 0.219116 0.116821
0.481445 0.220490 0.117523
0.498566 0.221863 0.118225
0.516510 0.223206 0.118988
0.535400 0.224640 0.119751
0.555176 0.226074 0.120544
0.575897 0.227509 0.121307
0.597809 0.229004 0.122131
0.620758 0.230469 0.122925
0.124603 0.185913 0.095551
0.139282 0.188110 0.096436
0.154327 0.190369 0.097443
0.169647 0.192749 0.098419
0.185120 0.195099 0.099457
0.200897 0.197601 0.100586
0.216858 0.200165 0.101715
0.232697 0.202728 0.102875
0.248657 0.205414 0.104095
0.264404 0.208099 0.105316
0.280182 0.210876 0.106659
0.295807 0.213745 0.108032
0.311218 0.216553 0.109436
0.326691 0.219513 0.110901
0.341888 0.222351 0.112335
0.354858 0.223450 0.112946
0.367981 0.224640 0.113525
0.381287 0.225830 0.114136
0.394836 0.227020 0.114746
0.408783 0.228302 0.115448
0.423065 0.229523 0.116089
0.437866 0.230865 0.116791
0.453186 0.232178 0.117493
0.469086 0.233521 0.118195
0.485718 0.234924 0.118958
0.503113 0.236328 0.119720
0.521271 0.237732 0.120483
0.540436 0.239166 0.121277
0.560547 0.240631 0.122101
0.581635 0.242126 0.122894
0.603882 0.243652 0.123718
0.627167 0.245148 0.124573
0.131927 0.201965 0.097412
0.146881 0.204254 0.098389
0.162109 0.206726 0.099426
0.177612 0.209229 0.100555
0.193237 0.211731 0.101654
0.209137 0.214355 0.102844
0.225067 0.216980 0.104065
0.240997 0.219727 0.105286
0.256897 0.222534 0.106628
0.272583 0.225311 0.108002
0.288269 0.228241 0.109406
0.303741 0.231201 0.110840
0.319031 0.234039 0.112335
0.331909 0.235168 0.112915
0.344818 0.236328 0.113525
0.357849 0.237488 0.114136
0.371063 0.238708 0.114746
0.384491 0.239960 0.115417
0.398163 0.241211 0.116089
0.412262 0.242523 0.116760
0.426666 0.243835 0.117462
0.441620 0.245178 0.118195
0.457153 0.246582 0.118927
0.473236 0.247925 0.119690
0.490173 0.249359 0.120483
0.507782 0.250824 0.121277
0.526245 0.252258 0.122040
0.545685 0.253754 0.122864
0.566071 0.255249 0.123718
0.587494 0.256744 0.124542
0.610077 0.258301 0.125397
0.633698 0.259827 0.126221
0.139526 0.218414 0.099426
0.154633 0.220825 0.100464
0.170074 0.223419 0.101624
0.185760 0.226044 0.102814
0.201508 0.228668 0.104004
0.217468 0.231415 0.105255
0.233337 0.234131 0.106567
0.249268 0.236969 0.107971
0.265076 0.239868 0.109375
0.280640 0.242737 0.110779
0.296173 0.245728 0.112305
0.309082 0.246826 0.112885
0.321899 0.247955 0.113464
0.334869 0.249146 0.114105
0.347870 0.250336 0.114746
0.360962 0.251556 0.115387
0.374268 0.252869 0.116058
0.387787 0.254120 0.116730
0.401611 0.255463 0.117432
0.415833 0.256775 0.118164
0.430389 0.258148 0.118896
0.445557 0.259552 0.119690
0.461243 0.260986 0.120453
0.477570 0.262390 0.121246
0.494659 0.263855 0.122040
0.512604 0.265350 0.122864
0.531342 0.266815 0.123657
0.551056 0.268341 0.124512
0.571777 0.269836 0.125366
0.593536 0.271393 0.126221
0.616425 0.272949 0.127106
0.640411 0.274475 0.127960
0.147339 0.235107 0.101593
0.162628 0.237640 0.102753
0.178192 0.240326 0.103973
0.193817 0.243011 0.105225
0.209747 0.245758 0.106537
0.225739 0.248596 0.107910
0.241577 0.251373 0.109283
0.257385 0.254333 0.110779
0.273102 0.257294 0.112274
0.286102 0.258453 0.112854
0.299103 0.259583 0.113434
0.312012 0.260773 0.114075
0.324951 0.261963 0.114685
0.337952 0.263184 0.115356
0.350983 0.264404 0.115997
0.364197 0.265686 0.116699
0.377594 0.267029 0.117432
0.391235 0.268372 0.118134
0.405151 0.269714 0.118866
0.419495 0.271118 0.119629
0.434235 0.272491 0.120392
0.449554 0.273926 0.121216
0.465485 0.275391 0.122009
0.482025 0.276855 0.122803
0.499359 0.278320 0.123657
0.517548 0.279816 0.124481
0.536560 0.281311 0.125336
0.556610 0.282867 0.126190
0.577606 0.284393 0.127045
0.599731 0.285980 0.127930
0.622986 0.287537 0.128815
0.647247 0.289093 0.129730
0.155304 0.251923 0.103943
0.170654 0.254608 0.105194
0.186340 0.257355 0.106506
0.202087 0.260101 0.107849
0.218018 0.262970 0.109253
0.233917 0.265869 0.110718
0.249634 0.268738 0.112183
0.263000 0.270020 0.112854
0.276062 0.271149 0.113434
0.289093 0.272278 0.114044
0.302094 0.273468 0.114685
0.315063 0.274750 0.115356
0.328064 0.275940 0.115997
0.341095 0.277252 0.116699
0.354218 0.278503 0.117401
0.367523 0.279846 0.118134
0.381012 0.281219 0.118866
0.394745 0.282562 0.119598
0.408813 0.283997 0.120361
0.423309 0.285431 0.121185
0.438202 0.286835 0.121979
0.453735 0.288300 0.122772
0.469849 0.289795 0.123627
0.486633 0.291260 0.124451
0.504211 0.292786 0.125305
0.522583 0.294250 0.126160
0.541931 0.295837 0.127045
0.562286 0.297363 0.127930
0.583588 0.298920 0.128784
0.606079 0.300507 0.129700
0.629639 0.302094 0.130615
0.654266 0.303650 0.131500
0.163208 0.268829 0.106445
0.178772 0.271637 0.107788
0.194489 0.274475 0.109222
0.210266 0.277283 0.110657
0.226105 0.280212 0.112152
0.239624 0.281525 0.112854
0.252808 0.282593 0.113403
0.265991 0.283783 0.114044
0.279144 0.284973 0.114655
0.292145 0.286163 0.115295
0.305206 0.287415 0.115967
0.318207 0.288696 0.116638
0.331268 0.289948 0.117371
0.344391 0.291321 0.118103
0.357544 0.292633 0.118835
0.370941 0.293976 0.119598
0.384552 0.295410 0.120361
0.398376 0.296814 0.121155
0.412598 0.298218 0.121948
0.427246 0.299713 0.122772
0.442291 0.301178 0.123566
0.458008 0.302673 0.124420
0.474335 0.304199 0.125275
0.491333 0.305664 0.126129
0.509186 0.307220 0.127014
0.527802 0.308685 0.127899
0.547455 0.310272 0.128754
0.568146 0.311890 0.129669
0.589752 0.313416 0.130554
0.612518 0.315033 0.131470
0.636475 0.316650 0.132416
0.661438 0.318207 0.133331
0.171234 0.285858 0.109161
0.186829 0.288757 0.110596
0.202545 0.291656 0.112091
0.216095 0.292938 0.112793
0.229401 0.294037 0.113403
0.242645 0.295227 0.114014
0.255890 0.296387 0.114655
0.269104 0.297577 0.115265
0.282257 0.298859 0.115936
0.295349 0.300110 0.116638
0.308441 0.301392 0.117340
0.321472 0.302734 0.118073
0.334534 0.304047 0.118805
0.347717 0.305420 0.119568
0.360992 0.306763 0.120300
0.374451 0.308197 0.121124
0.388184 0.309631 0.121948
0.402100 0.311066 0.122742
0.416443 0.312531 0.123535
0.431213 0.314026 0.124420
0.446472 0.315521 0.125244
0.462372 0.317047 0.126099
0.478882 0.318512 0.126984
0.496155 0.320068 0.127838
0.514252 0.321655 0.128754
0.533142 0.323181 0.129608
0.553101 0.324768 0.130524
0.574066 0.326385 0.131470
0.596008 0.327942 0.132355
0.619110 0.329559 0.133301
0.643341 0.331177 0.134247
0.668671 0.332764 0.135162
0.179169 0.302948 0.112030
0.192657 0.304352 0.112793
0.205872 0.305481 0.113373
0.219116 0.306580 0.113983
0.232452 0.307770 0.114624
0.245789 0.309021 0.115265
0.259064 0.310211 0.115936
0.272308 0.311462 0.116608
0.285461 0.312744 0.117310
0.298615 0.314056 0.118042
0.311737 0.315430 0.118805
0.324799 0.316772 0.119537
0.337952 0.318115 0.120300
0.351166 0.319550 0.121094
0.364532 0.320953 0.121887
0.378052 0.322418 0.122711
0.391846 0.323883 0.123535
0.405914 0.325348 0.124390
0.420380 0.326843 0.125214
0.435364 0.328369 0.126068
0.450775 0.329895 0.126923
0.466827 0.331451 0.127838
0.483551 0.332977 0.128693
0.501099 0.334534 0.129608
0.519440 0.336121 0.130493
0.538605 0.337708 0.131439
0.558868 0.339325 0.132355
0.580109 0.340942 0.133270
0.602386 0.342529 0.134186
0.625793 0.344177 0.135132
0.650360 0.345825 0.136047
0.675995 0.347412 0.137024
0.182495 0.316803 0.113342
0.195648 0.317963 0.113953
0.208954 0.319153 0.114594
0.222290 0.320343 0.115234
0.235657 0.321594 0.115906
0.249023 0.322845 0.116608
0.262329 0.324097 0.117310
0.275604 0.325409 0.118042
0.288788 0.326721 0.118744
0.301941 0.328125 0.119507
0.315094 0.329498 0.120300
0.328217 0.330902 0.121063
0.341400 0.332306 0.121887
0.354706 0.333771 0.122681
0.368103 0.335205 0.123505
0.381714 0.336731 0.124329
0.395630 0.338257 0.125183
0.409790 0.339722 0.126038
0.424438 0.341309 0.126923
0.439484 0.342773 0.127777
0.455139 0.344360 0.128662
0.471436 0.345978 0.129578
0.488342 0.347504 0.130463
0.506134 0.349121 0.131378
0.524719 0.350739 0.132324
0.544189 0.352325 0.133240
0.564697 0.353973 0.134155
0.586273 0.355591 0.135101
0.608856 0.357208 0.136017
0.632568 0.358856 0.136963
0.657379 0.360535 0.137909
0.683380 0.362183 0.138885
0.185577 0.330505 0.114563
0.198822 0.331696 0.115234
0.212158 0.332947 0.115906
0.225494 0.334198 0.116547
0.238983 0.335480 0.117279
0.252350 0.336792 0.118011
0.265656 0.338104 0.118744
0.278992 0.339478 0.119507
0.292145 0.340881 0.120239
0.305389 0.342285 0.121033
0.318542 0.343719 0.121857
0.331696 0.345154 0.122650
0.344971 0.346619 0.123474
0.358276 0.348114 0.124329
0.371735 0.349640 0.125153
0.385468 0.351166 0.126038
0.399475 0.352722 0.126892
0.413788 0.354218 0.127777
0.428558 0.355835 0.128662
0.443817 0.357422 0.129547
0.459595 0.358978 0.130432
0.476074 0.360626 0.131378
0.493195 0.362213 0.132294
0.511230 0.363831 0.133209
0.530090 0.365509 0.134155
0.549866 0.367126 0.135040
0.570618 0.368805 0.136017
0.592529 0.370453 0.136932
0.615387 0.372101 0.137909
0.639496 0.373810 0.138855
0.664642 0.375458 0.139801
0.690857 0.377106 0.140747
0.188721 0.344330 0.115845
0.202057 0.345581 0.116547
0.215454 0.346924 0.117249
0.228882 0.348206 0.117981
0.242340 0.349548 0.118713
0.255798 0.350952 0.119476
0.269104 0.352295 0.120239
0.282410 0.353729 0.121002
0.295654 0.355133 0.121796
0.308868 0.356598 0.122650
0.322083 0.358124 0.123474
0.335266 0.359589 0.124298
0.348541 0.361115 0.125122
0.361938 0.362640 0.126007
0.375458 0.364197 0.126862
0.389313 0.365784 0.127747
0.403412 0.367371 0.128632
0.417816 0.368958 0.129517
0.432739 0.370575 0.130432
0.448120 0.372192 0.131317
0.464142 0.373871 0.132233
0.480835 0.375488 0.133179
0.498230 0.377106 0.134094
0.516418 0.378784 0.135040
0.535583 0.380524 0.135956
0.555603 0.382141 0.136902
0.576660 0.383850 0.137878
0.598877 0.385559 0.138824
0.622009 0.387238 0.139740
0.646393 0.388947 0.140717
0.671814 0.390656 0.141663
0.698425 0.392365 0.142639
0.192017 0.358337 0.117218
0.205383 0.359650 0.117950
0.218842 0.361053 0.118713
0.232330 0.362427 0.119446
0.245819 0.363800 0.120209
0.259186 0.365234 0.120972
0.272583 0.366699 0.121765
0.285950 0.368164 0.122620
0.299194 0.369629 0.123444
0.312408 0.371155 0.124268
0.325653 0.372711 0.125092
0.338867 0.374237 0.125977
0.352203 0.375854 0.126831
0.365631 0.377441 0.127716
0.379272 0.378998 0.128571
0.393188 0.380646 0.129486
0.407379 0.382294 0.130402
0.421936 0.383942 0.131287
0.436981 0.385590 0.132202
0.452515 0.387268 0.133148
0.468750 0.388977 0.134064
0.485657 0.390656 0.135010
0.503235 0.392365 0.135925
0.521729 0.394073 0.136902
0.541138 0.395782 0.137848
0.561401 0.397491 0.138763
0.582794 0.399231 0.139709
0.605225 0.401001 0.140686
0.628693 0.402710 0.141632
0.653381 0.404449 0.142578
0.679077 0.406189 0.143494
0.705933 0.407898 0.144470
0.195343 0.372620 0.118652
0.208801 0.374023 0.119415
0.222321 0.375458 0.120209
0.235809 0.376892 0.120972
0.249329 0.378357 0.121765
0.262756 0.379822 0.122559
0.276154 0.381348 0.123383
0.289520 0.382935 0.124237
0.302795 0.384430 0.125061
0.316010 0.386047 0.125946
0.329254 0.387634 0.126831
0.342529 0.389282 0.127686
0.355896 0.390900 0.128571
0.369446 0.392548 0.129456
0.383087 0.394165 0.130341
0.397064 0.395874 0.131287
0.411377 0.397522 0.132172
0.426117 0.399231 0.133118
0.441284 0.401001 0.134064
0.457031 0.402679 0.134949
0.473389 0.404419 0.135925
0.490509 0.406189 0.136871
0.508331 0.407928 0.137787
0.527069 0.409698 0.138763
0.546753 0.411499 0.139709
0.567322 0.413239 0.140656
0.588959 0.415009 0.141602
0.611633 0.416779 0.142548
0.635437 0.418610 0.143494
0.660370 0.420380 0.144470
0.686371 0.422119 0.145386
0.713501 0.423950 0.146332
0.198822 0.387238 0.120148
0.212311 0.388702 0.120941
0.225830 0.390198 0.121704
0.239410 0.391724 0.122559
0.252930 0.393280 0.123383
0.266357 0.394806 0.124207
0.279785 0.396423 0.125031
0.293091 0.398010 0.125916
0.306366 0.399628 0.126740
0.319641 0.401276 0.127655
0.332916 0.402954 0.128540
0.346191 0.404602 0.129425
0.359619 0.406342 0.130341
0.373169 0.408020 0.131226
0.386993 0.409760 0.132172
0.401062 0.411530 0.133087
0.415436 0.413239 0.134003
0.430328 0.415009 0.134949
0.445679 0.416809 0.135895
0.461578 0.418610 0.136841
0.478149 0.420380 0.137787
0.495453 0.422211 0.138733
0.513519 0.424011 0.139648
0.532471 0.425812 0.140625
0.552368 0.427673 0.141571
0.573242 0.429443 0.142517
0.595154 0.431335 0.143463
0.618103 0.433105 0.144409
0.642212 0.434967 0.145355
0.667480 0.436798 0.146301
0.693665 0.438599 0.147217
0.721130 0.440460 0.148193
0.202301 0.402252 0.121704
0.215881 0.403809 0.122498
0.229462 0.405365 0.123352
0.243042 0.406952 0.124176
0.256561 0.408600 0.125031
0.270020 0.410187 0.125885
0.283447 0.411896 0.126740
0.296753 0.413574 0.127625
0.310059 0.415253 0.128479
0.323303 0.416962 0.129425
0.336609 0.418762 0.130310
0.349945 0.420471 0.131195
0.363403 0.422241 0.132141
0.377014 0.424011 0.133057
0.390900 0.425842 0.134003
0.405060 0.427673 0.134918
0.419586 0.429443 0.135864
0.434570 0.431335 0.136810
0.450104 0.433167 0.137756
0.466156 0.434998 0.138672
0.482941 0.436859 0.139648
0.500427 0.438751 0.140594
0.518707 0.440613 0.141510
0.537903 0.442505 0.142487
0.557983 0.444336 0.143433
0.579193 0.446259 0.144379
0.601410 0.448151 0.145325
0.624603 0.450012 0.146271
0.648987 0.451935 0.147217
0.674500 0.453827 0.148132
0.700989 0.455688 0.149078
0.728607 0.457611 0.150024
0.205933 0.417755 0.123322
0.219543 0.419403 0.124146
0.233093 0.421021 0.125000
0.246735 0.422729 0.125854
0.260254 0.424438 0.126709
0.273712 0.426147 0.127594
0.287109 0.427887 0.128479
0.300415 0.429688 0.129364
0.313751 0.431458 0.130249
0.326996 0.433228 0.131195
0.340302 0.435028 0.132111
0.353668 0.436859 0.133026
0.367188 0.438751 0.133972
0.380890 0.440613 0.134888
0.394836 0.442505 0.135834
0.409119 0.444366 0.136780
0.423767 0.446259 0.137695
0.438873 0.448212 0.138641
0.454529 0.450134 0.139618
0.470764 0.452057 0.140533
0.487762 0.453949 0.141510
0.505432 0.455902 0.142456
0.523956 0.457886 0.143402
0.543427 0.459808 0.144348
0.563751 0.461731 0.145294
0.585144 0.463745 0.146240
0.607635 0.465668 0.147156
0.631134 0.467621 0.148102
0.655792 0.469574 0.149048
0.681488 0.471527 0.149963
0.708252 0.473419 0.150879
0.736145 0.475403 0.151794
0.209564 0.433807 0.124939
0.223236 0.435577 0.125824
0.236816 0.437317 0.126648
0.250427 0.439087 0.127563
0.264008 0.440887 0.128448
0.277435 0.442657 0.129333
0.290802 0.444550 0.130249
0.304199 0.446411 0.131165
0.317413 0.448242 0.132080
0.330750 0.450165 0.132996
0.344055 0.452057 0.133911
0.357483 0.453949 0.134857
0.371033 0.455902 0.135803
0.384735 0.457855 0.136749
0.398804 0.459808 0.137695
0.413177 0.461823 0.138641
0.427917 0.463776 0.139587
0.443237 0.465790 0.140503
0.459045 0.467834 0.141479
0.475433 0.469788 0.142426
0.492584 0.471832 0.143402
0.510437 0.473816 0.144287
0.529205 0.475861 0.145264
0.548920 0.477905 0.146210
0.569519 0.479889 0.147125
0.591156 0.481964 0.148102
0.613861 0.483978 0.149017
0.637604 0.485931 0.149933
0.662506 0.487976 0.150848
0.688477 0.489990 0.151794
0.715393 0.492004 0.152679
0.743561 0.493988 0.153595
0.213287 0.450592 0.126648
0.226990 0.452423 0.127533
0.240570 0.454224 0.128418
0.254181 0.456146 0.129303
0.267761 0.458038 0.130219
0.281158 0.459930 0.131134
0.294556 0.461914 0.132050
0.307922 0.463867 0.132965
0.321167 0.465790 0.133881
0.334503 0.467834 0.134827
0.347778 0.469788 0.135742
0.361267 0.471832 0.136719
0.374878 0.473877 0.137634
0.388702 0.475861 0.138580
0.402802 0.477997 0.139557
0.417328 0.480072 0.140503
0.432129 0.482086 0.141418
0.447540 0.484222 0.142395
0.463531 0.486328 0.143372
0.480103 0.488373 0.144287
0.497437 0.490479 0.145233
0.515503 0.492554 0.146179
0.534485 0.494659 0.147095
0.554413 0.496826 0.148041
0.575226 0.498901 0.148987
0.597168 0.500977 0.149902
0.620148 0.503082 0.150848
0.644073 0.505157 0.151733
0.669189 0.507233 0.152649
0.695374 0.509338 0.153564
0.722534 0.511353 0.154419
0.750854 0.513397 0.155334
0.217072 0.468109 0.128387
0.230774 0.470062 0.129303
0.244385 0.471985 0.130157
0.257965 0.473999 0.131104
0.271515 0.476013 0.132019
0.284912 0.478027 0.132935
0.298309 0.480072 0.133881
0.311554 0.482086 0.134766
0.324890 0.484222 0.135742
0.338257 0.486328 0.136658
0.351593 0.488403 0.137604
0.365082 0.490509 0.138550
0.378723 0.492676 0.139526
0.392609 0.494781 0.140442
0.406830 0.496979 0.141418
0.421417 0.499146 0.142365
0.436371 0.501282 0.143311
0.451935 0.503510 0.144257
0.468018 0.505646 0.145203
0.484802 0.507874 0.146149
0.502289 0.510040 0.147064
0.520599 0.512207 0.147980
0.539795 0.514435 0.148956
0.559937 0.516632 0.149902
0.580963 0.518738 0.150787
0.603088 0.520966 0.151703
0.626282 0.523102 0.152649
0.650513 0.525269 0.153534
0.675842 0.527405 0.154419
0.702087 0.529510 0.155273
0.729614 0.531647 0.156158
0.758087 0.533752 0.157043
0.220856 0.486450 0.130157
0.234558 0.488525 0.131104
0.248199 0.490601 0.131989
0.261749 0.492706 0.132904
0.275269 0.494843 0.133850
0.288696 0.496979 0.134766
0.302032 0.499146 0.135681
0.315338 0.501282 0.136627
0.328644 0.503510 0.137573
0.341949 0.505707 0.138550
0.355347 0.507935 0.139496
0.368866 0.510132 0.140411
0.382599 0.512451 0.141388
0.396545 0.514679 0.142334
0.410858 0.516907 0.143280
0.425507 0.519226 0.144226
0.440613 0.521423 0.145172
0.456299 0.523743 0.146149
0.472534 0.526001 0.147034
0.489471 0.528259 0.147980
0.507202 0.530579 0.148926
0.525635 0.532837 0.149841
0.545044 0.535095 0.150757
0.565369 0.537384 0.151703
0.586700 0.539642 0.152588
0.609039 0.541901 0.153473
0.632477 0.544128 0.154388
0.656860 0.546295 0.155273
0.682404 0.548553 0.156158
0.708893 0.550690 0.156982
0.736511 0.552887 0.157837
0.765137 0.555023 0.158691
0.224701 0.505829 0.131958
0.238373 0.507996 0.132874
0.251984 0.510162 0.133789
0.265564 0.512451 0.134735
0.279022 0.514679 0.135651
0.292419 0.516907 0.136597
0.305817 0.519226 0.137543
0.319092 0.521515 0.138489
0.332367 0.523804 0.139435
0.345734 0.526154 0.140381
0.359100 0.528473 0.141327
0.372681 0.530853 0.142303
0.386475 0.533203 0.143280
0.400482 0.535553 0.144165
0.414825 0.537903 0.145142
0.429565 0.540253 0.146088
