3d-lut/luts/Arabica 12.CUBE
#Created by: Adobe Photoshop Export Color Lookup Plugin
#Copyright: (C) Copyright 2017 RocketStock
TITLE "Sepia"
#LUT size
LUT_3D_SIZE 5
#data domain
#LUT data points
DOMAIN_MIN 0.000000 0.000000 0.000000
DOMAIN_MAX 0.903226 0.903226 0.903226
0.086273 0.086273 0.086273
0.180420 0.095245 0.090240
0.286560 0.107971 0.095734
0.395752 0.123871 0.103149
0.526855 0.142090 0.112488
0.124603 0.185913 0.095551
0.232697 0.202728 0.102875
0.341888 0.222351 0.112335
0.437866 0.230865 0.116791
0.560547 0.240631 0.122101
0.179169 0.302948 0.112030
0.272308 0.311462 0.116608
0.364532 0.320953 0.121887
0.466827 0.331451 0.127838
0.602386 0.342529 0.134186
0.202301 0.402252 0.121704
0.296753 0.413574 0.127625
0.390900 0.425842 0.134003
0.500427 0.438751 0.140594
0.648987 0.451935 0.147217
0.228546 0.526215 0.133759
0.322815 0.542816 0.140350
0.418854 0.560059 0.146973
0.535706 0.577271 0.153442
0.695160 0.593964 0.159485
0.091187 0.089111 0.164856
0.188690 0.099487 0.169586
0.296631 0.113434 0.176117
0.407043 0.130432 0.184753
0.532379 0.144867 0.192871
0.134155 0.191681 0.175842
0.243561 0.209686 0.184448
0.345734 0.225281 0.192688
0.442780 0.234344 0.197784
0.567749 0.244507 0.203674
0.183441 0.306091 0.192535
0.276642 0.314850 0.197601
0.369232 0.324738 0.203461
0.472870 0.335449 0.209991
0.610840 0.346680 0.216858
0.207062 0.406281 0.203278
0.301544 0.417938 0.209747
0.396057 0.430511 0.216644
0.506958 0.443512 0.223602
0.657837 0.456757 0.230560
0.233551 0.532166 0.216370
0.327637 0.549072 0.223389
0.424011 0.566406 0.230316
0.542145 0.583466 0.236877
0.703064 0.599701 0.242889
0.097229 0.092438 0.247894
0.197876 0.104248 0.253357
0.306915 0.119324 0.260712
0.418518 0.137360 0.270325
0.538239 0.147858 0.276306
0.144196 0.197937 0.260437
0.254303 0.216980 0.269958
0.349762 0.228455 0.276154
0.447998 0.237946 0.281525
0.575317 0.248474 0.287567
0.187469 0.309143 0.276001
0.281067 0.318329 0.281311
0.374054 0.328583 0.287354
0.478943 0.339508 0.293884
0.619507 0.350922 0.300659
0.211884 0.410431 0.287170
0.306427 0.422485 0.293671
0.401276 0.435242 0.300415
0.513550 0.448395 0.307251
0.666534 0.461548 0.313843
0.238556 0.538239 0.300201
0.332428 0.555420 0.307037
0.429108 0.572693 0.313629
0.548492 0.589600 0.319855
0.710785 0.605316 0.325409
0.104370 0.096375 0.330170
0.207794 0.109436 0.336182
0.317413 0.125610 0.344177
0.427063 0.142822 0.353516
0.544495 0.151093 0.358307
0.154572 0.204590 0.343842
0.262726 0.223145 0.353333
0.353973 0.231781 0.358154
0.453369 0.241669 0.363831
0.583160 0.252502 0.370178
0.191711 0.312408 0.357971
0.285645 0.321991 0.363647
0.378906 0.332520 0.369934
0.485199 0.343689 0.376770
0.628082 0.355072 0.383789
0.216736 0.414734 0.369720
0.311310 0.427094 0.376495
0.406464 0.440063 0.383545
0.520203 0.453247 0.390656
0.675232 0.466278 0.397491
0.243530 0.544495 0.383362
0.337158 0.561798 0.390442
0.434174 0.578979 0.397247
0.554688 0.595459 0.403748
0.718201 0.610626 0.409454
0.112427 0.100739 0.414734
0.218048 0.114990 0.422119
0.327972 0.132294 0.432007
0.431458 0.145630 0.440521
0.551086 0.154480 0.446472
0.165070 0.211639 0.431671
0.266663 0.226105 0.440369
0.358368 0.235291 0.446289
0.458954 0.245575 0.453186
0.591095 0.256622 0.460907
0.196106 0.315765 0.446045
0.290283 0.325775 0.452972
0.383942 0.336548 0.460632
0.491577 0.347839 0.468872
0.636932 0.359314 0.477386
0.221710 0.419189 0.460388
0.316223 0.431824 0.468597
0.411682 0.444885 0.477142
0.526764 0.458038 0.485687
0.683807 0.470947 0.494019
0.248505 0.550812 0.476868
0.341766 0.568115 0.485413
0.439148 0.585175 0.493744
0.560669 0.601227 0.501465
0.725159 0.615662 0.508301
