3d-lut/luts/Arabica 12.CUBE
#Created by: Adobe Photoshop Export Color Lookup Plugin
#Copyright: (C) Copyright 2017 RocketStock
TITLE "Sepia"
#LUT size
LUT_3D_SIZE 8
#data domain
#LUT data points
DOMAIN_MIN 0.000000 0.000000 0.000000
DOMAIN_MAX 0.903226 0.903226 0.903226
0.086273 0.086273 0.086273
0.138275 0.090942 0.088348
0.195160 0.096832 0.090912
0.255951 0.103973 0.093994
0.317169 0.112183 0.097656
0.379547 0.121429 0.101990
0.447571 0.131561 0.106964
0.526855 0.142090 0.112488
0.104889 0.140503 0.090820
0.162323 0.147797 0.093872
0.224152 0.156250 0.097534
0.287018 0.165741 0.101807
0.349182 0.176270 0.106781
0.413086 0.187408 0.112396
0.473358 0.192017 0.114807
0.544952 0.197144 0.117554
0.131927 0.201965 0.097412
0.193237 0.211731 0.101654
0.256897 0.222534 0.106628
0.319031 0.234039 0.112335
0.371063 0.238708 0.114746
0.426666 0.243835 0.117462
0.490173 0.249359 0.120483
0.566071 0.255249 0.123718
0.163208 0.268829 0.106445
0.226105 0.280212 0.112152
0.279144 0.284973 0.114655
0.331268 0.289948 0.117371
0.384552 0.295410 0.120361
0.442291 0.301178 0.123566
0.509186 0.307220 0.127014
0.589752 0.313416 0.130554
0.185577 0.330505 0.114563
0.238983 0.335480 0.117279
0.292145 0.340881 0.120239
0.344971 0.346619 0.123474
0.399475 0.352722 0.126892
0.459595 0.358978 0.130432
0.530090 0.365509 0.134155
0.615387 0.372101 0.137909
0.198822 0.387238 0.120148
0.252930 0.393280 0.123383
0.306366 0.399628 0.126740
0.359619 0.406342 0.130341
0.415436 0.413239 0.134003
0.478149 0.420380 0.137787
0.552368 0.427673 0.141571
0.642212 0.434967 0.145355
0.213287 0.450592 0.126648
0.267761 0.458038 0.130219
0.321167 0.465790 0.133881
0.374878 0.473877 0.137634
0.432129 0.482086 0.141418
0.497437 0.490479 0.145233
0.575226 0.498901 0.148987
0.669189 0.507233 0.152649
0.228546 0.526215 0.133759
0.282776 0.535583 0.137512
0.336090 0.545227 0.141327
0.390320 0.555084 0.145111
0.449097 0.564972 0.148865
0.516846 0.574860 0.152557
0.597931 0.584534 0.156067
0.695160 0.593964 0.159485
0.088898 0.087799 0.130676
0.142059 0.092957 0.132965
0.200012 0.099304 0.135742
0.261444 0.106873 0.139099
0.322998 0.115448 0.143097
0.385803 0.125061 0.147797
0.454651 0.135498 0.153229
0.529968 0.143646 0.157715
0.109406 0.143036 0.135651
0.167786 0.150787 0.139008
0.230133 0.159637 0.142975
0.293121 0.169525 0.147675
0.355225 0.180359 0.153015
0.415405 0.189026 0.157623
0.476257 0.193817 0.160278
0.548676 0.199158 0.163208
0.137543 0.205444 0.142822
0.199371 0.215576 0.147461
0.263000 0.226685 0.152863
0.321167 0.235687 0.157532
0.373444 0.240540 0.160187
0.429474 0.245819 0.163116
0.493500 0.251465 0.166290
0.570343 0.257507 0.169739
0.169250 0.272980 0.152679
0.228607 0.282043 0.157471
0.281433 0.286774 0.160095
0.333710 0.291931 0.162994
0.387238 0.297516 0.166199
0.445374 0.303345 0.169617
0.512939 0.309479 0.173248
0.594360 0.315765 0.176971
0.187927 0.332306 0.159973
0.241455 0.337372 0.162903
0.294800 0.342987 0.166077
0.347626 0.348816 0.169495
0.402374 0.355011 0.173126
0.462982 0.361389 0.176849
0.534180 0.367920 0.180756
0.620331 0.374542 0.184631
0.201416 0.389404 0.165985
0.255646 0.395569 0.169373
0.309113 0.402039 0.172974
0.362457 0.408813 0.176727
0.418610 0.415863 0.180634
0.481689 0.423035 0.184540
0.556610 0.430359 0.188507
0.647247 0.437622 0.192413
0.216095 0.453278 0.172852
0.270508 0.460876 0.176605
0.323944 0.468719 0.180481
0.377777 0.476868 0.184418
0.435303 0.485168 0.188354
0.501099 0.493561 0.192261
0.579498 0.501923 0.196136
0.674164 0.510284 0.199890
0.231415 0.529602 0.180359
0.285645 0.539154 0.184265
0.338867 0.548828 0.188232
0.393188 0.558716 0.192169
0.452179 0.568604 0.196014
0.520447 0.578430 0.199799
0.601990 0.587982 0.203400
0.699738 0.597260 0.206818
0.091949 0.089569 0.176514
0.146210 0.095154 0.179108
0.205139 0.101929 0.182190
0.267151 0.109894 0.185944
0.328918 0.118835 0.190308
0.392120 0.128784 0.195496
0.461884 0.139618 0.201477
0.533142 0.145294 0.204773
0.114197 0.145721 0.182098
0.173370 0.153900 0.185822
0.236206 0.163116 0.190186
0.299194 0.173401 0.195312
0.361176 0.184570 0.201202
0.417877 0.190735 0.204651
0.479309 0.195709 0.207489
0.552460 0.201172 0.210632
0.143311 0.209045 0.190033
0.205536 0.219543 0.195099
0.269012 0.230957 0.201050
0.323425 0.237427 0.204559
0.375885 0.242432 0.207428
0.432312 0.247864 0.210541
0.496948 0.253632 0.213928
0.574677 0.259766 0.217529
0.175171 0.277161 0.200836
0.230896 0.283722 0.204498
0.283875 0.288605 0.207336
0.336212 0.293884 0.210449
0.389954 0.299591 0.213837
0.448547 0.305573 0.217377
0.516754 0.311768 0.221161
0.599152 0.318115 0.225098
0.190338 0.334106 0.207214
0.244019 0.339386 0.210358
0.297394 0.345093 0.213715
0.350311 0.351044 0.217285
0.405334 0.357330 0.221069
0.466339 0.363739 0.224945
0.538239 0.370361 0.228912
0.625275 0.376984 0.232880
0.204102 0.391632 0.213562
0.258362 0.397919 0.217163
0.311890 0.404510 0.220917
0.365265 0.411377 0.224823
0.421692 0.418518 0.228790
0.485260 0.425659 0.232758
0.560852 0.433014 0.236755
0.652283 0.440277 0.240692
0.218933 0.455963 0.220764
0.273346 0.463715 0.224670
0.326721 0.471649 0.228638
0.380646 0.479889 0.232635
0.438507 0.488281 0.236633
0.504700 0.496674 0.240570
0.583832 0.505066 0.244415
0.679047 0.513275 0.248108
0.234253 0.533020 0.228516
0.288452 0.542664 0.232513
0.341583 0.552399 0.236481
0.395996 0.562347 0.240448
0.455261 0.572174 0.244263
0.523956 0.581970 0.247986
0.606110 0.591431 0.251526
0.704254 0.600555 0.254852
0.095367 0.091461 0.224030
0.150665 0.097504 0.226868
0.210541 0.104706 0.230255
0.272949 0.113068 0.234253
0.334961 0.122406 0.239014
0.398468 0.132629 0.244446
0.466827 0.142487 0.249969
0.536530 0.146973 0.252625
0.119202 0.148590 0.230133
0.179138 0.157166 0.234100
0.242310 0.166748 0.238800
0.305176 0.177399 0.244232
0.365692 0.187836 0.249878
0.420410 0.192505 0.252533
0.482452 0.197693 0.255493
0.556427 0.203278 0.258667
0.149170 0.212799 0.238647
0.211792 0.223663 0.244049
0.273834 0.234497 0.249817
0.325684 0.239227 0.252441
0.378387 0.244354 0.255402
0.435181 0.249969 0.258606
0.500458 0.255829 0.261993
0.579010 0.262024 0.265625
0.180298 0.280853 0.249756
0.233185 0.285431 0.252350
0.286255 0.290497 0.255249
0.338806 0.295990 0.258453
0.392761 0.301758 0.261871
0.451813 0.307831 0.265533
0.520630 0.314056 0.269257
0.603943 0.320465 0.273132
0.192810 0.335999 0.255157
0.246613 0.341400 0.258362
0.300049 0.347229 0.261780
0.353058 0.353302 0.265381
0.408295 0.359619 0.269135
0.469849 0.366180 0.273041
0.542389 0.372772 0.276917
0.630371 0.379486 0.280884
0.206818 0.393921 0.261688
0.261139 0.400299 0.265259
0.314636 0.407013 0.269043
0.368103 0.413940 0.272888
0.424744 0.421112 0.276794
0.488861 0.428375 0.280762
0.565125 0.435699 0.284637
0.657318 0.442993 0.288452
0.221771 0.458740 0.268890
0.276154 0.466614 0.272736
0.329559 0.474701 0.276672
0.383514 0.482941 0.280609
0.441650 0.491364 0.284515
0.508301 0.499725 0.288361
0.588043 0.508087 0.292053
0.683868 0.516235 0.295654
0.237122 0.536530 0.276520
0.291199 0.546204 0.280457
0.344330 0.556030 0.284363
0.398804 0.565948 0.288208
0.458374 0.575775 0.291962
0.527466 0.585480 0.295563
0.610138 0.594849 0.298950
0.708618 0.603760 0.302094
0.099182 0.093567 0.271698
0.155426 0.100037 0.274658
0.216217 0.107697 0.278229
0.278839 0.116364 0.282379
0.340973 0.126068 0.287292
0.404816 0.136597 0.292908
0.469543 0.144073 0.297150
0.540009 0.148743 0.299805
0.124420 0.151611 0.278076
0.185028 0.160553 0.282227
0.248474 0.170532 0.287109
0.311127 0.181488 0.292694
0.367950 0.189514 0.297058
0.423004 0.194366 0.299744
0.485657 0.199707 0.302765
0.560425 0.205414 0.305969
0.155090 0.216644 0.286926
0.217896 0.227844 0.292542
0.276001 0.236145 0.296936
0.328033 0.241058 0.299652
0.380920 0.246399 0.302612
0.438141 0.252075 0.305847
0.504089 0.258057 0.309296
0.583496 0.264343 0.312927
0.182465 0.282471 0.296875
0.235626 0.287262 0.299530
0.288757 0.292450 0.302490
0.341400 0.298065 0.305756
0.395538 0.303925 0.309174
0.455078 0.310120 0.312805
0.524567 0.316406 0.316528
0.608765 0.322845 0.320404
0.195312 0.337952 0.302399
0.249237 0.343506 0.305634
0.302734 0.349457 0.309082
0.355865 0.355621 0.312683
0.411346 0.362000 0.316406
0.473328 0.368591 0.320251
0.546570 0.375244 0.324127
0.635376 0.381927 0.328033
0.209534 0.396210 0.308960
0.263885 0.402710 0.312561
0.317383 0.409515 0.316284
0.370941 0.416534 0.320068
0.427887 0.423767 0.324005
0.492462 0.431030 0.327881
0.569427 0.438354 0.331726
0.662384 0.445679 0.335510
0.224670 0.461639 0.316193
0.278961 0.469543 0.320007
0.332306 0.477722 0.323883
0.386353 0.486023 0.327728
0.444794 0.494446 0.331635
0.511902 0.502777 0.335419
0.592285 0.511108 0.339081
0.688660 0.519165 0.342560
0.239960 0.540009 0.323730
0.293945 0.549805 0.327637
0.347046 0.559692 0.331512
0.401611 0.569580 0.335266
0.461456 0.579407 0.338959
0.530945 0.588959 0.342468
0.614075 0.598175 0.345825
0.712891 0.606842 0.348877
0.103333 0.095795 0.318512
0.160431 0.102722 0.321655
0.222015 0.110779 0.325409
0.284821 0.119781 0.329773
0.347015 0.129852 0.334961
0.411194 0.140686 0.340851
0.472351 0.145752 0.343719
0.543549 0.150604 0.346527
0.129852 0.154724 0.325256
0.191040 0.164124 0.329651
0.254700 0.174530 0.334778
0.316986 0.185760 0.340637
0.370209 0.191223 0.343658
0.425659 0.196259 0.346466
0.488922 0.201752 0.349548
0.564545 0.207581 0.352875
0.161041 0.220642 0.334534
0.223969 0.232147 0.340454
0.278259 0.237885 0.343536
0.330383 0.242950 0.346375
0.383575 0.248444 0.349457
0.441162 0.254242 0.352783
0.507874 0.260376 0.356323
0.588043 0.266663 0.360077
0.184723 0.284180 0.343445
0.238068 0.289154 0.346252
0.291260 0.294464 0.349304
0.344025 0.300201 0.352661
0.398407 0.306152 0.356232
0.458405 0.312408 0.359955
0.528595 0.318726 0.363770
0.613617 0.325195 0.367737
0.197845 0.339935 0.349213
0.251953 0.345673 0.352570
0.305389 0.351685 0.356079
0.358612 0.357971 0.359802
0.414368 0.364380 0.363647
0.476868 0.371033 0.367584
0.550781 0.377686 0.371552
0.640411 0.384399 0.375549
0.212311 0.398560 0.355988
0.266663 0.405151 0.359650
0.320129 0.412048 0.363525
0.373871 0.419220 0.367462
0.431000 0.426422 0.371429
0.496155 0.433746 0.375427
0.573700 0.441040 0.379364
0.667389 0.448303 0.383301
0.227509 0.464508 0.363403
0.281799 0.472534 0.367310
0.335083 0.480743 0.371307
0.389252 0.489075 0.375305
0.447906 0.497498 0.379272
0.515472 0.505859 0.383118
0.596436 0.514069 0.386902
0.693420 0.522125 0.390533
0.242859 0.543640 0.371155
0.296722 0.553406 0.375153
0.349762 0.563354 0.379120
0.404358 0.573181 0.383026
0.464478 0.582947 0.386810
0.534332 0.592377 0.390411
0.617950 0.601410 0.393829
0.717133 0.609863 0.396942
0.107727 0.098206 0.365479
0.165710 0.105499 0.368896
0.227936 0.113953 0.372986
0.290833 0.123352 0.377777
0.353058 0.133728 0.383423
0.414612 0.142914 0.388702
0.475250 0.147491 0.391449
0.547333 0.152527 0.394531
0.135498 0.158081 0.372833
0.197144 0.167786 0.377625
0.260803 0.178528 0.383209
0.320404 0.188293 0.388611
0.372559 0.192993 0.391357
0.428436 0.198212 0.394409
0.492279 0.203827 0.397797
0.568726 0.209808 0.401428
0.166992 0.224762 0.382996
0.227783 0.234955 0.388550
0.280609 0.239685 0.391266
0.332825 0.244904 0.394318
0.386230 0.250549 0.397675
0.444275 0.256439 0.401306
0.511597 0.262665 0.405151
0.592682 0.269043 0.409149
0.187073 0.285919 0.391174
0.240540 0.291046 0.394226
0.293793 0.296509 0.397552
0.346649 0.302338 0.401184
0.401276 0.308441 0.404999
0.461731 0.314697 0.409027
0.532654 0.321136 0.413177
0.618530 0.327606 0.417450
0.200470 0.341980 0.397461
0.254639 0.347809 0.401062
0.308105 0.353973 0.404877
0.361450 0.360291 0.408905
0.417419 0.366791 0.413055
0.480408 0.373444 0.417328
0.555023 0.380157 0.421600
0.645416 0.386841 0.425934
0.215057 0.400970 0.404724
0.269501 0.407715 0.408783
0.322937 0.414642 0.412933
0.376709 0.421844 0.417175
0.434174 0.429077 0.421478
0.499725 0.436432 0.425812
0.577972 0.443726 0.430054
0.672333 0.450928 0.434296
0.230408 0.467407 0.412750
0.284576 0.475494 0.416992
0.337891 0.483765 0.421326
0.392090 0.492126 0.425629
0.451019 0.500610 0.429932
0.519135 0.508942 0.434143
0.600555 0.517059 0.438202
0.698090 0.524963 0.442139
0.245697 0.547180 0.421173
0.299438 0.557007 0.425476
0.352448 0.566956 0.429810
0.407104 0.576782 0.433990
0.467468 0.586456 0.438110
0.537689 0.595703 0.441956
0.621704 0.604645 0.445648
0.721191 0.612793 0.449005
0.112427 0.100739 0.414734
0.171234 0.108490 0.418671
0.233978 0.117310 0.423340
0.296967 0.127106 0.428894
0.359039 0.137726 0.435394
0.416962 0.144531 0.439789
0.478210 0.149261 0.442963
0.551086 0.154480 0.446472
0.141235 0.161530 0.423187
0.203308 0.171570 0.428711
0.266846 0.182678 0.435150
0.322540 0.189941 0.439697
0.374969 0.194855 0.442810
0.431213 0.200226 0.446350
0.495667 0.206024 0.450226
0.573090 0.212128 0.454376
0.173065 0.229034 0.434937
0.230042 0.236633 0.439606
0.282928 0.241577 0.442719
0.335297 0.246918 0.446228
0.388977 0.252655 0.450104
0.447388 0.258698 0.454224
0.515381 0.265015 0.458588
0.597382 0.271423 0.463165
0.189423 0.287750 0.442596
0.243103 0.293030 0.446106
0.296417 0.298645 0.449951
0.349335 0.304535 0.454102
0.404266 0.310699 0.458496
0.465149 0.317047 0.463013
0.536774 0.323486 0.467804
0.623474 0.329956 0.472626
0.203094 0.344086 0.449829
0.257355 0.350037 0.453918
0.310822 0.356232 0.458313
0.364258 0.362640 0.462891
0.420532 0.369263 0.467621
0.483978 0.375916 0.472443
0.559357 0.382629 0.477356
0.650452 0.389282 0.482239
0.217865 0.403412 0.458191
0.272339 0.410217 0.462708
0.325745 0.417297 0.467438
0.379608 0.424500 0.472260
0.437317 0.431763 0.477173
0.503387 0.439117 0.482086
0.582214 0.446350 0.486938
0.677277 0.453552 0.491760
0.233215 0.470367 0.467285
0.287384 0.478455 0.472107
0.340607 0.486816 0.477020
0.394989 0.495239 0.481934
0.454132 0.503632 0.486786
0.522644 0.511932 0.491577
0.604645 0.519958 0.496185
0.702606 0.527710 0.500610
0.248505 0.550812 0.476868
0.302124 0.560638 0.481750
0.355072 0.570557 0.486664
0.409821 0.580322 0.491394
0.470428 0.589905 0.496033
0.541077 0.599091 0.500427
0.625366 0.607666 0.504547
0.725159 0.615662 0.508301
