3d-lut/luts/Ava 614.CUBE
#Created by: Adobe Photoshop Export Color Lookup Plugin
#Copyright: (C) Copyright 2017 RocketStock
TITLE "Untitled"
#LUT size
LUT_3D_SIZE 5
#data domain
#LUT data points
DOMAIN_MIN 0.000000 0.000000 0.000000
DOMAIN_MAX 0.903226 0.903226 0.903226
0.000000 0.000000 0.000854
0.144745 0.000000 0.002930
0.488556 0.000000 0.005737
0.851868 0.000000 0.008972
0.999969 0.000000 0.012726
0.000000 0.102844 0.005585
0.158020 0.112000 0.008850
0.504181 0.122955 0.012573
0.859924 0.135559 0.016724
0.999969 0.149658 0.021179
0.000000 0.465088 0.012451
0.175964 0.480164 0.016571
0.522614 0.495972 0.021027
0.868805 0.512268 0.025757
0.999969 0.528748 0.030701
0.003723 0.869354 0.020874
0.197296 0.876862 0.025574
0.542419 0.884308 0.030487
0.877686 0.891479 0.035583
0.999969 0.898315 0.040649
0.015991 0.999969 0.030365
0.220215 0.999969 0.035400
0.561890 0.999969 0.040436
0.885773 0.999969 0.045380
0.999969 0.999969 0.049377
0.000000 0.000000 0.125916
0.146820 0.000000 0.129944
0.491180 0.000000 0.135132
0.853271 0.000000 0.141266
0.999969 0.000000 0.148438
0.000000 0.105988 0.134949
0.161041 0.115875 0.141052
0.507385 0.127350 0.148193
0.861633 0.140533 0.156097
0.999969 0.155151 0.164734
0.000000 0.470459 0.147949
0.179749 0.485840 0.155823
0.526306 0.501923 0.164459
0.870514 0.518341 0.173584
0.999969 0.534698 0.183075
0.005859 0.872131 0.164185
0.201477 0.879578 0.173248
0.546143 0.887024 0.182770
0.879303 0.894012 0.192444
0.999969 0.900726 0.202026
0.018433 0.999969 0.182465
0.224518 0.999969 0.192108
0.565399 0.999969 0.201752
0.887115 0.999969 0.210968
0.999969 0.999969 0.219482
0.000000 0.000000 0.432404
0.149078 0.000000 0.438141
0.493927 0.000000 0.445190
0.854736 0.000000 0.453217
0.999969 0.000000 0.462036
0.000000 0.109375 0.444946
0.164246 0.119934 0.452911
0.510834 0.132019 0.461731
0.863281 0.145782 0.471130
0.999969 0.160858 0.480957
0.000000 0.475952 0.461426
0.183624 0.491638 0.470886
0.529968 0.507965 0.480652
0.872162 0.524323 0.490570
0.999969 0.540741 0.500458
0.008118 0.874908 0.480286
0.205811 0.882294 0.490234
0.549774 0.889618 0.500122
0.880859 0.896515 0.509674
0.999969 0.902985 0.518768
0.020844 0.999969 0.499756
0.228821 0.999969 0.509369
0.568787 0.999969 0.518433
0.888489 0.999969 0.526886
0.999969 0.999969 0.534302
0.000000 0.000000 0.803284
0.151520 0.000000 0.806549
0.496796 0.000000 0.810333
0.856262 0.000000 0.814606
0.999969 0.000000 0.819153
0.000000 0.113037 0.810211
0.167542 0.124084 0.814423
0.514252 0.136841 0.819031
0.864899 0.151093 0.823792
0.999969 0.166779 0.828705
0.000000 0.481628 0.818848
0.187531 0.497589 0.823639
0.533569 0.513977 0.828522
0.873840 0.530426 0.833435
0.999969 0.546722 0.838135
0.010437 0.877594 0.828339
0.210022 0.885010 0.833252
0.553436 0.892181 0.837982
0.882324 0.898987 0.842499
0.999969 0.905182 0.846741
0.023346 0.999969 0.837830
0.232941 0.999969 0.842346
0.572021 0.999969 0.846558
0.889648 0.999969 0.850372
0.999969 0.999969 0.853699
0.000000 0.000000 0.999969
0.154114 0.000000 0.999969
0.499817 0.000000 0.999969
0.857788 0.000000 0.999969
0.999969 0.000000 0.999969
0.000000 0.116974 0.999969
0.171021 0.128601 0.999969
0.517761 0.141998 0.999969
0.866547 0.156647 0.999969
0.999969 0.172699 0.999969
0.000824 0.487427 0.999969
0.191650 0.503540 0.999969
0.537323 0.519928 0.999969
0.875488 0.536407 0.999969
0.999969 0.552460 0.999969
0.012726 0.880371 0.999969
0.214386 0.887695 0.999969
0.557068 0.894775 0.999969
0.883850 0.901306 0.999969
0.999969 0.907288 0.999969
0.025818 0.999969 0.999969
0.237030 0.999969 0.999969
0.575226 0.999969 0.999969
0.890839 0.999969 0.999969
0.999969 0.999969 0.999969
