3d-lut/luts/Ava 614.CUBE
#Created by: Adobe Photoshop Export Color Lookup Plugin
#Copyright: (C) Copyright 2017 RocketStock
TITLE "Untitled"
#LUT size
LUT_3D_SIZE 32
#data domain
DOMAIN_MIN 0.0 0.0 0.0
DOMAIN_MAX 1.0 1.0 1.0
#LUT data points
0.000000 0.000000 0.000854
0.000000 0.000000 0.001068
0.012939 0.000000 0.001343
0.033478 0.000000 0.001617
0.054749 0.000000 0.001923
0.079742 0.000000 0.002258
0.109955 0.000000 0.002625
0.144745 0.000000 0.002930
0.184479 0.000000 0.003326
0.228882 0.000000 0.003632
0.276917 0.000000 0.004059
0.327820 0.000000 0.004456
0.380615 0.000000 0.004883
0.434418 0.000000 0.005249
0.488556 0.000000 0.005737
0.542419 0.000000 0.006104
0.596985 0.000000 0.006531
0.651886 0.000000 0.007050
0.705933 0.000000 0.007477
0.757935 0.000000 0.008026
0.806915 0.000000 0.008514
0.851868 0.000000 0.008972
0.892395 0.000000 0.009521
0.928101 0.000000 0.009979
0.958984 0.000000 0.010468
0.985107 0.000000 0.011047
0.999969 0.000000 0.011597
0.999969 0.000000 0.012146
0.999969 0.000000 0.012726
0.999969 0.000000 0.013275
0.999969 0.000000 0.013916
0.999969 0.000000 0.014435
0.000000 0.000000 0.001343
0.000000 0.000000 0.001617
0.013702 0.000000 0.001923
0.034363 0.000000 0.002258
0.055511 0.000000 0.002533
0.080963 0.000000 0.002930
0.111328 0.000000 0.003265
0.146271 0.000000 0.003632
0.186218 0.000000 0.003998
0.230743 0.000000 0.004425
0.278992 0.000000 0.004822
0.329895 0.000000 0.005249
0.382660 0.000000 0.005676
0.436462 0.000000 0.006104
0.490601 0.000000 0.006531
0.544250 0.000000 0.007050
0.598846 0.000000 0.007477
0.653717 0.000000 0.007965
0.707550 0.000000 0.008484
0.759399 0.000000 0.008972
0.808228 0.000000 0.009491
0.852966 0.000000 0.009979
0.893219 0.000000 0.010468
0.928802 0.000000 0.011047
0.959503 0.000000 0.011597
0.985504 0.000000 0.012146
0.999969 0.000000 0.012726
0.999969 0.000000 0.013275
0.999969 0.000000 0.013885
0.999969 0.000000 0.014435
0.999969 0.000000 0.015015
0.999969 0.000000 0.015656
0.000000 0.000000 0.001923
0.000000 0.000000 0.002258
0.014587 0.000000 0.002533
0.035431 0.000000 0.002930
0.056458 0.000000 0.003265
0.082184 0.000000 0.003601
0.112823 0.000000 0.003998
0.147949 0.000000 0.004425
0.188080 0.000000 0.004822
0.232849 0.000000 0.005219
0.281158 0.000000 0.005676
0.332123 0.000000 0.006073
0.384857 0.000000 0.006531
0.438690 0.000000 0.007050
0.492645 0.000000 0.007416
0.546295 0.000336 0.007965
0.600800 0.001160 0.008484
0.655518 0.002014 0.008972
0.709290 0.002930 0.009491
0.760956 0.003876 0.009918
0.809479 0.004700 0.010468
0.854034 0.005646 0.011017
0.894196 0.006653 0.011536
0.929504 0.007660 0.012085
0.960022 0.008698 0.012695
0.985901 0.009674 0.013214
0.999969 0.010742 0.013885
0.999969 0.011780 0.014374
0.999969 0.012878 0.015015
0.999969 0.013947 0.015594
0.999969 0.015106 0.016174
0.999969 0.016296 0.016815
0.000000 0.007416 0.002533
0.000000 0.007965 0.002930
0.015564 0.008667 0.003265
0.036530 0.009277 0.003601
0.057373 0.009918 0.003998
0.083557 0.010651 0.004425
0.114349 0.011353 0.004822
0.149811 0.012085 0.005219
0.190155 0.012878 0.005676
0.235016 0.013702 0.006073
0.283356 0.014496 0.006531
0.334351 0.015411 0.006958
0.387146 0.016296 0.007416
0.440887 0.017181 0.007935
0.494812 0.018066 0.008423
0.548370 0.019043 0.008942
0.602844 0.020050 0.009491
0.657410 0.021027 0.009918
0.710999 0.022003 0.010437
0.762543 0.023010 0.011017
0.810883 0.024170 0.011536
0.855164 0.025238 0.012085
0.895081 0.026306 0.012695
0.930237 0.027496 0.013214
0.960602 0.028625 0.013794
0.986267 0.029755 0.014374
0.999969 0.030975 0.014984
0.999969 0.032227 0.015594
0.999969 0.033478 0.016174
0.999969 0.034821 0.016815
0.999969 0.036133 0.017456
0.999969 0.037445 0.018066
0.000000 0.027008 0.003235
0.000000 0.027740 0.003601
0.016541 0.028534 0.003998
0.037720 0.029266 0.004425
0.058411 0.030121 0.004761
0.085083 0.030945 0.005188
0.116119 0.031830 0.005646
0.151672 0.032623 0.006042
0.192291 0.033600 0.006500
0.237244 0.034546 0.006958
0.285706 0.035461 0.007416
0.336823 0.036499 0.007935
0.389526 0.037598 0.008423
0.443237 0.038544 0.008942
0.497070 0.039642 0.009399
0.550568 0.040833 0.009888
0.604919 0.041931 0.010437
0.659424 0.043121 0.010986
0.712860 0.044312 0.011505
0.764130 0.045532 0.012054
0.812286 0.046844 0.012634
0.856323 0.047760 0.013214
0.896027 0.048767 0.013794
0.930939 0.049744 0.014343
0.961182 0.050751 0.014984
0.986694 0.051788 0.015564
0.999969 0.052826 0.016144
0.999969 0.053925 0.016754
0.999969 0.054993 0.017456
0.999969 0.056091 0.018005
0.999969 0.057220 0.018646
0.999969 0.058411 0.019318
0.000000 0.049255 0.003937
0.000000 0.049866 0.004364
0.017639 0.050568 0.004761
0.038971 0.051270 0.005188
0.059631 0.052032 0.005646
0.086639 0.052765 0.006042
0.117889 0.053558 0.006500
0.153717 0.054352 0.006927
0.194458 0.055145 0.007416
0.239655 0.056000 0.007935
0.288177 0.056885 0.008392
0.339294 0.057770 0.008942
0.391998 0.058716 0.009399
0.445587 0.059814 0.009888
0.499390 0.061005 0.010437
0.552765 0.062195 0.010925
0.607056 0.063538 0.011505
0.661407 0.064850 0.012054
0.714661 0.066101 0.012604
0.765778 0.067413 0.013184
0.813660 0.068848 0.013794
0.857513 0.070282 0.014343
0.896912 0.071686 0.014984
0.931732 0.073120 0.015472
0.961761 0.074615 0.016144
0.987152 0.076141 0.016754
0.999969 0.077606 0.017395
0.999969 0.079163 0.017944
0.999969 0.080841 0.018616
0.999969 0.082336 0.019257
0.999969 0.084015 0.019958
0.999969 0.085693 0.020569
0.000000 0.072388 0.004761
0.000275 0.073395 0.005157
0.018829 0.074432 0.005585
0.040253 0.075531 0.006042
0.061066 0.076599 0.006500
0.088287 0.077759 0.006927
0.119690 0.078888 0.007385
0.155762 0.080139 0.007904
0.196777 0.081299 0.008392
0.242096 0.082581 0.008850
0.290771 0.083862 0.009399
0.341858 0.085205 0.009888
0.394623 0.086609 0.010406
0.448090 0.087952 0.010925
0.501740 0.089386 0.011505
0.555084 0.090759 0.012054
0.609314 0.092255 0.012604
0.663513 0.093842 0.013184
0.716583 0.095306 0.013763
0.767456 0.096954 0.014343
0.815063 0.098511 0.014923
0.858734 0.100189 0.015472
0.898010 0.101837 0.016144
0.932526 0.103516 0.016724
0.962341 0.105225 0.017365
0.987549 0.107025 0.017944
0.999969 0.108734 0.018616
0.999969 0.110596 0.019226
0.999969 0.112396 0.019928
0.999969 0.114258 0.020508
0.999969 0.116241 0.021179
0.999969 0.118042 0.021881
0.000000 0.102844 0.005585
0.001312 0.104034 0.005981
0.020050 0.105255 0.006470
0.041718 0.106537 0.006927
0.062592 0.107849 0.007385
0.090088 0.109192 0.007843
0.121735 0.110596 0.008301
0.158020 0.112000 0.008850
0.199249 0.113434 0.009369
0.244629 0.114990 0.009857
0.293396 0.116486 0.010406
0.344543 0.117981 0.010925
0.397186 0.119598 0.011475
0.450623 0.121307 0.012024
0.504181 0.122955 0.012573
0.557404 0.124603 0.013153
0.611603 0.126373 0.013702
0.665619 0.128174 0.014313
0.718475 0.129913 0.014923
0.769196 0.131744 0.015472
0.816559 0.133606 0.016113
0.859924 0.135559 0.016724
0.898987 0.137451 0.017365
0.933258 0.139374 0.017914
0.962921 0.141357 0.018616
0.987976 0.143402 0.019226
0.999969 0.145386 0.019867
0.999969 0.147522 0.020508
0.999969 0.149658 0.021179
0.999969 0.151733 0.021851
0.999969 0.153931 0.022491
0.999969 0.156036 0.023224
0.000000 0.138916 0.006470
0.002441 0.140350 0.006866
0.021332 0.141846 0.007385
0.043213 0.143372 0.007843
0.064270 0.144928 0.008301
0.091858 0.146576 0.008850
0.123749 0.148071 0.009369
0.160309 0.149811 0.009857
0.201782 0.151520 0.010406
0.247284 0.153320 0.010895
0.296143 0.155090 0.011475
0.347260 0.156830 0.012024
0.399963 0.158722 0.012573
0.453339 0.160553 0.013153
0.506653 0.162567 0.013702
0.559784 0.164520 0.014313
0.613831 0.166565 0.014862
0.667786 0.168610 0.015442
0.720459 0.170593 0.016113
0.770905 0.172729 0.016693
0.818054 0.174866 0.017303
0.861206 0.177063 0.017914
0.899933 0.179230 0.018555
0.934052 0.181396 0.019196
0.963501 0.183716 0.019867
0.988403 0.186066 0.020477
0.999969 0.188293 0.021149
0.999969 0.190704 0.021851
0.999969 0.193115 0.022491
0.999969 0.195374 0.023163
0.999969 0.197876 0.023834
0.999969 0.200226 0.024506
0.000000 0.181549 0.007355
0.003632 0.183228 0.007843
0.022766 0.184967 0.008301
0.044769 0.186768 0.008820
0.065887 0.188507 0.009338
0.093750 0.190338 0.009857
0.125885 0.192200 0.010345
0.162720 0.194183 0.010895
0.204346 0.196075 0.011444
0.250000 0.198059 0.011993
0.298981 0.200134 0.012573
0.350128 0.202209 0.013153
0.402710 0.204315 0.013672
0.455933 0.206421 0.014313
0.509277 0.208679 0.014862
0.562286 0.210785 0.015442
0.616272 0.213043 0.016113
0.670013 0.215332 0.016663
0.722473 0.217651 0.017303
0.772644 0.220001 0.017914
0.819550 0.222321 0.018555
0.862427 0.224731 0.019196
0.901001 0.227142 0.019806
0.934875 0.229584 0.020477
0.964111 0.232025 0.021118
0.988831 0.234619 0.021851
0.999969 0.237061 0.022461
0.999969 0.239655 0.023163
0.999969 0.242218 0.023804
0.999969 0.244751 0.024506
0.999969 0.247406 0.025177
0.999969 0.249969 0.025879
0.000000 0.230591 0.008270
0.004913 0.232422 0.008820
0.024170 0.234436 0.009338
0.046417 0.236359 0.009827
0.067627 0.238342 0.010345
0.095764 0.240417 0.010895
0.128143 0.242401 0.011444
0.165161 0.244568 0.011993
0.207062 0.246826 0.012512
0.252899 0.248932 0.013092
0.301849 0.251129 0.013672
0.353058 0.253418 0.014252
0.405548 0.255585 0.014832
0.458801 0.257996 0.015442
0.511810 0.260284 0.016022
0.564758 0.262726 0.016663
0.618622 0.265106 0.017273
0.672150 0.267517 0.017883
0.724548 0.269989 0.018494
0.774445 0.272491 0.019196
0.821106 0.275024 0.019806
0.863739 0.277527 0.020416
0.901978 0.280090 0.021118
0.935669 0.282623 0.021759
0.964722 0.285248 0.022461
0.989258 0.287903 0.023102
0.999969 0.290497 0.023804
0.999969 0.293152 0.024445
0.999969 0.295807 0.025146
0.999969 0.298523 0.025848
0.999969 0.301239 0.026581
0.999969 0.303833 0.027222
0.000000 0.284882 0.009338
0.006256 0.286865 0.009827
0.025696 0.289001 0.010345
0.047791 0.290985 0.010803
0.069519 0.293152 0.011353
0.097809 0.295349 0.011993
0.130432 0.297546 0.012512
0.167816 0.299774 0.013092
0.209869 0.302063 0.013641
0.255798 0.304321 0.014252
0.304779 0.306702 0.014771
0.355988 0.309082 0.015411
0.408478 0.311401 0.016022
0.461517 0.313904 0.016663
0.514496 0.316315 0.017273
0.567352 0.318787 0.017883
0.621033 0.321198 0.018494
0.674408 0.323761 0.019165
0.726562 0.326324 0.019806
0.776245 0.328888 0.020416
0.822601 0.331421 0.021057
0.865021 0.334076 0.021759
0.903046 0.336670 0.022461
0.936493 0.339264 0.023071
0.965302 0.341919 0.023712
0.989685 0.344513 0.024414
0.999969 0.347198 0.025146
0.999969 0.349915 0.025848
0.999969 0.352539 0.026459
0.999969 0.355286 0.027191
0.999969 0.358002 0.027924
0.999969 0.360596 0.028625
0.000000 0.342926 0.010315
0.007599 0.345123 0.010803
0.027222 0.347321 0.011353
0.049103 0.349426 0.011902
0.071381 0.351624 0.012512
0.099976 0.353882 0.013092
0.132843 0.356079 0.013641
0.170410 0.358368 0.014221
0.212738 0.360748 0.014771
0.258789 0.363068 0.015411
0.307861 0.365540 0.015991
0.359009 0.367828 0.016571
0.411438 0.370270 0.017242
0.464417 0.372681 0.017822
0.517212 0.375153 0.018463
0.569946 0.377563 0.019165
0.623566 0.380127 0.019775
0.676727 0.382660 0.020386
0.728607 0.385162 0.021057
0.778076 0.387787 0.021729
0.824158 0.390259 0.022430
0.866302 0.392853 0.023071
0.904022 0.395477 0.023712
0.937225 0.398010 0.024414
0.965912 0.400635 0.025146
0.990112 0.403198 0.025818
0.999969 0.405914 0.026459
0.999969 0.408539 0.027191
0.999969 0.411102 0.027924
0.999969 0.413757 0.028564
0.999969 0.416412 0.029297
0.999969 0.418945 0.029999
0.000000 0.403534 0.011322
0.009094 0.405609 0.011902
0.028839 0.407806 0.012451
0.050537 0.410034 0.013062
0.073364 0.412262 0.013641
0.102173 0.414398 0.014221
0.135315 0.416656 0.014771
0.173218 0.418945 0.015381
0.215668 0.421265 0.015991
0.261871 0.423553 0.016571
0.310974 0.425964 0.017242
0.362091 0.428253 0.017822
0.414490 0.430634 0.018463
0.467316 0.433105 0.019104
0.519897 0.435455 0.019775
0.572571 0.437927 0.020386
0.626038 0.440369 0.021057
0.679108 0.442780 0.021698
0.730682 0.445282 0.022430
0.779877 0.447723 0.023010
0.825714 0.450226 0.023682
0.867523 0.452759 0.024414
0.905060 0.455170 0.025085
0.938110 0.457672 0.025757
0.966553 0.460236 0.026459
0.990570 0.462708 0.027130
0.999969 0.465210 0.027832
0.999969 0.467804 0.028564
0.999969 0.470245 0.029297
0.999969 0.472778 0.029999
0.999969 0.475250 0.030701
0.999969 0.477753 0.031403
0.000000 0.465088 0.012451
0.010590 0.467194 0.012970
0.030518 0.469269 0.013611
0.051941 0.471436 0.014191
0.075409 0.473511 0.014740
0.104462 0.475708 0.015381
0.137909 0.477875 0.015961
0.175964 0.480164 0.016571
0.218597 0.482330 0.017181
0.264984 0.484497 0.017822
0.314148 0.486816 0.018463
0.365234 0.489044 0.019104
0.417511 0.491364 0.019745
0.470215 0.493744 0.020386
0.522614 0.495972 0.021027
0.575287 0.498322 0.021698
0.628510 0.500641 0.022400
0.681396 0.502930 0.023010
0.732819 0.505249 0.023651
0.781738 0.507690 0.024384
0.827301 0.509918 0.025085
0.868805 0.512268 0.025757
0.906158 0.514648 0.026428
0.938843 0.517029 0.027130
0.967102 0.519409 0.027832
0.990997 0.521759 0.028564
0.999969 0.524048 0.029266
0.999969 0.526459 0.029968
0.999969 0.528748 0.030701
0.999969 0.531128 0.031403
0.999969 0.533478 0.032104
0.999969 0.535797 0.032867
0.000000 0.526337 0.013611
0.012085 0.528320 0.014191
0.032288 0.530304 0.014740
0.053436 0.532288 0.015320
0.077423 0.534393 0.015930
0.106812 0.536469 0.016541
0.140503 0.538513 0.017181
0.178833 0.540588 0.017792
0.221710 0.542755 0.018433
0.268158 0.544922 0.019104
0.317352 0.547028 0.019745
0.368408 0.549225 0.020325
0.420563 0.551392 0.021027
0.473175 0.553558 0.021667
0.525421 0.555756 0.022400
0.577942 0.557922 0.022980
0.631104 0.560181 0.023651
0.683716 0.562500 0.024384
0.734833 0.564636 0.025024
0.783539 0.566895 0.025726
0.828827 0.569153 0.026428
0.870178 0.571411 0.027130
0.907135 0.573608 0.027802
0.939636 0.575867 0.028534
0.967743 0.578217 0.029266
0.991425 0.580353 0.029968
0.999969 0.582642 0.030670
0.999969 0.584930 0.031372
0.999969 0.587128 0.032104
0.999969 0.589417 0.032837
0.999969 0.591614 0.033508
0.999969 0.593842 0.034271
0.000000 0.587616 0.014709
0.013672 0.589569 0.015320
0.034088 0.591583 0.015930
0.054932 0.593475 0.016541
0.079590 0.595551 0.017181
0.109222 0.597443 0.017792
0.143127 0.599548 0.018433
0.181793 0.601532 0.019043
0.224854 0.603546 0.019684
0.271393 0.605621 0.020325
0.320587 0.607758 0.020966
0.371613 0.609833 0.021667
0.423706 0.611908 0.022308
0.476105 0.614014 0.022980
0.528259 0.616089 0.023651
0.580597 0.618256 0.024353
0.633636 0.620300 0.025024
0.686066 0.622437 0.025726
0.736969 0.624634 0.026428
0.785431 0.626709 0.027100
0.830444 0.628876 0.027802
0.871429 0.631012 0.028534
0.908173 0.633026 0.029175
0.940491 0.635162 0.029907
0.968323 0.637390 0.030670
0.991882 0.639465 0.031342
0.999969 0.641510 0.032043
0.999969 0.643677 0.032837
0.999969 0.645721 0.033508
0.999969 0.647827 0.034241
0.999969 0.649994 0.034943
0.999969 0.652008 0.035675
0.000000 0.649170 0.015869
0.015320 0.651031 0.016510
0.035950 0.652863 0.017120
0.056519 0.654785 0.017761
0.081848 0.656677 0.018372
0.111755 0.658569 0.019043
0.145935 0.660400 0.019684
0.184814 0.662323 0.020325
0.227997 0.664246 0.020966
0.274628 0.666168 0.021606
0.323914 0.668091 0.022308
0.374878 0.670013 0.022949
0.426849 0.671967 0.023621
0.479156 0.674011 0.024353
0.531036 0.675873 0.024994
0.583374 0.677826 0.025696
0.636230 0.679871 0.026398
0.688416 0.681732 0.027100
0.739136 0.683746 0.027771
0.787231 0.685577 0.028503
0.831909 0.687683 0.029175
0.872711 0.689575 0.029907
0.909180 0.691467 0.030640
0.941254 0.693451 0.031342
0.968903 0.695374 0.032043
0.992279 0.697327 0.032745
0.999969 0.699249 0.033478
0.999969 0.701233 0.034241
0.999969 0.703064 0.034912
0.999969 0.704926 0.035675
0.999969 0.706757 0.036346
0.999969 0.708618 0.037079
0.000000 0.709473 0.017120
0.017029 0.711151 0.017761
0.037842 0.712952 0.018372
0.058167 0.714661 0.019012
0.084106 0.716370 0.019653
0.114227 0.718018 0.020294
0.148712 0.719849 0.020935
0.187866 0.721588 0.021606
0.231201 0.723206 0.022278
0.277985 0.724976 0.022949
0.327148 0.726776 0.023621
0.378113 0.728516 0.024261
0.429993 0.730286 0.024963
0.482178 0.732056 0.025696
0.533844 0.733765 0.026337
0.586090 0.735565 0.027069
0.638733 0.737305 0.027771
0.690796 0.739075 0.028503
0.741241 0.740814 0.029144
0.789032 0.742554 0.029877
0.833496 0.744263 0.030579
0.873962 0.746063 0.031342
0.910217 0.747742 0.032013
0.942047 0.749542 0.032715
0.969482 0.751221 0.033478
0.992706 0.752838 0.034210
0.999969 0.754639 0.034912
0.999969 0.756287 0.035675
0.999969 0.757874 0.036346
0.999969 0.759613 0.037079
0.999969 0.761261 0.037811
0.999969 0.762848 0.038513
0.000458 0.767151 0.018341
0.018707 0.768616 0.018951
0.039795 0.770233 0.019653
0.059998 0.771667 0.020264
0.086456 0.773224 0.020935
0.116791 0.774658 0.021576
0.151581 0.776215 0.022278
0.190948 0.777832 0.022949
0.234467 0.779266 0.023560
0.281311 0.780884 0.024231
0.330536 0.782349 0.024963
0.381378 0.783875 0.025604
0.433136 0.785431 0.026337
0.485168 0.786987 0.027069
0.536743 0.788483 0.027740
0.588806 0.790039 0.028473
0.641266 0.791565 0.029083
0.693115 0.793060 0.029877
0.743347 0.794617 0.030579
0.790833 0.796112 0.031250
0.835052 0.797638 0.032013
0.875244 0.799103 0.032715
0.911194 0.800598 0.033447
0.942841 0.802063 0.034210
0.970062 0.803589 0.034912
0.993103 0.805023 0.035614
0.999969 0.806458 0.036316
0.999969 0.807922 0.037048
0.999969 0.809357 0.037811
0.999969 0.810730 0.038513
0.999969 0.812073 0.039215
0.999969 0.813507 0.039917
0.002075 0.820770 0.019592
0.020508 0.822021 0.020264
0.041748 0.823273 0.020874
0.062103 0.824646 0.021576
0.088806 0.825958 0.022247
0.119415 0.827240 0.022888
0.154480 0.828552 0.023560
0.194122 0.829865 0.024231
0.237823 0.831146 0.024902
0.284729 0.832458 0.025604
0.333923 0.833801 0.026306
0.384735 0.835083 0.027008
0.436371 0.836334 0.027679
0.488098 0.837646 0.028381
0.539551 0.838928 0.029083
0.591553 0.840210 0.029816
0.643860 0.841522 0.030518
0.695435 0.842804 0.031250
0.745392 0.844086 0.031921
0.792633 0.845276 0.032654
0.836517 0.846588 0.033447
0.876434 0.847809 0.034149
0.912170 0.849091 0.034882
0.943604 0.850281 0.035583
0.970642 0.851532 0.036316
0.993530 0.852722 0.037018
0.999969 0.853943 0.037781
0.999969 0.855072 0.038452
0.999969 0.856293 0.039185
0.999969 0.857452 0.039917
0.999969 0.858612 0.040649
0.999969 0.859741 0.041382
0.003723 0.869354 0.020874
0.022308 0.870453 0.021576
0.043854 0.871460 0.022186
0.064331 0.872620 0.022827
0.091217 0.873596 0.023560
0.122162 0.874725 0.024200
0.157379 0.875732 0.024902
0.197296 0.876862 0.025574
0.241119 0.877930 0.026245
0.288055 0.879028 0.027008
0.337341 0.880096 0.027679
0.388031 0.881134 0.028381
0.439545 0.882172 0.029053
0.491180 0.883270 0.029755
0.542419 0.884308 0.030487
0.594299 0.885315 0.031250
0.646393 0.886322 0.031891
0.697815 0.887421 0.032654
0.747437 0.888489 0.033447
0.794495 0.889496 0.034088
0.838043 0.890472 0.034882
0.877686 0.891479 0.035583
0.913208 0.892487 0.036285
0.944336 0.893463 0.037018
0.971222 0.894440 0.037720
0.993927 0.895416 0.038422
0.999969 0.896393 0.039185
0.999969 0.897369 0.039886
0.999969 0.898315 0.040649
0.999969 0.899200 0.041290
0.999969 0.900177 0.042053
0.999969 0.901062 0.042786
0.005371 0.912354 0.022186
0.024200 0.913208 0.022827
0.045929 0.914124 0.023529
0.066528 0.914948 0.024200
0.093689 0.915802 0.024902
0.124847 0.916656 0.025574
0.160400 0.917480 0.026245
0.200531 0.918396 0.026947
0.244476 0.919220 0.027649
0.291504 0.920044 0.028351
0.340637 0.920837 0.029053
0.391357 0.921722 0.029755
0.442719 0.922546 0.030487
0.494171 0.923431 0.031219
0.545227 0.924225 0.031891
0.596985 0.925079 0.032654
0.648926 0.925842 0.033386
0.700104 0.926697 0.034088
0.749512 0.927521 0.034821
0.796265 0.928314 0.035492
0.839508 0.929108 0.036285
0.878937 0.929871 0.037018
0.914154 0.930634 0.037720
0.945129 0.931396 0.038422
0.971802 0.932220 0.039154
0.994324 0.932953 0.039886
0.999969 0.933746 0.040588
0.999969 0.934448 0.041290
0.999969 0.935211 0.042023
0.999969 0.935913 0.042755
0.999969 0.936584 0.043427
0.999969 0.937317 0.044159
0.007050 0.949493 0.023529
0.026123 0.950195 0.024170
0.047760 0.950836 0.024872
0.068726 0.951508 0.025513
0.096191 0.952179 0.026245
0.127625 0.952820 0.026917
0.163483 0.953491 0.027649
0.203796 0.954132 0.028351
0.247894 0.954773 0.029053
0.294922 0.955444 0.029724
0.344086 0.956055 0.030457
0.394653 0.956726 0.031219
0.445953 0.957336 0.031891
0.497162 0.958038 0.032623
0.548126 0.958679 0.033325
0.599670 0.959198 0.034058
0.651459 0.959839 0.034821
0.702362 0.960480 0.035461
0.751556 0.961090 0.036224
0.797974 0.961670 0.036957
0.841003 0.962311 0.037659
0.880127 0.962860 0.038422
0.915100 0.963501 0.039154
0.945831 0.964081 0.039886
0.972290 0.964661 0.040558
0.994751 0.965240 0.041290
0.999969 0.965759 0.042023
0.999969 0.966339 0.042755
0.999969 0.966858 0.043396
0.999969 0.967407 0.044159
0.999969 0.967957 0.044830
0.999969 0.968506 0.045532
0.008789 0.980865 0.024872
0.028015 0.981354 0.025482
0.049377 0.981873 0.026184
0.071075 0.982300 0.026917
0.098755 0.982819 0.027649
0.130402 0.983276 0.028320
0.166565 0.983765 0.029022
0.207062 0.984253 0.029724
0.251221 0.984680 0.030457
0.298401 0.985168 0.031189
0.347473 0.985657 0.031860
0.397919 0.986145 0.032593
0.449097 0.986603 0.033295
0.500092 0.987030 0.034027
0.550903 0.987518 0.034790
0.602356 0.987946 0.035461
0.653961 0.988434 0.036194
0.704681 0.988831 0.036957
0.753571 0.989288 0.037659
0.799683 0.989746 0.038361
0.842438 0.990204 0.039062
0.881317 0.990601 0.039856
0.916046 0.991058 0.040558
0.946564 0.991455 0.041260
0.972870 0.991882 0.041992
0.995087 0.992279 0.042725
0.999969 0.992706 0.043396
0.999969 0.993103 0.044128
0.999969 0.993469 0.044830
0.999969 0.993835 0.045532
0.999969 0.994232 0.046173
0.999969 0.994598 0.046906
0.010590 0.999969 0.026184
0.029999 0.999969 0.026917
0.051025 0.999969 0.027618
0.073364 0.999969 0.028320
0.101349 0.999969 0.029022
0.133270 0.999969 0.029694
0.169647 0.999969 0.030426
0.210327 0.999969 0.031189
0.254608 0.999969 0.031860
0.301758 0.999969 0.032593
0.350891 0.999969 0.033295
0.401215 0.999969 0.034027
0.452179 0.999969 0.034790
0.503021 0.999969 0.035431
0.553680 0.999969 0.036194
0.605011 0.999969 0.036896
0.656433 0.999969 0.037659
0.706909 0.999969 0.038361
0.755432 0.999969 0.039062
0.801361 0.999969 0.039795
0.843872 0.999969 0.040466
0.882446 0.999969 0.041260
0.916962 0.999969 0.041931
0.947235 0.999969 0.042725
0.973389 0.999969 0.043396
0.995453 0.999969 0.044128
0.999969 0.999969 0.044769
0.999969 0.999969 0.045471
0.999969 0.999969 0.046143
0.999969 0.999969 0.046906
0.999969 0.999969 0.047394
0.999969 0.999969 0.047913
0.012329 0.999969 0.027618
0.032013 0.999969 0.028320
0.052704 0.999969 0.028992
0.075714 0.999969 0.029694
0.103912 0.999969 0.030426
0.136047 0.999969 0.031097
0.172760 0.999969 0.031830
0.213654 0.999969 0.032562
0.258026 0.999969 0.033264
0.305206 0.999969 0.033966
0.354187 0.999969 0.034760
0.404541 0.999969 0.035431
0.455322 0.999969 0.036163
0.506042 0.999969 0.036896
0.556458 0.999969 0.037628
0.607605 0.999969 0.038361
0.658875 0.999969 0.039032
0.709076 0.999969 0.039795
0.757446 0.999969 0.040436
0.803070 0.999969 0.041199
0.845245 0.999969 0.041931
0.883636 0.999969 0.042633
0.917816 0.999969 0.043335
0.947968 0.999969 0.044037
0.973938 0.999969 0.044769
0.995819 0.999969 0.045471
0.999969 0.999969 0.046143
0.999969 0.999969 0.046875
0.999969 0.999969 0.047363
0.999969 0.999969 0.047913
0.999969 0.999969 0.048370
0.999969 0.999969 0.048889
0.014191 0.999969 0.028992
0.034058 0.999969 0.029694
0.054413 0.999969 0.030365
0.078064 0.999969 0.031097
0.106476 0.999969 0.031769
0.138947 0.999969 0.032471
0.175903 0.999969 0.033264
0.216949 0.999969 0.033966
0.261444 0.999969 0.034668
0.308624 0.999969 0.035431
0.357605 0.999969 0.036163
0.407776 0.999969 0.036865
0.458374 0.999969 0.037628
0.508881 0.999969 0.038330
0.559204 0.999969 0.039032
0.610168 0.999969 0.039764
