3d-lut/luts/Ava 614.CUBE
#Created by: Adobe Photoshop Export Color Lookup Plugin
#Copyright: (C) Copyright 2017 RocketStock
TITLE "Untitled"
#LUT size
LUT_3D_SIZE 8
#data domain
#LUT data points
DOMAIN_MIN 0.000000 0.000000 0.000000
DOMAIN_MAX 0.903226 0.903226 0.903226
0.000000 0.000000 0.000854
0.054749 0.000000 0.001923
0.184479 0.000000 0.003326
0.380615 0.000000 0.004883
0.596985 0.000000 0.006531
0.806915 0.000000 0.008514
0.958984 0.000000 0.010468
0.999969 0.000000 0.012726
0.000000 0.027008 0.003235
0.058411 0.030121 0.004761
0.192291 0.033600 0.006500
0.389526 0.037598 0.008423
0.604919 0.041931 0.010437
0.812286 0.046844 0.012634
0.961182 0.050751 0.014984
0.999969 0.054993 0.017456
0.000000 0.138916 0.006470
0.064270 0.144928 0.008301
0.201782 0.151520 0.010406
0.399963 0.158722 0.012573
0.613831 0.166565 0.014862
0.818054 0.174866 0.017303
0.963501 0.183716 0.019867
0.999969 0.193115 0.022491
0.000000 0.342926 0.010315
0.071381 0.351624 0.012512
0.212738 0.360748 0.014771
0.411438 0.370270 0.017242
0.623566 0.380127 0.019775
0.824158 0.390259 0.022430
0.965912 0.400635 0.025146
0.999969 0.411102 0.027924
0.000000 0.587616 0.014709
0.079590 0.595551 0.017181
0.224854 0.603546 0.019684
0.423706 0.611908 0.022308
0.633636 0.620300 0.025024
0.830444 0.628876 0.027802
0.968323 0.637390 0.030670
0.999969 0.645721 0.033508
0.002075 0.820770 0.019592
0.088806 0.825958 0.022247
0.237823 0.831146 0.024902
0.436371 0.836334 0.027679
0.643860 0.841522 0.030518
0.836517 0.846588 0.033447
0.970642 0.851532 0.036316
0.999969 0.856293 0.039185
0.008789 0.980865 0.024872
0.098755 0.982819 0.027649
0.251221 0.984680 0.030457
0.449097 0.986603 0.033295
0.653961 0.988434 0.036194
0.842438 0.990204 0.039062
0.972870 0.991882 0.041992
0.999969 0.993469 0.044830
0.015991 0.999969 0.030365
0.109131 0.999969 0.033203
0.264801 0.999969 0.036133
0.461426 0.999969 0.039032
0.663605 0.999969 0.041901
0.847931 0.999969 0.044739
0.974884 0.999969 0.047333
0.999969 0.999969 0.049377
0.000000 0.000000 0.057709
0.055328 0.000000 0.058868
0.185852 0.000000 0.060547
0.382141 0.000000 0.062531
0.598389 0.000000 0.064758
0.807831 0.000000 0.067200
0.959412 0.000000 0.069946
0.999969 0.000000 0.072815
0.000000 0.028076 0.060455
0.059326 0.031342 0.062439
0.193909 0.034973 0.064728
0.391388 0.039154 0.067169
0.606506 0.043640 0.069855
0.813263 0.048187 0.072723
0.961609 0.052216 0.075897
0.999969 0.056580 0.079193
0.000000 0.141113 0.064636
0.065491 0.147217 0.067017
0.203674 0.154114 0.069733
0.402008 0.161499 0.072662
0.615631 0.169556 0.075775
0.819183 0.178070 0.079071
0.963989 0.187103 0.082581
0.999969 0.196625 0.086212
0.000000 0.346161 0.069672
0.072815 0.354919 0.072510
0.214905 0.364197 0.075684
0.413696 0.373779 0.078949
0.625336 0.383820 0.082458
0.825287 0.394073 0.086060
0.966370 0.404449 0.089905
0.999969 0.414948 0.093719
0.000000 0.590454 0.075562
0.081268 0.598419 0.078796
0.227203 0.606659 0.082336
0.426056 0.614990 0.085938
0.635529 0.623444 0.089783
0.831573 0.631897 0.093658
0.968781 0.640442 0.097626
0.999969 0.648773 0.101715
0.003265 0.822632 0.082184
0.090607 0.827850 0.085846
0.240295 0.833038 0.089600
0.438782 0.838226 0.093536
0.645782 0.843414 0.097504
0.837616 0.848358 0.101562
0.971069 0.853333 0.105713
0.999969 0.858002 0.109802
0.010071 0.981567 0.089447
0.100616 0.983490 0.093384
0.253784 0.985443 0.097412
0.451416 0.987305 0.101440
0.655762 0.989044 0.105499
0.843475 0.990845 0.109680
0.973236 0.992493 0.113739
0.999969 0.994049 0.117767
0.017365 0.999969 0.097260
0.111176 0.999969 0.101349
0.267334 0.999969 0.105408
0.463684 0.999969 0.109558
0.665283 0.999969 0.113586
0.848877 0.999969 0.117645
0.975220 0.999969 0.121552
0.999969 0.999969 0.125244
0.000000 0.000000 0.156891
0.055939 0.000000 0.159363
0.187164 0.000000 0.162231
0.383698 0.000000 0.165497
0.599823 0.000000 0.169128
0.808838 0.000000 0.173187
0.959808 0.000000 0.177521
0.999969 0.000000 0.182098
0.000000 0.029144 0.162109
0.060394 0.032593 0.165405
0.195587 0.036407 0.169006
0.393219 0.040802 0.173035
0.608154 0.045410 0.177338
0.814331 0.049652 0.181976
0.962067 0.053802 0.186859
0.999969 0.058289 0.192047
0.000000 0.143250 0.168915
0.066742 0.149658 0.172852
0.205658 0.156677 0.177216
0.404114 0.164398 0.181793
0.617401 0.172577 0.186707
0.820312 0.181335 0.191864
0.964417 0.190521 0.197235
0.999969 0.200134 0.202911
0.000000 0.349304 0.177063
0.074310 0.358185 0.181610
0.217102 0.367676 0.186554
0.415894 0.377441 0.191742
0.627258 0.387604 0.197113
0.826508 0.397797 0.202667
0.966797 0.408325 0.208466
0.999969 0.418854 0.214355
0.000000 0.593353 0.186340
0.082916 0.601349 0.191528
0.229584 0.609711 0.196960
0.428345 0.618103 0.202484
0.637451 0.626526 0.208282
0.832672 0.635010 0.214111
0.969208 0.643524 0.220032
0.999969 0.651794 0.225952
0.004486 0.824524 0.196716
0.092438 0.829803 0.202332
0.242798 0.834991 0.208069
0.441101 0.840118 0.213928
0.647614 0.845215 0.219879
0.838776 0.850159 0.225800
0.971497 0.855042 0.231720
0.999969 0.859650 0.237549
0.011444 0.982269 0.207825
0.102570 0.984253 0.213715
0.256317 0.986084 0.219635
0.453735 0.987915 0.225616
0.657623 0.989716 0.231567
0.844543 0.991455 0.237396
0.973633 0.993073 0.243103
0.999969 0.994598 0.248627
0.018707 0.999969 0.219452
0.113098 0.999969 0.225433
0.269775 0.999969 0.231323
0.465942 0.999969 0.237213
0.666992 0.999969 0.242889
0.849854 0.999969 0.248444
0.975586 0.999969 0.253754
0.999969 0.999969 0.258698
0.000000 0.000000 0.328278
0.056610 0.000000 0.331512
0.188568 0.000000 0.335175
0.385437 0.000000 0.339264
0.601288 0.000000 0.343872
0.809814 0.000000 0.348694
0.960236 0.000000 0.353912
0.999969 0.000000 0.359375
0.000000 0.030365 0.335022
0.061401 0.033936 0.339203
0.197327 0.037964 0.343689
0.395233 0.042450 0.348541
0.609833 0.047150 0.353729
0.815491 0.051208 0.359192
0.962494 0.055450 0.364990
0.999969 0.060333 0.370789
0.000000 0.145569 0.343506
0.068054 0.152252 0.348419
0.207672 0.159424 0.353546
0.406281 0.167297 0.359009
0.619141 0.175720 0.364746
0.821472 0.184631 0.370605
0.964813 0.194031 0.376648
0.999969 0.203735 0.382751
0.000000 0.352539 0.353394
0.075897 0.361633 0.358826
0.219299 0.371216 0.364502
0.418274 0.381134 0.370453
0.629150 0.391327 0.376465
0.827667 0.401733 0.382538
0.967285 0.412140 0.388794
0.999969 0.422699 0.394958
0.000000 0.596252 0.364319
0.084686 0.604401 0.370209
0.232025 0.612762 0.376251
0.430695 0.621155 0.382385
0.639343 0.629669 0.388550
0.833893 0.638184 0.394836
0.969666 0.646576 0.400940
0.999969 0.654907 0.407135
0.005737 0.826477 0.376068
0.094269 0.831696 0.382141
0.245331 0.836914 0.388367
0.443451 0.841980 0.394592
0.649536 0.847076 0.400726
0.839905 0.851929 0.406860
0.971924 0.856781 0.412903
0.999969 0.861267 0.418732
0.012787 0.982941 0.388153
0.104492 0.984894 0.394348
0.258881 0.986786 0.400574
0.456085 0.988586 0.406647
0.659424 0.990387 0.412659
0.845612 0.992035 0.418518
0.974030 0.993652 0.424103
0.999969 0.995087 0.429443
0.020233 0.999969 0.400360
0.115051 0.999969 0.406464
0.272247 0.999969 0.412445
0.468048 0.999969 0.418365
0.668671 0.999969 0.423950
0.850769 0.999969 0.429321
0.975861 0.999969 0.434387
0.999969 0.999969 0.439087
0.000000 0.000000 0.539398
0.057373 0.000000 0.542236
0.190155 0.000000 0.545502
0.387115 0.000000 0.549072
0.602844 0.000000 0.552948
0.810791 0.000000 0.557190
0.960602 0.000000 0.561584
0.999969 0.000000 0.566223
0.000000 0.031647 0.545319
0.062592 0.035339 0.548889
0.199219 0.039520 0.552795
0.397186 0.044128 0.557007
0.611511 0.048584 0.561432
0.816559 0.052704 0.566040
0.962921 0.057098 0.570831
0.999969 0.062469 0.575775
0.000000 0.147919 0.552704
0.069458 0.154846 0.556854
0.209778 0.162231 0.561279
0.408447 0.170349 0.565887
0.621002 0.178894 0.570679
0.822601 0.187958 0.575623
0.965271 0.197540 0.580688
0.999969 0.207458 0.585693
0.000000 0.355774 0.561096
0.077423 0.365234 0.565735
0.221680 0.374847 0.570496
0.420532 0.384888 0.575500
0.631012 0.395111 0.580475
0.828827 0.405518 0.585541
0.967712 0.416016 0.590698
0.999969 0.426514 0.595825
0.000458 0.599213 0.570343
0.086395 0.607422 0.575287
0.234436 0.615814 0.580322
0.433136 0.624329 0.585419
0.641266 0.632782 0.590546
0.835052 0.641266 0.595673
0.970062 0.649567 0.600708
0.999969 0.657898 0.605682
0.007050 0.828369 0.580139
0.096130 0.833588 0.585205
0.247833 0.838776 0.590393
0.445801 0.843872 0.595490
0.651398 0.848877 0.600586
0.840942 0.853790 0.605469
0.972290 0.858490 0.610352
0.999969 0.862946 0.615143
0.014160 0.983734 0.590240
0.106476 0.985626 0.595306
0.261383 0.987457 0.600403
0.458344 0.989258 0.605347
0.661194 0.991028 0.610229
0.846527 0.992615 0.614899
0.974396 0.994202 0.619415
0.999969 0.995667 0.623657
0.021576 0.999969 0.600159
0.117035 0.999969 0.605164
0.274750 0.999969 0.610046
0.470215 0.999969 0.614807
0.670380 0.999969 0.619293
0.851654 0.999969 0.623566
0.976227 0.999969 0.627563
0.999969 0.999969 0.631287
0.000000 0.000000 0.754364
0.058136 0.000000 0.756470
0.191650 0.000000 0.758789
0.388855 0.000000 0.761353
0.604370 0.000000 0.764099
0.811859 0.000000 0.766968
0.961029 0.000000 0.769989
0.999969 0.000000 0.773163
0.000000 0.032959 0.758698
0.063812 0.036865 0.761261
0.201080 0.041199 0.764008
0.399200 0.045929 0.766876
0.613220 0.050079 0.769958
0.817596 0.054260 0.773071
0.963409 0.058777 0.776276
0.999969 0.064758 0.779572
0.000000 0.150360 0.763916
0.070892 0.157471 0.766785
0.211884 0.165100 0.769806
0.410645 0.173401 0.772949
0.622925 0.182281 0.776184
0.823700 0.191498 0.779510
0.965759 0.201141 0.782806
0.999969 0.211121 0.786163
0.000000 0.359192 0.769714
0.078979 0.368683 0.772858
0.223969 0.378418 0.776093
0.422852 0.388550 0.779358
0.632935 0.398895 0.782684
0.829956 0.409393 0.786011
0.968170 0.419891 0.789368
0.999969 0.430359 0.792633
0.001617 0.602234 0.775970
0.088165 0.610535 0.779266
0.236877 0.618927 0.782593
0.435547 0.627441 0.785919
0.643158 0.635925 0.789215
0.836090 0.644318 0.792542
0.970520 0.652649 0.795715
0.999969 0.660828 0.798920
0.008301 0.830292 0.782471
0.097992 0.835480 0.785767
0.250336 0.840668 0.789124
0.448212 0.845825 0.792419
0.653320 0.850739 0.795654
0.842072 0.855530 0.798828
0.972717 0.860107 0.801849
0.999969 0.864532 0.804779
0.015472 0.984406 0.789032
0.108398 0.986267 0.792297
0.263916 0.988098 0.795563
0.460541 0.989899 0.798706
0.662964 0.991608 0.801788
0.847565 0.993225 0.804688
0.974762 0.994751 0.807404
0.999969 0.996185 0.810028
0.022980 0.999969 0.795471
0.119019 0.999969 0.798584
0.277191 0.999969 0.801697
0.472290 0.999969 0.804565
0.671967 0.999969 0.807343
0.852539 0.999969 0.809967
0.976532 0.999969 0.812347
0.999969 0.999969 0.814606
0.000000 0.000000 0.923920
0.058990 0.000000 0.924866
0.193237 0.000000 0.925842
0.390686 0.000000 0.926941
0.605927 0.000000 0.928131
0.812927 0.000000 0.929321
0.961456 0.000000 0.930603
0.999969 0.000000 0.931915
0.000000 0.034393 0.925812
0.065063 0.038361 0.926910
0.202942 0.042908 0.928070
0.401215 0.047577 0.929291
0.614929 0.051605 0.930542
0.818756 0.055908 0.931885
0.963837 0.060852 0.933197
0.999969 0.066986 0.934570
0.000000 0.152954 0.928009
0.072296 0.160187 0.929260
0.214081 0.168182 0.930511
0.412903 0.176575 0.931793
0.624695 0.185577 0.933197
0.824890 0.194885 0.934540
0.966217 0.204742 0.935883
0.999969 0.214783 0.937256
0.000000 0.362640 0.930481
0.080658 0.372253 0.931793
0.226288 0.382111 0.933105
0.425171 0.392334 0.934448
0.634766 0.402710 0.935852
0.831146 0.413239 0.937195
0.968628 0.423737 0.938599
0.999969 0.434174 0.939911
0.002777 0.605286 0.933044
0.089996 0.613586 0.934418
0.239319 0.622009 0.935791
0.437927 0.630524 0.937164
0.645050 0.639008 0.938538
0.837250 0.647400 0.939880
0.970947 0.655609 0.941162
0.999969 0.663727 0.942413
0.009583 0.832214 0.935760
0.099976 0.837402 0.937103
0.252869 0.842560 0.938477
0.450531 0.847565 0.939819
0.655121 0.852417 0.941101
0.843079 0.857178 0.942383
0.973114 0.861725 0.943604
0.999969 0.866150 0.944763
0.016907 0.985077 0.938446
0.110382 0.986969 0.939789
0.266388 0.988770 0.941071
0.462830 0.990509 0.942352
0.664703 0.992188 0.943573
0.848541 0.993774 0.944733
0.975098 0.995270 0.945831
0.999969 0.996674 0.946899
0.024384 0.999969 0.941040
0.121033 0.999969 0.942322
0.279572 0.999969 0.943542
0.474365 0.999969 0.944733
0.673492 0.999969 0.945801
0.853424 0.999969 0.946838
0.976837 0.999969 0.947754
0.999969 0.999969 0.948669
0.000000 0.000000 0.999969
0.059906 0.000000 0.999969
0.194946 0.000000 0.999969
0.392578 0.000000 0.999969
0.607574 0.000000 0.999969
0.813995 0.000000 0.999969
0.961853 0.000000 0.999969
0.999969 0.000000 0.999969
0.000000 0.035736 0.999969
0.066284 0.039978 0.999969
0.204895 0.044647 0.999969
0.403320 0.048950 0.999969
0.616669 0.053101 0.999969
0.819946 0.057495 0.999969
0.964264 0.063049 0.999969
0.999969 0.069397 0.999969
0.000000 0.155548 0.999969
0.073700 0.163025 0.999969
0.216309 0.171204 0.999969
0.415131 0.179810 0.999969
0.626587 0.188965 0.999969
0.826050 0.198425 0.999969
0.966675 0.208435 0.999969
0.999969 0.218597 0.999969
0.000000 0.365997 0.999969
0.082336 0.375854 0.999969
0.228729 0.385834 0.999969
0.427521 0.396088 0.999969
0.636780 0.406586 0.999969
0.832275 0.417084 0.999969
0.969086 0.427551 0.999969
0.999969 0.437988 0.999969
0.004059 0.608215 0.999969
0.091766 0.616730 0.999969
0.241821 0.625122 0.999969
0.440247 0.633698 0.999969
0.646973 0.642120 0.999969
0.838348 0.650452 0.999969
0.971375 0.658691 0.999969
0.999969 0.666626 0.999969
0.010895 0.834137 0.999969
0.101898 0.839294 0.999969
0.255432 0.844421 0.999969
0.452881 0.849396 0.999969
0.656891 0.854248 0.999969
0.844177 0.858917 0.999969
0.973511 0.863342 0.999969
0.999969 0.867615 0.999969
0.018311 0.985809 0.999969
0.112396 0.987640 0.999969
0.268921 0.989410 0.999969
0.465088 0.991150 0.999969
0.666382 0.992767 0.999969
0.849518 0.994324 0.999969
0.975464 0.995789 0.999969
0.999969 0.997192 0.999969
0.025818 0.999969 0.999969
0.122986 0.999969 0.999969
0.281921 0.999969 0.999969
0.476410 0.999969 0.999969
0.675079 0.999969 0.999969
0.854218 0.999969 0.999969
0.977112 0.999969 0.999969
0.999969 0.999969 0.999969
