3d-lut/luts/Azrael 93.CUBE
#Created by: Adobe Photoshop Export Color Lookup Plugin
#Copyright: (C) Copyright 2017 RocketStock
TITLE "Untitled"
#LUT size
LUT_3D_SIZE 32
#data domain
DOMAIN_MIN 0.0 0.0 0.0
DOMAIN_MAX 1.0 1.0 1.0
#LUT data points
0.000000 0.000000 0.001556
0.000000 0.000000 0.001801
0.005615 0.000000 0.001953
0.024689 0.000000 0.002228
0.045532 0.000000 0.002869
0.068665 0.000000 0.004242
0.093994 0.000000 0.005493
0.120911 0.000000 0.005920
0.150848 0.000000 0.006409
0.184296 0.000000 0.006958
0.221313 0.000000 0.007599
0.262482 0.000000 0.008362
0.306824 0.000000 0.009216
0.353729 0.000000 0.010132
0.402832 0.000000 0.011169
0.453583 0.000000 0.012299
0.504944 0.000000 0.013519
0.556702 0.000000 0.014771
0.607849 0.000000 0.016174
0.657959 0.000000 0.017578
0.706512 0.000000 0.019012
0.752350 0.000000 0.020477
0.794983 0.000000 0.021851
0.833130 0.000000 0.023132
0.867126 0.000000 0.024292
0.896820 0.000000 0.024963
0.923370 0.000000 0.025574
0.947021 0.000000 0.026154
0.968597 0.000000 0.026672
0.988403 0.000000 0.027222
1.000000 0.000000 0.027740
1.000000 0.000000 0.028229
0.000000 0.000000 0.001953
0.000000 0.000000 0.002197
0.006500 0.000000 0.002686
0.026001 0.000000 0.003693
0.047760 0.000000 0.005371
0.070221 0.000000 0.005707
0.094482 0.000000 0.006073
0.121582 0.000000 0.006531
0.151398 0.000000 0.007019
0.184845 0.000000 0.007599
0.221893 0.000000 0.008270
0.263062 0.000000 0.009033
0.307404 0.000000 0.009918
0.354279 0.000000 0.010895
0.403381 0.000000 0.011993
0.454132 0.000000 0.013153
0.505432 0.000092 0.014404
0.557159 0.001282 0.015778
0.608276 0.002747 0.017181
0.658356 0.004059 0.018677
0.706848 0.005615 0.020172
0.752686 0.006897 0.021637
0.795258 0.008362 0.023102
0.833344 0.009399 0.024323
0.867249 0.010040 0.025116
0.896912 0.010834 0.025818
0.923431 0.011353 0.026459
0.947083 0.011841 0.027100
0.968628 0.012268 0.027679
0.988464 0.012695 0.028229
1.000000 0.013062 0.028717
1.000000 0.013702 0.029297
0.000000 0.006256 0.002686
0.000000 0.006927 0.003571
0.008728 0.008484 0.005157
0.027985 0.008881 0.005615
0.048553 0.009186 0.005920
0.070770 0.009460 0.006287
0.095062 0.009857 0.006683
0.122253 0.010315 0.007141
0.152252 0.011017 0.007660
0.185455 0.011597 0.008270
0.222717 0.012238 0.008972
0.263672 0.013000 0.009796
0.307983 0.014130 0.010681
0.355133 0.015137 0.011749
0.404205 0.016174 0.012848
0.454681 0.017609 0.014099
0.505981 0.018829 0.015442
0.557648 0.020355 0.016846
0.608734 0.021698 0.018311
0.658752 0.023285 0.019836
0.707214 0.024658 0.021393
0.752991 0.026215 0.022949
0.795502 0.027405 0.024323
0.833466 0.028137 0.025177
0.867340 0.028900 0.026031
0.897003 0.029572 0.026733
0.923492 0.030151 0.027466
0.947144 0.030640 0.028076
0.968689 0.031067 0.028717
0.988464 0.031464 0.029297
1.000000 0.031860 0.029816
1.000000 0.032501 0.030334
0.000000 0.027649 0.005249
0.000000 0.027985 0.005615
0.009399 0.028259 0.005890
0.028564 0.028534 0.006226
0.049133 0.028992 0.006531
0.071381 0.029419 0.006958
0.095947 0.029816 0.007355
0.122925 0.030273 0.007843
0.152893 0.030792 0.008392
0.186127 0.031372 0.009033
0.223389 0.032257 0.009766
0.264313 0.033173 0.010590
0.308624 0.034058 0.011536
0.355774 0.035217 0.012634
0.404816 0.036407 0.013824
0.455292 0.037628 0.015137
0.506805 0.039124 0.016510
0.558197 0.040466 0.017975
0.609283 0.042084 0.019501
0.659454 0.043488 0.021118
0.707611 0.045105 0.022736
0.753296 0.046417 0.024261
0.795685 0.047180 0.025238
0.833618 0.048126 0.026154
0.867462 0.048798 0.027008
0.897095 0.049408 0.027802
0.923584 0.049957 0.028534
0.947205 0.050446 0.029236
0.968719 0.051117 0.029846
0.988556 0.051575 0.030426
1.000000 0.051971 0.030975
1.000000 0.052368 0.031555
0.000000 0.049011 0.005951
0.000000 0.049286 0.006256
0.010071 0.049561 0.006561
0.029236 0.049866 0.006866
0.049835 0.050201 0.007263
0.072083 0.050568 0.007629
0.096649 0.051208 0.008087
0.123627 0.051697 0.008606
0.153656 0.052246 0.009186
0.186981 0.052856 0.009857
0.224152 0.053619 0.010620
0.265045 0.054688 0.011505
0.309387 0.055664 0.012543
0.356476 0.056671 0.013641
0.405518 0.058044 0.014893
0.455933 0.059296 0.016235
0.507416 0.060822 0.017670
0.558777 0.062195 0.019196
0.609985 0.063812 0.020844
0.659943 0.065216 0.022491
0.708008 0.066833 0.024170
0.753723 0.067657 0.025177
0.795868 0.068481 0.026245
0.833801 0.069244 0.027191
0.867615 0.070160 0.028137
0.897217 0.070740 0.028992
0.923676 0.071289 0.029724
0.947266 0.071808 0.030426
0.968781 0.072235 0.031067
0.988678 0.072693 0.031677
1.000000 0.073334 0.032227
1.000000 0.073761 0.032837
0.000000 0.072021 0.006683
0.000000 0.072327 0.006989
0.011017 0.072632 0.007324
0.030029 0.073090 0.007660
0.050629 0.073517 0.008057
0.072906 0.073914 0.008453
0.097504 0.074341 0.008942
0.124481 0.074829 0.009491
0.154480 0.075409 0.010101
0.187958 0.076324 0.010803
0.224976 0.077057 0.011597
0.265900 0.077911 0.012543
0.310181 0.078888 0.013611
0.357269 0.080200 0.014771
0.406281 0.081390 0.016083
0.456665 0.082855 0.017517
0.508087 0.084198 0.019043
0.559387 0.085785 0.020630
0.610565 0.087219 0.022308
0.660431 0.088898 0.024048
0.708344 0.089783 0.025177
0.753998 0.090607 0.026306
0.796082 0.091400 0.027405
0.833984 0.092377 0.028442
0.867737 0.093109 0.029388
0.897339 0.093719 0.030273
0.923767 0.094299 0.031067
0.947357 0.094757 0.031769
0.968842 0.095459 0.032471
0.988739 0.095917 0.033081
1.000000 0.096344 0.033691
1.000000 0.096710 0.034271
0.000000 0.097412 0.007507
0.000000 0.097748 0.007843
0.011902 0.098022 0.008179
0.030914 0.098602 0.008545
0.051575 0.098969 0.008972
0.074036 0.099365 0.009430
0.098450 0.099854 0.009918
0.125427 0.100342 0.010437
0.155457 0.100922 0.011108
0.188904 0.101837 0.011871
0.225922 0.102631 0.012726
0.267090 0.103516 0.013702
0.311371 0.104736 0.014862
0.358185 0.105865 0.016083
0.407135 0.107056 0.017456
0.457733 0.108521 0.018982
0.508850 0.109894 0.020569
0.560303 0.111511 0.022247
0.611206 0.112946 0.024017
0.660797 0.113831 0.025177
0.708862 0.114929 0.026367
0.754272 0.115814 0.027557
0.796295 0.116638 0.028717
0.834167 0.117584 0.029816
0.867889 0.118347 0.030823
0.897461 0.118958 0.031738
0.923859 0.119507 0.032562
0.947418 0.120026 0.033295
0.968903 0.120636 0.033997
0.988800 0.121155 0.034668
1.000000 0.121582 0.035278
1.000000 0.121948 0.035858
0.000000 0.125519 0.008484
0.000000 0.125824 0.008820
0.012939 0.126160 0.009216
0.032227 0.126495 0.009613
0.052887 0.127106 0.010040
0.075195 0.127533 0.010498
0.099548 0.128021 0.011047
0.126801 0.128571 0.011658
0.156799 0.129150 0.012329
0.190033 0.129883 0.013123
0.227264 0.130890 0.014069
0.268188 0.131805 0.015106
0.312408 0.132843 0.016266
0.359314 0.134216 0.017639
0.408264 0.135406 0.019073
0.458649 0.136932 0.020660
0.509674 0.138275 0.022339
0.561127 0.139709 0.024170
0.611633 0.140778 0.025299
0.661163 0.141663 0.026489
0.709198 0.142548 0.027771
0.754547 0.143677 0.029053
0.796539 0.144501 0.030304
0.834381 0.145264 0.031433
0.868073 0.145996 0.032471
0.897614 0.146820 0.033417
0.923981 0.147369 0.034271
0.947510 0.147858 0.035065
0.968964 0.148346 0.035767
0.988831 0.148773 0.036407
1.000000 0.149139 0.037018
1.000000 0.149811 0.037628
0.000000 0.156738 0.009644
0.000000 0.157074 0.010040
0.014313 0.157410 0.010376
0.033508 0.157776 0.010834
0.054169 0.158173 0.011261
0.076508 0.158600 0.011780
0.101105 0.159332 0.012360
0.128082 0.159882 0.013000
0.158081 0.160522 0.013763
0.191498 0.161255 0.014587
0.228546 0.162140 0.015594
0.269379 0.163239 0.016724
0.313599 0.164246 0.017975
0.360565 0.165436 0.019409
0.409424 0.166840 0.020935
0.459656 0.168152 0.022644
0.510620 0.169647 0.024323
0.561646 0.170502 0.025482
0.612122 0.171387 0.026733
0.661591 0.172546 0.028076
0.709564 0.173401 0.029449
0.754913 0.174286 0.030792
0.796844 0.175293 0.032074
0.834625 0.176147 0.033295
0.868317 0.176819 0.034332
0.897827 0.177429 0.035339
0.924103 0.177979 0.036194
0.947632 0.178741 0.036987
0.969025 0.179199 0.037720
0.988892 0.179596 0.038361
1.000000 0.179993 0.039032
1.000000 0.180389 0.039612
0.000000 0.191376 0.010986
0.000000 0.191833 0.011414
0.015900 0.192169 0.011810
0.035034 0.192566 0.012299
0.055664 0.192963 0.012787
0.078064 0.193420 0.013336
0.102600 0.193939 0.013977
0.129608 0.194733 0.014648
0.159637 0.195374 0.015472
0.193024 0.196106 0.016357
0.229980 0.196930 0.017426
0.271057 0.198120 0.018646
0.315247 0.199158 0.020020
0.361847 0.200317 0.021515
0.410675 0.201782 0.023163
0.460663 0.202820 0.024658
0.511505 0.203674 0.025848
0.562256 0.204803 0.027161
0.612640 0.205658 0.028534
0.662079 0.206573 0.029968
0.709991 0.207733 0.031433
0.755280 0.208588 0.032837
0.797150 0.209412 0.034149
0.835144 0.210205 0.035431
0.868530 0.211090 0.036499
0.898224 0.211700 0.037506
0.924255 0.212250 0.038391
0.947784 0.212738 0.039215
0.969116 0.213196 0.039948
0.988953 0.213623 0.040588
1.000000 0.214233 0.041260
1.000000 0.214600 0.041870
0.000000 0.230072 0.012634
0.000000 0.230469 0.013092
0.017700 0.230835 0.013580
0.037018 0.231262 0.014099
0.057709 0.231659 0.014587
0.080048 0.232147 0.015228
0.104645 0.232635 0.015839
0.131622 0.233337 0.016632
0.161591 0.234100 0.017517
0.194763 0.234863 0.018463
0.231934 0.235687 0.019592
0.272705 0.236877 0.020935
0.316803 0.237946 0.022400
0.363342 0.239075 0.024017
0.411713 0.240051 0.025177
0.461456 0.240906 0.026398
0.512238 0.241730 0.027740
0.562927 0.242615 0.029205
0.613312 0.243744 0.030670
0.662659 0.244659 0.032166
0.710480 0.245544 0.033691
0.755707 0.246674 0.035156
0.797546 0.247467 0.036530
0.835449 0.248230 0.037811
0.868805 0.248871 0.038971
0.898438 0.249634 0.039978
0.924438 0.250244 0.040833
0.948029 0.250702 0.041656
0.969208 0.251160 0.042419
0.989014 0.251556 0.043060
1.000000 0.251923 0.043701
1.000000 0.253143 0.045288
0.000000 0.272766 0.014648
0.001892 0.273132 0.015137
0.019958 0.273499 0.015625
0.039093 0.273895 0.016205
0.059784 0.274323 0.016815
0.082123 0.274780 0.017426
0.106689 0.275391 0.018158
0.133636 0.276123 0.018982
0.163574 0.276794 0.019928
0.196960 0.277527 0.021027
0.233856 0.278412 0.022247
0.274536 0.279541 0.023682
0.318298 0.280334 0.024811
0.364655 0.281036 0.025940
0.412964 0.281799 0.027161
0.462585 0.282837 0.028534
0.513092 0.283691 0.029999
0.563690 0.284576 0.031555
0.614105 0.285675 0.033142
0.663361 0.286560 0.034698
0.711060 0.287445 0.036285
0.756195 0.288452 0.037811
0.797943 0.289368 0.039246
0.835815 0.290070 0.040527
0.869080 0.290741 0.041656
0.898682 0.291321 0.042664
0.924622 0.292023 0.043579
0.948334 0.293121 0.045441
0.969421 0.294342 0.047546
0.989166 0.295776 0.049530
1.000000 0.296875 0.051239
1.000000 0.297913 0.052826
0.000000 0.318817 0.016998
0.004303 0.319183 0.017548
0.022308 0.319550 0.018097
0.041687 0.319946 0.018707
0.062378 0.320404 0.019318
0.084717 0.321045 0.020081
0.109253 0.321655 0.020874
0.136169 0.322205 0.021790
0.166107 0.322876 0.022797
0.199158 0.323608 0.023956
0.235870 0.324158 0.024872
0.276154 0.324982 0.025818
0.319733 0.325623 0.026978
0.365784 0.326324 0.028198
0.414032 0.327087 0.029572
0.463623 0.328156 0.031067
0.514008 0.328979 0.032684
0.564789 0.329834 0.034271
0.615021 0.330902 0.035919
0.664215 0.331818 0.037598
0.711670 0.332672 0.039215
0.756714 0.333496 0.040741
0.798401 0.334473 0.042175
0.836182 0.335175 0.043457
0.869568 0.336639 0.046112
0.899261 0.338531 0.049042
0.925385 0.339966 0.051483
0.948822 0.341461 0.053528
0.969788 0.342621 0.055298
0.989410 0.343658 0.056763
1.000000 0.344849 0.058075
1.000000 0.345734 0.059143
0.000000 0.367676 0.019745
0.007080 0.368042 0.020325
0.025146 0.368439 0.020996
0.044525 0.368835 0.021606
0.065002 0.369263 0.022339
0.087524 0.369720 0.023132
0.111816 0.370514 0.024017
0.138397 0.370880 0.024658
0.167969 0.371277 0.025391
0.200867 0.371735 0.026184
0.237305 0.372253 0.027130
0.277496 0.372833 0.028229
0.321014 0.373718 0.029480
0.367035 0.374420 0.030853
0.415192 0.375153 0.032379
0.464722 0.375946 0.033966
0.515045 0.377014 0.035614
0.565765 0.377838 0.037292
0.615845 0.378662 0.039001
0.664978 0.379517 0.040649
0.712341 0.380585 0.042328
0.757324 0.381378 0.043915
0.799622 0.383759 0.048035
0.837341 0.385681 0.051575
0.870636 0.387634 0.054474
0.900146 0.389099 0.056763
0.926178 0.390594 0.058533
0.949371 0.391632 0.059845
0.970184 0.392578 0.060883
0.989655 0.393646 0.060883
1.000000 0.394409 0.060883
1.000000 0.395111 0.060883
0.000000 0.418488 0.022949
0.009888 0.418854 0.023590
0.028198 0.419434 0.024231
0.047089 0.419678 0.024658
0.067505 0.419922 0.025146
0.089478 0.420197 0.025665
0.113708 0.420502 0.026306
0.140289 0.420868 0.027008
0.169800 0.421265 0.027802
0.202454 0.421692 0.028717
0.238800 0.422333 0.029785
0.278992 0.423035 0.031036
0.322418 0.423645 0.032379
0.368622 0.424377 0.033844
0.416473 0.425079 0.035431
0.465912 0.426086 0.037109
0.516388 0.426880 0.038788
0.566742 0.427673 0.040527
0.616791 0.428467 0.042206
0.665863 0.429565 0.044067
0.714050 0.431824 0.048798
0.759430 0.434235 0.052948
0.801239 0.436432 0.056335
0.838715 0.438080 0.058838
0.872009 0.439697 0.060577
0.901031 0.440826 0.060883
0.926941 0.441864 0.060883
0.949951 0.442993 0.060883
0.970856 0.443756 0.060883
0.989990 0.444458 0.060883
1.000000 0.445129 0.060883
1.000000 0.445984 0.060883
0.000000 0.470428 0.025604
0.012085 0.470612 0.026062
0.029999 0.470856 0.026550
0.049133 0.471069 0.027069
0.069458 0.471344 0.027649
0.091522 0.471863 0.028259
0.115479 0.472168 0.028961
0.142029 0.472504 0.029755
0.171509 0.472900 0.030640
0.204102 0.473328 0.031647
0.240662 0.473816 0.032806
0.280762 0.474365 0.034119
0.324188 0.475250 0.035522
0.370026 0.475891 0.037109
0.418030 0.476562 0.038696
0.467407 0.477295 0.040375
0.517517 0.478058 0.042114
0.567810 0.479034 0.043915
0.618958 0.481323 0.048889
0.668701 0.483643 0.053345
0.716370 0.485870 0.057068
0.761444 0.487701 0.059845
0.802979 0.489441 0.060883
0.840424 0.490753 0.060883
0.873260 0.492157 0.060883
0.902130 0.493134 0.060883
0.927795 0.493988 0.060883
0.950623 0.494995 0.060883
0.971344 0.495667 0.060883
0.990295 0.496307 0.060883
1.000000 0.496704 0.060730
1.000000 0.496887 0.060577
0.000000 0.522827 0.028198
0.014008 0.523041 0.028717
0.032135 0.523254 0.029297
0.051056 0.523499 0.029877
0.071442 0.523773 0.030457
0.093384 0.524139 0.031158
0.117554 0.524567 0.031952
0.144104 0.524902 0.032806
0.173279 0.525269 0.033752
0.206085 0.525696 0.034821
0.242371 0.526154 0.036041
0.282410 0.526672 0.037384
0.325745 0.527222 0.038849
0.371552 0.528107 0.040405
0.419434 0.528748 0.042084
0.468689 0.529419 0.043762
0.520203 0.531647 0.048706
0.571411 0.533691 0.053345
0.622070 0.535858 0.057251
0.671417 0.537872 0.060211
0.719025 0.539429 0.060883
0.763855 0.541077 0.060883
0.805115 0.542328 0.060883
0.842133 0.543457 0.060883
0.874695 0.544708 0.060883
0.903534 0.545532 0.060822
0.928589 0.545837 0.060577
0.951141 0.546051 0.060425
0.971649 0.546234 0.060272
0.990417 0.546417 0.060242
1.000000 0.546600 0.060242
1.000000 0.546753 0.060242
0.000000 0.575378 0.031158
0.016205 0.575592 0.031677
0.034180 0.575836 0.032288
0.053314 0.576050 0.032928
0.073425 0.576294 0.033600
0.095459 0.576538 0.034302
0.119507 0.576996 0.035126
0.145966 0.577362 0.036041
0.175385 0.577698 0.037018
0.207916 0.578094 0.038147
0.244232 0.578522 0.039368
0.284363 0.579041 0.040771
0.327362 0.579559 0.042236
0.373352 0.580200 0.043915
0.422516 0.582092 0.048615
0.472992 0.584137 0.053223
0.524078 0.585907 0.057129
0.575134 0.587799 0.060211
0.625458 0.589294 0.060883
0.674561 0.590912 0.060883
0.721832 0.592224 0.060883
0.766266 0.593658 0.060883
0.807220 0.594727 0.060822
0.843445 0.595123 0.060516
0.875732 0.595398 0.060303
0.903931 0.595642 0.060242
0.928864 0.595886 0.060242
0.951355 0.596069 0.060242
0.971802 0.596252 0.060242
0.990540 0.596405 0.060242
1.000000 0.596558 0.060242
1.000000 0.596832 0.060242
0.001099 0.627563 0.034271
0.018311 0.627747 0.034851
0.036438 0.627930 0.035492
0.055328 0.628143 0.036133
0.075714 0.628357 0.036865
0.097626 0.628601 0.037628
0.121704 0.628845 0.038422
0.148163 0.629120 0.039337
0.177277 0.629425 0.040344
0.210022 0.629944 0.041504
0.246155 0.630432 0.042755
0.286377 0.631073 0.044739
0.331024 0.632507 0.049103
0.378296 0.634247 0.053284
0.427307 0.635712 0.057068
0.477417 0.637421 0.060059
0.528168 0.638763 0.060883
0.579071 0.640259 0.060883
0.629181 0.641510 0.060883
0.678070 0.642670 0.060883
0.724670 0.643860 0.060730
0.768066 0.644226 0.060394
0.808167 0.644531 0.060242
0.844238 0.644806 0.060242
0.876160 0.645081 0.060242
0.904297 0.645294 0.060242
0.929169 0.645477 0.060242
0.951569 0.645630 0.060242
0.971954 0.645813 0.060242
0.990631 0.645935 0.060242
1.000000 0.646240 0.060242
1.000000 0.646454 0.060242
0.003326 0.678345 0.037476
0.020599 0.678528 0.038116
0.038513 0.678680 0.038757
0.057617 0.678864 0.039429
0.077759 0.679108 0.040131
0.099731 0.679535 0.040894
0.123718 0.679749 0.041779
0.150116 0.679993 0.042664
0.179443 0.680298 0.043671
0.212982 0.681183 0.046722
0.250671 0.682220 0.050293
0.291901 0.683594 0.053864
0.336334 0.684784 0.057251
0.383362 0.686218 0.059998
0.432037 0.687378 0.060883
0.482025 0.688446 0.060883
0.532654 0.689819 0.060883
0.583344 0.690857 0.060883
0.632843 0.691742 0.060730
0.679962 0.692078 0.060364
0.725555 0.692413 0.060242
0.768829 0.692963 0.060242
0.808807 0.693237 0.060242
0.844757 0.693481 0.060242
0.876587 0.693695 0.060242
0.904663 0.693878 0.060242
0.929413 0.694031 0.060242
0.951782 0.694183 0.060242
0.972107 0.694305 0.060242
0.990723 0.694427 0.060242
1.000000 0.694580 0.060242
1.000000 0.694702 0.060242
0.005341 0.727478 0.040649
0.022888 0.727631 0.041321
0.040833 0.727783 0.041931
0.059692 0.727966 0.042633
0.079987 0.728119 0.043335
0.102264 0.728455 0.044678
0.127350 0.729340 0.047119
0.154816 0.729980 0.049744
0.185303 0.730713 0.052490
0.219116 0.731537 0.055206
0.256378 0.732605 0.057892
0.297668 0.733551 0.060242
0.341858 0.734406 0.060883
0.388489 0.735260 0.060883
0.437164 0.736450 0.060883
0.487030 0.737366 0.060883
0.537201 0.738251 0.060760
0.585815 0.738525 0.060394
0.634033 0.738983 0.060242
0.681000 0.739349 0.060242
0.726562 0.739594 0.060242
0.769562 0.739868 0.060242
0.809418 0.740112 0.060242
0.845276 0.740326 0.060242
0.877014 0.740509 0.060242
0.904968 0.740662 0.060242
0.929810 0.740814 0.060242
0.951965 0.740936 0.060242
0.972229 0.741058 0.060242
0.990814 0.741150 0.060242
1.000000 0.741272 0.060242
1.000000 0.741364 0.060242
0.007568 0.773865 0.043701
0.025604 0.774231 0.045380
0.044617 0.774628 0.047241
0.064331 0.775024 0.049103
0.085602 0.775757 0.051086
0.108582 0.776215 0.053070
0.133392 0.776703 0.055084
0.161041 0.777252 0.057129
0.191193 0.777832 0.059021
0.224823 0.778442 0.060760
0.262207 0.779327 0.060883
0.303131 0.779999 0.060883
0.347412 0.780701 0.060883
0.393921 0.781403 0.060883
0.442383 0.782410 0.060883
0.490387 0.782745 0.060486
0.538788 0.782990 0.060242
0.587250 0.783234 0.060242
0.635071 0.783478 0.060242
0.682129 0.783752 0.060242
0.727448 0.783966 0.060242
0.770203 0.784180 0.060242
0.809937 0.784393 0.060242
0.845703 0.784546 0.060242
0.877350 0.784729 0.060242
0.905243 0.784851 0.060242
0.930145 0.784973 0.060242
0.952118 0.785065 0.060242
0.972351 0.785187 0.060242
0.990875 0.785309 0.060242
1.000000 0.785431 0.060242
1.000000 0.785645 0.060242
0.013367 0.817688 0.051483
0.031891 0.818024 0.053131
0.050690 0.818481 0.054688
0.070618 0.818939 0.056213
0.091827 0.819305 0.057709
0.114532 0.819641 0.059082
0.139465 0.820038 0.060394
0.166748 0.820435 0.060883
0.197021 0.820892 0.060883
0.230469 0.821320 0.060883
0.267944 0.821960 0.060883
0.308807 0.822632 0.060883
0.352905 0.823212 0.060883
0.398102 0.823578 0.060577
0.444458 0.823761 0.060272
0.491791 0.823975 0.060242
0.540039 0.824188 0.060242
0.588318 0.824371 0.060242
0.636047 0.824615 0.060242
0.682953 0.824799 0.060242
0.728119 0.825073 0.060242
0.770752 0.825439 0.060242
0.810394 0.825592 0.060242
0.846069 0.825745 0.060242
0.877655 0.825867 0.060242
0.905457 0.825989 0.060242
0.930328 0.826080 0.060242
0.952301 0.826172 0.060242
0.972443 0.826233 0.060242
0.990936 0.826355 0.060242
1.000000 0.826416 0.060303
1.000000 0.826538 0.060699
0.019226 0.856842 0.057434
0.037537 0.857117 0.058655
0.056305 0.857361 0.059723
0.076233 0.857635 0.060730
0.097290 0.857880 0.060883
0.120026 0.858154 0.060883
0.145020 0.858643 0.060883
0.172363 0.858978 0.060883
0.202698 0.859344 0.060883
0.236359 0.859711 0.060883
0.273407 0.860107 0.060883
0.313690 0.860474 0.060730
0.355591 0.860626 0.060394
0.399811 0.860779 0.060242
0.445770 0.860962 0.060242
0.493225 0.861145 0.060242
0.541107 0.861328 0.060242
0.589294 0.861511 0.060242
0.637085 0.861877 0.060242
0.683655 0.862061 0.060242
0.728699 0.862213 0.060242
0.771210 0.862366 0.060242
0.810760 0.862488 0.060242
0.846375 0.862610 0.060242
0.877869 0.862732 0.060242
0.905640 0.862854 0.060242
0.930450 0.862915 0.060242
0.952576 0.863037 0.060608
0.972534 0.863159 0.061096
0.990997 0.863251 0.061584
1.000000 0.863342 0.062103
1.000000 0.863434 0.062622
0.024384 0.891022 0.060883
0.042694 0.891235 0.060883
0.061707 0.891388 0.060883
0.081421 0.891632 0.060883
0.102600 0.892029 0.060883
0.125366 0.892242 0.060883
0.150360 0.892456 0.060883
0.177704 0.892731 0.060883
0.207947 0.893005 0.060883
0.241455 0.893280 0.060822
0.276672 0.893402 0.060516
0.315399 0.893524 0.060242
0.356964 0.893646 0.060242
0.401093 0.893768 0.060242
0.446930 0.893921 0.060242
0.494232 0.894043 0.060242
0.542084 0.894196 0.060242
0.590088 0.894318 0.060242
0.637756 0.894501 0.060242
0.684204 0.894623 0.060242
0.729187 0.894745 0.060242
0.771881 0.894989 0.060242
0.811096 0.895233 0.060242
0.846619 0.895325 0.060242
0.878082 0.895416 0.060333
0.905823 0.895538 0.060974
0.930634 0.895630 0.061615
0.952759 0.895752 0.062256
0.972626 0.895844 0.062897
0.991058 0.895905 0.063568
1.000000 0.895996 0.064178
1.000000 0.896057 0.064880
0.029144 0.920959 0.060883
0.047577 0.921112 0.060883
0.066711 0.921265 0.060883
0.086487 0.921448 0.060883
0.107635 0.921783 0.060883
0.130646 0.921997 0.060883
0.155365 0.922150 0.060883
0.182770 0.922363 0.060883
0.211487 0.922455 0.060608
0.242981 0.922546 0.060364
0.278015 0.922607 0.060242
0.316681 0.922699 0.060242
0.358154 0.922821 0.060242
0.402161 0.922913 0.060242
0.447876 0.923065 0.060242
0.495117 0.923157 0.060242
0.542999 0.923279 0.060242
0.590759 0.923401 0.060242
0.638336 0.923492 0.060242
0.684692 0.923615 0.060242
0.729584 0.923706 0.060242
0.772186 0.923798 0.060242
0.811371 0.923889 0.060242
0.846893 0.924011 0.060852
0.878296 0.924103 0.061676
0.906006 0.924225 0.062531
0.930756 0.924316 0.063354
0.952850 0.924377 0.064148
0.972687 0.924469 0.064941
0.991089 0.924530 0.065643
1.000000 0.924591 0.066376
1.000000 0.924652 0.067108
0.033813 0.947388 0.060883
0.052307 0.947479 0.060883
0.071381 0.947632 0.060883
0.091400 0.947754 0.060883
0.112305 0.947876 0.060883
0.135223 0.947998 0.060883
0.158844 0.948059 0.060638
0.184540 0.948120 0.060455
0.212799 0.948181 0.060242
0.244476 0.948273 0.060242
0.279236 0.948395 0.060242
0.317749 0.948517 0.060242
0.359253 0.948700 0.060242
0.403076 0.948761 0.060242
0.448975 0.948853 0.060242
0.495850 0.948944 0.060242
0.543701 0.949036 0.060242
0.591461 0.949158 0.060242
0.638824 0.949219 0.060242
0.685120 0.949310 0.060242
0.729919 0.949402 0.060242
0.772461 0.949463 0.060272
0.811646 0.949585 0.061157
0.847137 0.949677 0.062195
0.878479 0.949768 0.063232
0.906158 0.949860 0.064209
0.930878 0.949921 0.065155
0.952942 0.949982 0.066101
0.972748 0.950043 0.066925
0.991119 0.950104 0.067719
1.000000 0.950165 0.068542
1.000000 0.950195 0.069305
0.038239 0.970917 0.060883
0.056885 0.970978 0.060883
0.075714 0.971069 0.060883
0.095520 0.971161 0.060883
0.115540 0.971191 0.060638
0.136871 0.971222 0.060486
0.160065 0.971252 0.060333
0.185730 0.971313 0.060242
0.214172 0.971344 0.060242
0.245575 0.971466 0.060242
0.280457 0.971527 0.060242
0.318695 0.971680 0.060242
0.360260 0.971802 0.060242
0.404144 0.971893 0.060242
0.449738 0.971954 0.060242
0.496521 0.972015 0.060242
