3d-lut/luts/Azrael 93.CUBE
#Created by: Adobe Photoshop Export Color Lookup Plugin
#Copyright: (C) Copyright 2017 RocketStock
TITLE "Untitled"
#LUT size
LUT_3D_SIZE 8
#data domain
#LUT data points
DOMAIN_MIN 0.000000 0.000000 0.000000
DOMAIN_MAX 0.903226 0.903226 0.903226
0.000000 0.000000 0.001556
0.045532 0.000000 0.002869
0.150848 0.000000 0.006409
0.306824 0.000000 0.009216
0.504944 0.000000 0.013519
0.706512 0.000000 0.019012
0.867126 0.000000 0.024292
0.968597 0.000000 0.026672
0.000000 0.049011 0.005951
0.049835 0.050201 0.007263
0.153656 0.052246 0.009186
0.309387 0.055664 0.012543
0.507416 0.060822 0.017670
0.708008 0.066833 0.024170
0.867615 0.070160 0.028137
0.968781 0.072235 0.031067
0.000000 0.156738 0.009644
0.054169 0.158173 0.011261
0.158081 0.160522 0.013763
0.313599 0.164246 0.017975
0.510620 0.169647 0.024323
0.709564 0.173401 0.029449
0.868317 0.176819 0.034332
0.969025 0.179199 0.037720
0.000000 0.318817 0.016998
0.062378 0.320404 0.019318
0.166107 0.322876 0.022797
0.319733 0.325623 0.026978
0.514008 0.328979 0.032684
0.711670 0.332672 0.039215
0.869568 0.336639 0.046112
0.969788 0.342621 0.055298
0.000000 0.522827 0.028198
0.071442 0.523773 0.030457
0.173279 0.525269 0.033752
0.325745 0.527222 0.038849
0.520203 0.531647 0.048706
0.719025 0.539429 0.060883
0.874695 0.544708 0.060883
0.971649 0.546234 0.060272
0.005341 0.727478 0.040649
0.079987 0.728119 0.043335
0.185303 0.730713 0.052490
0.341858 0.734406 0.060883
0.537201 0.738251 0.060760
0.726562 0.739594 0.060242
0.877014 0.740509 0.060242
0.972229 0.741058 0.060242
0.024384 0.891022 0.060883
0.102600 0.892029 0.060883
0.207947 0.893005 0.060883
0.356964 0.893646 0.060242
0.542084 0.894196 0.060242
0.729187 0.894745 0.060242
0.878082 0.895416 0.060333
0.972626 0.895844 0.062897
0.042236 0.992279 0.060883
0.116669 0.992401 0.060364
0.215210 0.992493 0.060242
0.361053 0.992645 0.060242
0.544739 0.992859 0.060242
0.730530 0.993042 0.061218
0.878784 0.993317 0.066406
0.972809 0.993469 0.070740
0.000000 0.000000 0.082245
0.047211 0.000000 0.084656
0.151306 0.000000 0.086487
0.307251 0.000000 0.088928
0.505341 0.000000 0.092834
0.706787 0.000000 0.097839
0.867218 0.000000 0.102264
0.968628 0.000000 0.104492
0.000000 0.049469 0.086060
0.050323 0.050781 0.087219
0.154175 0.052765 0.088928
0.309906 0.056274 0.091919
0.507843 0.061584 0.096619
0.708191 0.067383 0.102173
0.867706 0.070709 0.105804
0.968811 0.073029 0.108521
0.000000 0.157257 0.089325
0.054840 0.158722 0.090851
0.158752 0.161133 0.093079
0.314209 0.164948 0.096893
0.511108 0.170135 0.102325
0.709747 0.173981 0.107025
0.868408 0.177399 0.111511
0.969055 0.179810 0.114532
0.000000 0.319397 0.096039
0.063202 0.321259 0.098145
0.166870 0.323517 0.101257
0.320129 0.326050 0.104736
0.514313 0.329468 0.109924
0.711884 0.333191 0.115875
0.869873 0.338470 0.123749
0.969910 0.344330 0.131317
0.000000 0.523163 0.105896
0.071991 0.524261 0.108002
0.174072 0.525635 0.110962
0.326202 0.527893 0.115570
0.521301 0.532806 0.125977
0.719757 0.540344 0.134491
0.875092 0.545532 0.134430
0.971710 0.546509 0.133911
0.006195 0.727722 0.117188
0.081268 0.728607 0.120453
0.187347 0.731445 0.129089
0.343506 0.734955 0.134491
0.537781 0.738403 0.134186
0.726929 0.739777 0.133911
0.877136 0.740662 0.133911
0.972260 0.741211 0.133911
0.026611 0.891327 0.134491
0.105225 0.892303 0.134491
0.210419 0.893250 0.134491
0.357544 0.893738 0.133911
0.542633 0.894257 0.133911
0.729401 0.894928 0.133911
0.878204 0.895538 0.134521
0.972656 0.895966 0.137207
0.044464 0.992340 0.134338
0.117706 0.992432 0.133911
0.215912 0.992523 0.133911
0.361603 0.992676 0.133911
0.545044 0.992859 0.133911
0.730743 0.993103 0.135468
0.878876 0.993378 0.140564
0.972839 0.993530 0.144592
0.000000 0.000000 0.185364
0.048431 0.000000 0.187805
0.152161 0.000000 0.189087
0.307861 0.000000 0.191345
0.505890 0.000000 0.194916
0.707153 0.000000 0.199493
0.867340 0.000000 0.203094
0.968689 0.000000 0.205170
0.000000 0.050018 0.188751
0.051056 0.051575 0.189819
0.154938 0.053528 0.191345
0.310852 0.057343 0.194092
0.508423 0.062622 0.198364
0.708618 0.068085 0.203003
0.867828 0.071533 0.206390
0.968872 0.073975 0.208801
0.000000 0.157928 0.191742
0.055725 0.159729 0.193115
0.159668 0.162018 0.195129
0.315277 0.166138 0.198608
0.511536 0.170807 0.203156
0.709991 0.174744 0.207458
0.868530 0.178375 0.211487
0.969116 0.180634 0.214142
0.000000 0.320160 0.197845
0.064301 0.322083 0.199768
0.167572 0.324127 0.202271
0.320679 0.326660 0.205383
0.514771 0.330139 0.210083
0.712158 0.333862 0.215332
0.870361 0.340546 0.223907
0.970093 0.346222 0.229706
0.000000 0.523621 0.206451
0.072784 0.524811 0.208313
0.174774 0.526093 0.210938
0.326843 0.528381 0.215088
0.522736 0.534546 0.225739
0.720795 0.541718 0.230621
0.875549 0.545929 0.230347
0.971771 0.546844 0.230103
0.007050 0.728027 0.216461
0.084076 0.729797 0.221283
0.189728 0.732544 0.228088
0.345978 0.735962 0.230621
0.538452 0.738617 0.230164
0.727264 0.739990 0.230103
0.877258 0.740875 0.230103
0.972321 0.741425 0.230103
0.029938 0.891876 0.230621
0.108643 0.892670 0.230621
0.211700 0.893402 0.230377
0.358276 0.893829 0.230103
0.543121 0.894409 0.230103
0.729645 0.895111 0.230103
0.878326 0.895691 0.231445
0.972687 0.896149 0.234100
0.045624 0.992401 0.230286
0.118774 0.992462 0.230103
0.216797 0.992584 0.230103
0.362274 0.992706 0.230103
0.545441 0.992920 0.230103
0.731293 0.993195 0.232391
0.878967 0.993439 0.237274
0.972870 0.993561 0.240936
0.000000 0.000000 0.335938
0.049316 0.000000 0.336700
0.153076 0.000000 0.337830
0.308838 0.000000 0.339813
0.506958 0.000000 0.342865
0.707703 0.000000 0.346771
0.867493 0.000000 0.349426
0.968750 0.000000 0.351227
0.000000 0.051178 0.337524
0.052185 0.052612 0.338440
0.156219 0.054962 0.339783
0.311951 0.058777 0.342163
0.509338 0.064453 0.345856
0.709045 0.069183 0.349365
0.868011 0.072754 0.352264
0.968933 0.075256 0.354279
0.000000 0.159271 0.340118
0.057343 0.160950 0.341309
0.161255 0.163513 0.343048
0.316498 0.167572 0.346039
0.512085 0.171783 0.349457
0.710388 0.176086 0.353149
0.868744 0.179657 0.356506
0.969177 0.182098 0.358673
0.000000 0.321594 0.345337
0.066162 0.323303 0.347015
0.168518 0.325195 0.348694
0.321503 0.327820 0.351410
0.515656 0.331329 0.355347
0.712555 0.335175 0.359619
0.871246 0.343903 0.368256
0.970337 0.349030 0.370789
0.000000 0.524536 0.352295
0.074097 0.525513 0.353882
0.175842 0.526825 0.356079
0.327759 0.529144 0.359406
0.525177 0.536682 0.369385
0.722656 0.543427 0.370789
0.875824 0.546448 0.370361
0.971832 0.547638 0.370361
0.009735 0.729279 0.361816
0.088165 0.731201 0.366425
0.193604 0.733795 0.370728
0.349579 0.736969 0.370789
0.539307 0.739197 0.370361
0.727753 0.740326 0.370361
0.877472 0.741180 0.370361
0.972382 0.741699 0.370361
0.035034 0.892456 0.370789
0.113678 0.893158 0.370789
0.213226 0.893555 0.370361
0.359650 0.893982 0.370361
0.543854 0.894562 0.370361
0.729980 0.895325 0.370361
0.878540 0.895935 0.372559
0.972748 0.896393 0.375000
0.047241 0.992432 0.370361
0.120270 0.992523 0.370361
0.218353 0.992615 0.370361
0.363251 0.992767 0.370361
0.546021 0.992950 0.370361
0.731659 0.993286 0.373474
0.879089 0.993500 0.377777
0.972900 0.993652 0.380859
0.000000 0.000000 0.521210
0.050568 0.000000 0.521759
0.154388 0.000000 0.522644
0.310120 0.000000 0.524200
0.508057 0.000000 0.526611
0.708282 0.000000 0.529358
0.867737 0.000000 0.531219
0.968811 0.000000 0.532623
0.000000 0.052490 0.522400
0.053955 0.054260 0.523132
0.157867 0.056549 0.524200
0.313416 0.060822 0.526062
0.510498 0.066650 0.528900
0.709503 0.070892 0.531158
0.868286 0.074585 0.533386
0.969025 0.077148 0.534882
0.000000 0.160797 0.524475
0.059204 0.162781 0.525360
0.163025 0.165222 0.526733
0.317963 0.169647 0.528992
0.512848 0.173340 0.531250
0.710907 0.177582 0.534058
0.868988 0.181213 0.536499
0.969330 0.184326 0.538544
0.000000 0.323151 0.528503
0.067657 0.324707 0.529480
0.169952 0.326263 0.530670
0.322571 0.328979 0.532776
0.516479 0.332611 0.535706
0.714264 0.338867 0.540466
0.872131 0.347717 0.545654
0.970917 0.352295 0.545654
0.000977 0.525421 0.533417
0.075623 0.526398 0.534607
0.177246 0.528046 0.536194
0.330841 0.531647 0.540070
0.527985 0.539307 0.545654
0.724640 0.545654 0.545593
0.876160 0.547180 0.545349
0.971954 0.548279 0.545349
0.015259 0.730988 0.542236
0.093414 0.733063 0.544830
0.198669 0.735168 0.545654
0.354279 0.738251 0.545593
0.540375 0.739594 0.545349
0.728302 0.740692 0.545349
0.877716 0.741547 0.545349
0.972473 0.742126 0.545349
0.041901 0.893097 0.545654
0.116577 0.893463 0.545410
0.215118 0.893768 0.545349
0.360992 0.894196 0.545349
0.544678 0.894745 0.545349
0.730499 0.895569 0.545746
0.878784 0.896271 0.548126
0.972809 0.896667 0.550110
0.049561 0.992523 0.545349
0.122406 0.992584 0.545349
0.219940 0.992706 0.545349
0.364624 0.992859 0.545349
0.547089 0.993042 0.545776
0.732056 0.993378 0.548889
0.879242 0.993622 0.552216
0.972931 0.993744 0.554443
0.000000 0.000000 0.707153
0.051971 0.000000 0.707520
0.155884 0.000000 0.708130
0.311768 0.000000 0.709167
0.509155 0.000000 0.710754
0.708984 0.000000 0.712280
0.867981 0.000000 0.713562
0.968903 0.000610 0.714447
0.000000 0.054138 0.707977
0.055634 0.055817 0.708466
0.159576 0.058533 0.709167
0.315186 0.062805 0.710388
0.511475 0.068146 0.712006
0.709991 0.072449 0.713531
0.868530 0.076508 0.714935
0.969116 0.078857 0.715851
0.000000 0.162628 0.709320
0.061401 0.164459 0.709930
0.164978 0.167297 0.710815
0.318970 0.170898 0.712067
0.513611 0.174805 0.713593
0.711426 0.179352 0.715332
0.869263 0.183075 0.716827
0.969604 0.189606 0.719299
0.000000 0.324585 0.711853
0.069000 0.325775 0.712372
0.171204 0.327454 0.713196
0.323914 0.330231 0.714508
0.517334 0.333954 0.716339
0.715973 0.343018 0.720337
0.873047 0.351105 0.721710
0.971283 0.355469 0.721710
0.002716 0.526337 0.714966
0.077148 0.527344 0.715668
0.178894 0.528992 0.716675
0.334808 0.534760 0.720093
0.531311 0.541809 0.721710
0.725311 0.546326 0.721527
0.876465 0.548035 0.721527
0.972076 0.548950 0.721527
0.020874 0.732971 0.721161
0.098938 0.734589 0.721710
0.204315 0.736786 0.721710
0.356049 0.738647 0.721527
0.541382 0.739990 0.721527
0.728851 0.741089 0.721527
0.877930 0.741943 0.721527
0.972565 0.742920 0.721924
0.045685 0.893463 0.721588
0.118835 0.893677 0.721527
0.216858 0.893951 0.721527
0.362305 0.894409 0.721527
0.545471 0.895111 0.721527
0.731293 0.895874 0.722382
0.878967 0.896576 0.724121
0.972870 0.896973 0.725403
0.051605 0.992584 0.721527
0.124237 0.992676 0.721527
0.221466 0.992767 0.721527
0.365692 0.992920 0.721527
0.547974 0.993195 0.722382
0.732391 0.993500 0.724579
0.879333 0.993713 0.726715
0.972992 0.993835 0.728027
0.000000 0.000000 0.854645
0.053436 0.000000 0.854828
0.157379 0.000000 0.855164
0.312927 0.000000 0.855713
0.510101 0.000000 0.856537
0.709351 0.000000 0.857269
0.868164 0.000000 0.857910
0.968994 0.002167 0.858368
0.000000 0.055389 0.855072
0.057312 0.057404 0.855347
0.161194 0.059967 0.855713
0.316437 0.064667 0.856354
0.512054 0.069275 0.857117
0.710358 0.073944 0.857910
0.868744 0.077850 0.858612
0.969177 0.080505 0.859100
0.000000 0.163971 0.855804
0.063019 0.166138 0.856140
0.166718 0.169098 0.856598
0.320038 0.172058 0.857147
0.514252 0.176178 0.857941
0.711823 0.180634 0.858826
0.869812 0.186554 0.859985
0.969879 0.193542 0.861176
0.000000 0.325470 0.857025
0.070312 0.326660 0.857330
0.172241 0.328583 0.857727
0.324829 0.331451 0.858429
0.518036 0.335236 0.859314
0.717560 0.346161 0.861542
0.873871 0.353607 0.861725
0.971558 0.357666 0.861694
0.003967 0.527100 0.858612
0.078644 0.528381 0.858978
0.181122 0.530487 0.859741
0.338165 0.536957 0.861481
0.534271 0.543579 0.861725
0.725830 0.546844 0.861633
0.876709 0.548553 0.861633
0.972137 0.549469 0.861633
0.025421 0.734192 0.861725
0.103729 0.735962 0.861725
0.209229 0.737854 0.861725
0.357269 0.739227 0.861633
0.542450 0.740356 0.861633
0.729279 0.741394 0.861633
0.878143 0.742523 0.861694
0.972626 0.743408 0.862091
0.047363 0.893616 0.861633
0.120392 0.893829 0.861633
0.218445 0.894104 0.861633
0.363312 0.894562 0.861633
0.546051 0.895325 0.861633
0.731659 0.896149 0.862305
0.879089 0.896790 0.863281
0.972900 0.897217 0.863922
0.053375 0.992645 0.861633
0.125732 0.992706 0.861633
0.222839 0.992828 0.861633
0.366486 0.992981 0.861633
0.548584 0.993286 0.862305
0.732605 0.993561 0.863525
0.879425 0.993805 0.864563
0.973022 0.993896 0.865204
0.000000 0.000000 0.947998
0.054260 0.000000 0.948090
0.158173 0.000000 0.948181
0.313690 0.000000 0.948364
0.510651 0.000000 0.948700
0.709595 0.000000 0.948944
0.868317 0.000488 0.949188
0.969025 0.003052 0.949371
0.000000 0.056213 0.948151
0.058228 0.058289 0.948242
0.162109 0.061188 0.948364
0.317261 0.065765 0.948639
0.512451 0.070282 0.948883
0.710602 0.074768 0.949188
0.868866 0.078766 0.949432
0.969238 0.081421 0.949585
0.000000 0.164886 0.948395
0.064056 0.167114 0.948517
0.167450 0.169861 0.948700
0.320587 0.172882 0.948883
0.514648 0.176941 0.949188
0.712097 0.181427 0.949493
0.870270 0.189270 0.950043
0.970062 0.195984 0.950378
0.000000 0.326019 0.948853
0.071045 0.327240 0.948975
0.172943 0.329224 0.949127
0.325439 0.332123 0.949371
0.519226 0.336975 0.949768
0.718536 0.348145 0.950470
0.874390 0.355255 0.950470
0.971619 0.358154 0.950439
0.004761 0.527832 0.949432
0.079437 0.528900 0.949554
0.183594 0.532227 0.949951
0.340118 0.538452 0.950470
0.536011 0.544861 0.950470
0.726166 0.547333 0.950439
0.876862 0.548889 0.950439
0.972198 0.549774 0.950439
0.028595 0.734894 0.950470
0.107086 0.736633 0.950470
0.211304 0.738312 0.950470
0.358002 0.739441 0.950439
0.542908 0.740540 0.950439
0.729523 0.741608 0.950439
0.878265 0.742889 0.950500
0.972687 0.743713 0.950653
0.048676 0.893707 0.950439
0.121490 0.893921 0.950439
0.219299 0.894226 0.950439
0.364136 0.894684 0.950439
0.546570 0.895447 0.950439
0.731873 0.896301 0.950775
0.879181 0.896942 0.951111
0.972931 0.897339 0.951385
0.054321 0.992676 0.950439
0.126709 0.992767 0.950439
0.223541 0.992859 0.950439
0.367065 0.993011 0.950439
0.548920 0.993317 0.950775
0.732758 0.993622 0.951233
0.879456 0.993835 0.951569
0.973053 0.993958 0.951782
