3d-lut/luts/Azrael 93.CUBE
#Created by: Adobe Photoshop Export Color Lookup Plugin
#Copyright: (C) Copyright 2017 RocketStock
TITLE "Untitled"
#LUT size
LUT_3D_SIZE 5
#data domain
#LUT data points
DOMAIN_MIN 0.000000 0.000000 0.000000
DOMAIN_MAX 0.903226 0.903226 0.903226
0.000000 0.000000 0.001556
0.120911 0.000000 0.005920
0.402832 0.000000 0.011169
0.752350 0.000000 0.020477
0.968597 0.000000 0.026672
0.000000 0.125519 0.008484
0.126801 0.128571 0.011658
0.408264 0.135406 0.019073
0.754547 0.143677 0.029053
0.968964 0.148346 0.035767
0.000000 0.418488 0.022949
0.140289 0.420868 0.027008
0.416473 0.425079 0.035431
0.759430 0.434235 0.052948
0.970856 0.443756 0.060883
0.007568 0.773865 0.043701
0.161041 0.777252 0.057129
0.442383 0.782410 0.060883
0.770203 0.784180 0.060242
0.972351 0.785187 0.060242
0.042236 0.992279 0.060883
0.186859 0.992462 0.060242
0.450378 0.992737 0.060242
0.773041 0.993164 0.062439
0.972809 0.993469 0.070740
0.000000 0.000000 0.155945
0.121979 0.000000 0.159485
0.403809 0.000000 0.163879
0.752838 0.000000 0.171753
0.968658 0.000000 0.176483
0.000000 0.126465 0.161621
0.128021 0.129730 0.164276
0.409363 0.137085 0.170593
0.754852 0.144775 0.178528
0.969025 0.149811 0.184143
0.000000 0.419647 0.173615
0.141266 0.421600 0.176758
0.417480 0.426178 0.183838
0.760559 0.437042 0.200256
0.971130 0.445984 0.203217
0.011505 0.774994 0.193481
0.164764 0.778320 0.202850
0.443787 0.782776 0.202850
0.770569 0.784454 0.202637
0.972412 0.785645 0.202637
0.045288 0.992371 0.202911
0.188416 0.992523 0.202637
0.451172 0.992798 0.202637
0.773376 0.993225 0.206024
0.972870 0.993561 0.213470
0.000000 0.000000 0.426208
0.123718 0.000000 0.427612
0.405579 0.000000 0.430939
0.753784 0.000000 0.436432
0.968781 0.000000 0.439636
0.000000 0.128693 0.429199
0.130646 0.132233 0.431244
0.411285 0.139954 0.435883
0.755493 0.147125 0.441132
0.969147 0.152069 0.445038
0.000000 0.420929 0.437439
0.143250 0.423279 0.439850
0.418884 0.427765 0.444855
0.762939 0.441406 0.455933
0.971588 0.449036 0.455750
0.019348 0.777344 0.454071
0.172424 0.780273 0.455933
0.445770 0.783264 0.455566
0.771240 0.784912 0.455566
0.972534 0.786255 0.456055
0.048492 0.992493 0.455566
0.190887 0.992645 0.455566
0.452606 0.992889 0.455566
0.773895 0.993378 0.460022
0.972931 0.993713 0.465515
0.000000 0.000000 0.749359
0.126434 0.000000 0.750061
0.407806 0.000000 0.751740
0.754456 0.000000 0.754059
0.968933 0.000977 0.755615
0.000000 0.131622 0.750885
0.133850 0.135559 0.751892
0.413055 0.142303 0.753815
0.756226 0.150085 0.756317
0.969452 0.157501 0.758759
0.000000 0.422913 0.754578
0.145752 0.425171 0.755707
0.421967 0.431152 0.758514
0.765961 0.446472 0.761749
0.971802 0.450439 0.761597
0.029449 0.779846 0.761749
0.183044 0.782501 0.761749
0.447937 0.783905 0.761597
0.772217 0.785767 0.761597
0.972687 0.787170 0.762726
0.052032 0.992615 0.761597
0.193939 0.992767 0.761597
0.454376 0.993042 0.761749
0.774353 0.993591 0.764923
0.973022 0.993866 0.767303
0.000000 0.000000 0.947998
0.128174 0.000000 0.948151
0.409485 0.000000 0.948517
0.754944 0.000000 0.949005
0.969025 0.003052 0.949371
0.000000 0.133698 0.948334
0.136200 0.137817 0.948547
0.414032 0.144073 0.948944
0.756714 0.151855 0.949463
0.969788 0.163239 0.950226
0.000427 0.424072 0.949127
0.147278 0.426605 0.949371
0.425537 0.435150 0.950165
0.767792 0.448914 0.950470
0.971924 0.451294 0.950439
0.036713 0.781097 0.950470
0.185303 0.782928 0.950439
0.449463 0.784271 0.950439
0.772675 0.786194 0.950470
0.972778 0.787781 0.950836
0.054321 0.992676 0.950439
0.195709 0.992828 0.950439
0.455505 0.993195 0.950592
0.774597 0.993683 0.951324
0.973053 0.993958 0.951782
