3d-lut/luts/Byers 11.CUBE
#Created by: Adobe Photoshop Export Color Lookup Plugin
#Copyright: (C) Copyright 2017 RocketStock
TITLE "Cool"
#LUT size
LUT_3D_SIZE 8
#data domain
#LUT data points
DOMAIN_MIN 0.000000 0.000000 0.000000
DOMAIN_MAX 0.903226 0.903226 0.903226
0.000000 0.000000 0.000000
0.008850 0.000000 0.000000
0.126953 0.000000 0.000000
0.326691 0.000000 0.000000
0.561798 0.000000 0.000000
0.749725 0.000000 0.000000
0.890228 0.000000 0.000000
1.000000 0.000000 0.000000
0.000000 0.048767 0.000000
0.008850 0.048767 0.000000
0.126953 0.048767 0.000000
0.326691 0.048737 0.000000
0.561798 0.048828 0.000000
0.749725 0.048676 0.000000
0.890228 0.048676 0.000000
1.000000 0.048828 0.000000
0.000000 0.162598 0.000000
0.008850 0.162598 0.000000
0.126953 0.162598 0.000000
0.326691 0.162628 0.000000
0.561798 0.162537 0.000000
0.749725 0.162537 0.000000
0.890228 0.162567 0.000000
1.000000 0.162598 0.000000
0.000000 0.345093 0.000000
0.008850 0.345093 0.000000
0.126953 0.345093 0.000000
0.326721 0.345093 0.000000
0.561798 0.345093 0.000000
0.749725 0.345032 0.000000
0.890228 0.345123 0.000000
1.000000 0.345215 0.000000
0.000000 0.550873 0.000000
0.008881 0.550873 0.000000
0.126953 0.550873 0.000000
0.326691 0.550873 0.000000
0.561798 0.550812 0.000000
0.749725 0.550934 0.000000
0.890228 0.550964 0.000000
1.000000 0.550781 0.000000
0.000000 0.714630 0.000000
0.008911 0.714630 0.000000
0.127014 0.714630 0.000000
0.326599 0.714630 0.000000
0.561798 0.714630 0.000000
0.749725 0.714569 0.000000
0.890228 0.714630 0.000000
1.000000 0.714600 0.000000
0.000000 0.838318 0.000000
0.008789 0.838318 0.000000
0.126892 0.838318 0.000000
0.326660 0.838318 0.000000
0.561798 0.838318 0.000000
0.749695 0.838318 0.000000
0.890228 0.838287 0.000000
1.000000 0.838379 0.000000
0.000000 0.935547 0.000000
0.008911 0.935547 0.000000
0.126984 0.935547 0.000000
0.326630 0.935547 0.000000
0.561890 0.935547 0.000000
0.749634 0.935547 0.000000
0.890320 0.935547 0.000000
1.000000 0.935547 0.000000
0.000000 0.000000 0.091125
0.008850 0.000000 0.091125
0.126953 0.000000 0.091125
0.326691 0.000000 0.091156
0.561798 0.000000 0.091064
0.749725 0.000000 0.091156
0.890228 0.000000 0.091064
1.000000 0.000000 0.091064
0.000000 0.048767 0.091125
0.007721 0.048737 0.092255
0.128021 0.047699 0.091217
0.330475 0.044952 0.088440
0.568817 0.041748 0.085236
0.759308 0.039185 0.082794
0.901733 0.037262 0.080750
1.000000 0.048767 0.091034
0.000000 0.162598 0.091156
0.006744 0.164703 0.091278
0.126953 0.163574 0.090149
0.329895 0.161316 0.087891
0.568237 0.158112 0.084686
0.758728 0.155640 0.082123
0.901154 0.153564 0.080200
1.000000 0.162567 0.091125
0.000000 0.345093 0.091156
0.004242 0.349670 0.088745
0.124481 0.348572 0.087646
0.329651 0.348572 0.087646
0.568237 0.345581 0.084686
0.758728 0.342957 0.082123
0.901154 0.341156 0.080200
1.000000 0.345184 0.091125
0.000000 0.550873 0.091187
0.001434 0.558289 0.085999
0.121613 0.557159 0.084839
0.326874 0.557159 0.084839
0.568237 0.557037 0.084686
0.758728 0.554382 0.082123
0.901154 0.552612 0.080200
1.000000 0.550903 0.091125
0.000000 0.714630 0.091064
0.000000 0.723480 0.084259
0.119324 0.723145 0.082581
0.324677 0.723145 0.082581
0.566132 0.723145 0.082581
0.758728 0.722717 0.082123
0.901154 0.720764 0.080200
1.000000 0.714630 0.091125
0.000000 0.838318 0.091064
0.000000 0.847168 0.083984
0.117645 0.848511 0.080902
0.322845 0.848511 0.080902
0.564392 0.848511 0.080902
0.757446 0.848511 0.080902
0.901154 0.847839 0.080200
1.000000 0.838226 0.091125
0.000000 0.935547 0.091125
0.000000 0.944397 0.083923
0.116425 0.947083 0.079559
0.321655 0.947083 0.079559
0.563080 0.947083 0.079559
0.756256 0.947083 0.079559
0.900482 0.947083 0.079559
1.000000 0.935638 0.091125
0.000000 0.000000 0.216553
0.008820 0.000000 0.216553
0.126953 0.000000 0.216553
0.326691 0.000000 0.216553
0.561798 0.000000 0.216583
0.749725 0.000000 0.216522
0.890228 0.000000 0.216461
1.000000 0.000000 0.216553
0.000000 0.048737 0.216553
0.006012 0.046997 0.219391
0.126801 0.046478 0.218842
0.330475 0.044952 0.217346
0.568817 0.041748 0.214172
0.759308 0.039185 0.211487
0.901733 0.037262 0.209686
1.000000 0.048767 0.216431
0.000000 0.162567 0.216553
0.006012 0.163971 0.219391
0.125732 0.162323 0.217773
0.328918 0.160339 0.215790
0.567261 0.157135 0.212616
0.757751 0.154572 0.209930
0.900177 0.152649 0.208130
1.000000 0.162598 0.216583
0.000000 0.345093 0.216522
0.004242 0.349670 0.217590
0.123962 0.348053 0.215973
0.327942 0.346832 0.214783
0.566498 0.343872 0.211823
0.757019 0.341248 0.209259
0.899445 0.339478 0.207336
1.000000 0.345093 0.216553
0.000000 0.550873 0.216522
0.001434 0.558289 0.214874
0.121155 0.556671 0.213226
0.325104 0.555450 0.211975
0.566498 0.555237 0.211823
0.757019 0.552673 0.209259
0.899445 0.550842 0.207336
1.000000 0.550903 0.216553
0.000000 0.714630 0.216522
0.000000 0.723480 0.212830
0.118896 0.722656 0.210876
0.322937 0.721436 0.209747
0.564392 0.721436 0.209747
0.757019 0.720917 0.209259
0.899445 0.718994 0.207336
1.000000 0.714630 0.216553
0.000000 0.838318 0.216553
0.000000 0.847168 0.212219
0.117218 0.848022 0.209290
0.321259 0.846802 0.208038
0.562653 0.846802 0.208038
0.755737 0.846802 0.208038
0.899445 0.846039 0.207336
1.000000 0.838379 0.216553
0.000000 0.935547 0.216522
0.000000 0.944397 0.211670
0.115875 0.946594 0.207947
0.319794 0.945374 0.206726
0.561432 0.945374 0.206726
0.754395 0.945374 0.206726
0.898834 0.945374 0.206726
1.000000 0.935547 0.216553
0.000000 0.000000 0.389313
0.008850 0.000000 0.389313
0.126984 0.000000 0.389313
0.326691 0.000000 0.389313
0.561798 0.000000 0.389252
0.749725 0.000000 0.389313
0.890228 0.000000 0.389252
1.000000 0.000000 0.389404
0.000000 0.048767 0.389313
0.003632 0.044678 0.394501
0.124390 0.044098 0.393951
0.329620 0.044098 0.393951
0.568817 0.041748 0.391632
0.759308 0.039185 0.389038
0.901733 0.037262 0.387177
1.000000 0.048767 0.389221
0.000000 0.162628 0.389313
0.003632 0.161560 0.394501
0.123352 0.159943 0.392883
0.328094 0.159485 0.392395
0.567261 0.157135 0.390045
0.757751 0.154572 0.387543
0.900177 0.152649 0.385529
1.000000 0.162598 0.389313
0.000000 0.345123 0.389313
0.003632 0.349091 0.394501
0.123352 0.347473 0.392883
0.325836 0.344757 0.390167
0.564758 0.342133 0.387573
0.755249 0.339539 0.385010
0.897675 0.337646 0.383026
1.000000 0.345093 0.389374
0.000000 0.550873 0.389343
0.001434 0.558289 0.392303
0.121155 0.556671 0.390686
0.323608 0.553925 0.387939
0.564148 0.552948 0.386932
0.754639 0.550354 0.384369
0.897064 0.548401 0.382446
1.000000 0.550934 0.389313
0.000000 0.714630 0.389252
0.000000 0.723480 0.390015
0.118896 0.722656 0.388489
0.321381 0.719940 0.385712
0.562073 0.719055 0.384857
0.754639 0.718567 0.384369
0.897064 0.716644 0.382446
1.000000 0.714630 0.389313
0.000000 0.838318 0.389282
0.000000 0.847168 0.388641
0.117218 0.848022 0.386810
0.319702 0.845306 0.384003
0.560333 0.844452 0.383179
0.753448 0.844452 0.383179
0.897064 0.843781 0.382446
1.000000 0.838379 0.389313
0.000000 0.935547 0.389191
0.000000 0.944397 0.387817
0.115875 0.946594 0.385406
0.318359 0.943878 0.382660
0.558990 0.942993 0.381836
0.752136 0.942993 0.381836
0.896423 0.942993 0.381836
1.000000 0.935577 0.389313
0.000000 0.000000 0.567139
0.008850 0.000000 0.567139
0.126984 0.000000 0.567139
0.326630 0.000000 0.567139
0.561737 0.000000 0.567139
0.749725 0.000000 0.567047
0.890228 0.000000 0.567047
1.000000 0.000000 0.567139
0.000000 0.048737 0.567139
0.001221 0.042236 0.574768
0.122040 0.041687 0.574219
0.327209 0.041687 0.574219
0.568756 0.041687 0.574219
0.759308 0.039185 0.571716
0.901733 0.037262 0.569733
1.000000 0.048767 0.567108
0.000000 0.162567 0.567139
0.001221 0.159180 0.574768
0.120941 0.157593 0.573151
0.325592 0.157074 0.572662
0.567169 0.157074 0.572662
0.757751 0.154572 0.570129
0.900177 0.152649 0.568207
1.000000 0.162598 0.567200
0.000000 0.345032 0.567139
0.001221 0.346680 0.574768
0.120941 0.345062 0.573151
0.323395 0.342285 0.570404
0.564636 0.342041 0.570160
0.755249 0.339539 0.567688
0.897675 0.337646 0.565704
1.000000 0.345093 0.567169
0.000000 0.550934 0.567139
0.001221 0.558105 0.574768
0.120941 0.556488 0.573151
0.323395 0.553711 0.570404
0.561859 0.550629 0.567352
0.752441 0.548157 0.564850
0.894867 0.546234 0.562927
1.000000 0.550873 0.567108
0.000000 0.714630 0.567200
0.000000 0.723480 0.572296
0.118896 0.722656 0.571136
0.321381 0.719940 0.568451
0.559692 0.716705 0.565186
0.752228 0.716187 0.564636
0.894623 0.714233 0.562714
1.000000 0.714661 0.567139
0.000000 0.838318 0.567139
0.000000 0.847168 0.570221
0.117218 0.848022 0.569519
0.319702 0.845306 0.566711
0.558014 0.842102 0.563507
0.751007 0.842010 0.563416
0.894623 0.841309 0.562714
1.000000 0.838318 0.567139
0.000000 0.935547 0.567139
0.000000 0.944397 0.569031
0.115875 0.946594 0.568146
0.318359 0.943878 0.565460
0.556671 0.940643 0.562195
0.749664 0.940582 0.562103
0.894012 0.940582 0.562103
1.000000 0.935547 0.567139
0.000000 0.000000 0.714661
0.008911 0.000000 0.714661
0.127014 0.000000 0.714661
0.326630 0.000000 0.714661
0.561829 0.000000 0.714661
0.749725 0.000000 0.714569
0.890228 0.000000 0.714630
1.000000 0.000000 0.714600
0.000000 0.048859 0.714661
0.000000 0.040985 0.723511
0.119965 0.039642 0.723755
0.325256 0.039642 0.723755
0.566742 0.039642 0.723755
0.759308 0.039185 0.723267
0.901733 0.037262 0.721283
1.000000 0.048767 0.714569
0.000000 0.162628 0.714661
0.000000 0.157562 0.723511
0.118896 0.155457 0.722687
0.323547 0.155029 0.722198
0.565186 0.155029 0.722198
0.757751 0.154572 0.721680
0.900177 0.152649 0.719879
1.000000 0.162598 0.714600
0.000000 0.345123 0.714661
0.000000 0.344635 0.723511
0.118896 0.342957 0.722687
0.321381 0.340271 0.719971
0.562683 0.340027 0.719696
0.755249 0.339539 0.719208
0.897675 0.337646 0.717346
1.000000 0.345093 0.714600
0.000000 0.550812 0.714661
0.000000 0.555542 0.723511
0.118896 0.554352 0.722687
0.321381 0.551727 0.719971
0.559845 0.548615 0.716888
0.752441 0.548157 0.716431
0.894867 0.546234 0.714508
1.000000 0.550873 0.714691
0.000000 0.714661 0.714661
0.000000 0.723511 0.723511
0.118896 0.722687 0.722687
0.321381 0.719971 0.719971
0.559692 0.716705 0.716736
0.750183 0.714142 0.714172
0.892609 0.712219 0.712250
1.000000 0.714630 0.714630
0.000000 0.838318 0.714691
0.000000 0.847168 0.720795
0.117218 0.848022 0.720978
0.319702 0.845306 0.718262
0.558014 0.842102 0.715027
0.748962 0.839996 0.712952
0.892609 0.839294 0.712250
1.000000 0.838318 0.714661
0.000000 0.935547 0.714691
0.000000 0.944397 0.719360
0.115875 0.946594 0.719635
0.318359 0.943878 0.716949
0.556671 0.940643 0.713684
0.747650 0.938568 0.711639
0.892029 0.938568 0.711639
1.000000 0.935547 0.714661
0.000000 0.000000 0.836456
0.008789 0.000000 0.836456
0.127014 0.000000 0.836456
0.326752 0.000000 0.836456
0.561798 0.000000 0.836456
0.749664 0.000000 0.836456
0.890228 0.000000 0.836548
1.000000 0.000000 0.836426
0.000000 0.048798 0.836456
0.000000 0.040863 0.845306
0.118408 0.037994 0.847229
0.323486 0.037994 0.847229
0.565094 0.037994 0.847229
0.758118 0.037994 0.847229
0.901733 0.037262 0.846436
1.000000 0.048767 0.836517
0.000000 0.162567 0.836456
0.000000 0.157043 0.845306
0.117249 0.153900 0.846161
0.321899 0.153381 0.845673
0.563599 0.153381 0.845673
0.756592 0.153381 0.845673
0.900177 0.152649 0.844879
1.000000 0.162598 0.836456
0.000000 0.345123 0.836456
0.000000 0.343414 0.845306
0.117249 0.341309 0.846161
0.319702 0.338623 0.843414
0.560944 0.338379 0.843170
0.754059 0.338379 0.843170
0.897675 0.337646 0.842438
1.000000 0.345093 0.836426
0.000000 0.550964 0.836456
0.000000 0.553711 0.845306
0.117249 0.552704 0.846161
0.319702 0.549988 0.843414
0.558228 0.546967 0.840363
0.751251 0.546967 0.840363
0.894867 0.546234 0.839630
1.000000 0.550873 0.836395
0.000000 0.714539 0.836456
0.000000 0.720856 0.845306
0.117249 0.721069 0.846161
0.319702 0.718231 0.843414
0.558044 0.715027 0.840210
0.748993 0.712952 0.838104
0.892609 0.712219 0.837372
1.000000 0.714630 0.836487
0.000000 0.838318 0.836487
0.000000 0.847168 0.845306
0.117218 0.848022 0.846069
0.319702 0.845306 0.843384
0.558014 0.842102 0.840149
0.748505 0.839508 0.837585
0.890961 0.837646 0.835724
1.000000 0.838318 0.836456
0.000000 0.935547 0.836426
0.000000 0.944397 0.843414
0.115875 0.946594 0.844788
0.318359 0.943878 0.842010
0.556671 0.940643 0.838837
0.747192 0.938080 0.836304
0.890350 0.936890 0.835083
1.000000 0.935547 0.836456
0.000000 0.000000 0.936951
0.008911 0.000000 0.936951
0.126953 0.000000 0.936951
0.326660 0.000000 0.936951
0.561798 0.000000 0.936951
0.749847 0.000000 0.936951
0.890289 0.000000 0.936951
1.000000 0.000000 0.937012
0.000000 0.048737 0.936951
0.000000 0.040649 0.945801
0.117035 0.036621 0.949097
0.322205 0.036621 0.949097
0.563690 0.036621 0.949097
0.756836 0.036621 0.949097
0.901215 0.036621 0.949097
1.000000 0.048767 0.937073
0.000000 0.162628 0.936951
0.000000 0.156799 0.945801
0.115875 0.152435 0.948029
0.320587 0.152008 0.947540
0.562195 0.152008 0.947540
0.755249 0.152008 0.947540
0.899567 0.152008 0.947540
1.000000 0.162598 0.937042
0.000000 0.345184 0.936951
0.000000 0.342682 0.945801
0.115875 0.339966 0.948029
0.318329 0.337311 0.945282
0.559662 0.337006 0.945038
0.752655 0.337006 0.945038
0.897095 0.337006 0.945038
1.000000 0.345093 0.937012
0.000000 0.550812 0.936951
0.000000 0.552338 0.945801
0.115875 0.551453 0.948029
0.318329 0.548706 0.945282
0.556824 0.545593 0.942230
0.749908 0.545593 0.942230
0.894196 0.545593 0.942230
1.000000 0.550873 0.936951
0.000000 0.714600 0.936951
0.000000 0.719269 0.945801
0.115875 0.719666 0.948029
0.318329 0.716919 0.945282
0.556671 0.713715 0.942078
0.747650 0.711578 0.939972
0.891968 0.711578 0.939972
1.000000 0.714630 0.936951
0.000000 0.838348 0.936951
0.000000 0.845367 0.945801
0.115875 0.846649 0.948029
0.318329 0.843964 0.945282
0.556671 0.840729 0.942078
0.747162 0.838165 0.939514
0.890320 0.836975 0.938293
1.000000 0.838318 0.936951
0.000000 0.935577 0.936951
0.000000 0.944427 0.945801
0.115875 0.946594 0.948029
0.318329 0.943909 0.945282
0.556671 0.940674 0.942078
0.747162 0.938049 0.939514
0.889587 0.936157 0.937592
1.000000 0.935547 0.936951
