3d-lut/luts/Byers 11.CUBE
#Created by: Adobe Photoshop Export Color Lookup Plugin
#Copyright: (C) Copyright 2017 RocketStock
TITLE "Cool"
#LUT size
LUT_3D_SIZE 5
#data domain
#LUT data points
DOMAIN_MIN 0.000000 0.000000 0.000000
DOMAIN_MAX 0.903226 0.903226 0.903226
0.000000 0.000000 0.000000
0.091064 0.000000 0.000000
0.446564 0.000000 0.000000
0.788635 0.000000 0.000000
1.000000 0.000000 0.000000
0.000000 0.128479 0.000000
0.091064 0.128479 0.000000
0.446564 0.128418 0.000000
0.788635 0.128418 0.000000
1.000000 0.128418 0.000000
0.000000 0.450714 0.000000
0.091125 0.450714 0.000000
0.446533 0.450714 0.000000
0.788635 0.450745 0.000000
1.000000 0.450684 0.000000
0.000000 0.748871 0.000000
0.091064 0.748871 0.000000
0.446655 0.748871 0.000000
0.788635 0.748779 0.000000
1.000000 0.748779 0.000000
0.000000 0.935547 0.000000
0.091125 0.935547 0.000000
0.446533 0.935547 0.000000
0.788696 0.935547 0.000000
1.000000 0.935547 0.000000
0.000000 0.000000 0.180634
0.091064 0.000000 0.180634
0.446564 0.000000 0.180664
0.788635 0.000000 0.180603
1.000000 0.000000 0.180664
0.000000 0.128448 0.180634
0.089844 0.128265 0.181854
0.450897 0.124115 0.177734
0.797668 0.119446 0.173096
1.000000 0.128479 0.180603
0.000000 0.450714 0.180695
0.086151 0.455627 0.178162
0.450134 0.454407 0.176941
0.796936 0.449707 0.172302
1.000000 0.450684 0.180634
0.000000 0.748871 0.180634
0.082062 0.757843 0.174133
0.446075 0.756622 0.172852
0.796936 0.756073 0.172302
1.000000 0.748962 0.180634
0.000000 0.935547 0.180664
0.079498 0.947083 0.171417
0.443542 0.945862 0.170319
0.794952 0.945862 0.170319
1.000000 0.935577 0.180634
0.000000 0.000000 0.480804
0.091095 0.000000 0.480804
0.446533 0.000000 0.480804
0.788635 0.000000 0.480774
1.000000 0.000000 0.480713
0.000000 0.128540 0.480804
0.085724 0.124146 0.486115
0.450439 0.123657 0.485626
0.797668 0.119446 0.481415
1.000000 0.128479 0.480835
0.000000 0.450745 0.480804
0.085724 0.455231 0.486115
0.446075 0.450348 0.481262
0.793243 0.446075 0.477020
1.000000 0.450714 0.480743
0.000000 0.748871 0.480835
0.082062 0.757843 0.482483
0.442413 0.752991 0.477600
0.792847 0.752014 0.476593
1.000000 0.748901 0.480804
0.000000 0.935547 0.480804
0.079498 0.947083 0.479828
0.439880 0.942230 0.475067
0.790863 0.941742 0.474579
1.000000 0.935608 0.480804
0.000000 0.000000 0.747406
0.091064 0.000000 0.747406
0.446503 0.000000 0.747406
0.788635 0.000000 0.747437
1.000000 0.000000 0.747314
0.000000 0.128448 0.747406
0.082092 0.120453 0.756378
0.446777 0.119995 0.755859
0.797668 0.119446 0.755280
1.000000 0.128479 0.747437
0.000000 0.450714 0.747406
0.082092 0.451508 0.756378
0.442444 0.446747 0.751526
0.793243 0.446075 0.750854
1.000000 0.450714 0.747345
0.000000 0.748871 0.747406
0.082062 0.757843 0.756348
0.442413 0.752991 0.751465
0.789185 0.748322 0.746826
1.000000 0.748871 0.747406
0.000000 0.935547 0.747345
0.079498 0.947083 0.753693
0.439880 0.942230 0.748932
0.787201 0.938110 0.744812
1.000000 0.935547 0.747406
0.000000 0.000000 0.936951
0.091034 0.000000 0.936951
0.446503 0.000000 0.936951
0.788727 0.000000 0.936951
1.000000 0.000000 0.937012
0.000000 0.128571 0.936951
0.079498 0.117889 0.948517
0.444305 0.117432 0.947998
0.795715 0.117432 0.947998
1.000000 0.128479 0.937012
0.000000 0.450623 0.936951
0.079498 0.449097 0.948517
0.439850 0.444153 0.943634
0.791290 0.444061 0.943604
1.000000 0.450714 0.936981
0.000000 0.748932 0.936951
0.079498 0.755249 0.948517
0.439850 0.750397 0.943634
0.787140 0.746277 0.939514
1.000000 0.748871 0.936981
0.000000 0.935577 0.936951
0.079498 0.947021 0.948517
0.439850 0.942169 0.943634
0.786591 0.937500 0.938965
1.000000 0.935547 0.936951
