3d-lut/luts/Byers 11.CUBE
#Created by: Adobe Photoshop Export Color Lookup Plugin
#Copyright: (C) Copyright 2017 RocketStock
TITLE "Cool"
#LUT size
LUT_3D_SIZE 32
#data domain
DOMAIN_MIN 0.0 0.0 0.0
DOMAIN_MAX 1.0 1.0 1.0
#LUT data points
0.000000 0.000000 0.000000
0.000000 0.000000 0.000000
0.000000 0.000000 0.000000
0.000000 0.000000 0.000000
0.008850 0.000000 0.000000
0.032562 0.000000 0.000000
0.059662 0.000000 0.000000
0.091064 0.000000 0.000000
0.126953 0.000000 0.000000
0.168457 0.000000 0.000000
0.215912 0.000000 0.000000
0.269409 0.000000 0.000000
0.326691 0.000000 0.000000
0.386261 0.000000 0.000000
0.446564 0.000000 0.000000
0.505676 0.000000 0.000000
0.561798 0.000000 0.000000
0.614044 0.000000 0.000000
0.662750 0.000000 0.000000
0.707764 0.000000 0.000000
0.749725 0.000000 0.000000
0.788635 0.000000 0.000000
0.825073 0.000000 0.000000
0.858704 0.000000 0.000000
0.890228 0.000000 0.000000
0.920074 0.000000 0.000000
0.948059 0.000000 0.000000
0.974731 0.000000 0.000000
1.000000 0.000000 0.000000
1.000000 0.000000 0.000000
1.000000 0.000000 0.000000
1.000000 0.000000 0.000000
0.000000 0.000000 0.000000
0.000000 0.000000 0.000000
0.000000 0.000000 0.000000
0.000000 0.000000 0.000000
0.008850 0.000000 0.000000
0.032562 0.000000 0.000000
0.059662 0.000000 0.000000
0.091064 0.000000 0.000000
0.126953 0.000000 0.000000
0.168457 0.000000 0.000000
0.215912 0.000000 0.000000
0.269409 0.000000 0.000000
0.326691 0.000000 0.000000
0.386261 0.000000 0.000000
0.446564 0.000000 0.000000
0.505676 0.000000 0.000000
0.561798 0.000000 0.000000
0.614044 0.000000 0.000000
0.662750 0.000000 0.000000
0.707764 0.000000 0.000000
0.749725 0.000000 0.000000
0.788635 0.000000 0.000000
0.825073 0.000000 0.000000
0.858704 0.000000 0.000000
0.890228 0.000000 0.000000
0.920074 0.000000 0.000000
0.948059 0.000000 0.000000
0.974731 0.000000 0.000000
1.000000 0.000000 0.000000
1.000000 0.000000 0.000000
1.000000 0.000000 0.000000
1.000000 0.000000 0.000000
0.000000 0.008362 0.000000
0.000000 0.008362 0.000000
0.000000 0.008362 0.000000
0.000000 0.008362 0.000000
0.008850 0.008362 0.000000
0.032562 0.008362 0.000000
0.059662 0.008362 0.000000
0.091064 0.008362 0.000000
0.126953 0.008362 0.000000
0.168457 0.008362 0.000000
0.215912 0.008392 0.000000
0.269409 0.008362 0.000000
0.326691 0.008362 0.000000
0.386261 0.008392 0.000000
0.446564 0.008392 0.000000
0.505676 0.008392 0.000000
0.561798 0.008362 0.000000
0.614044 0.008392 0.000000
0.662750 0.008423 0.000000
0.707764 0.008301 0.000000
0.749725 0.008423 0.000000
0.788635 0.008270 0.000000
0.825073 0.008453 0.000000
0.858704 0.008392 0.000000
0.890228 0.008270 0.000000
0.920074 0.008301 0.000000
0.948059 0.008331 0.000000
0.974731 0.008331 0.000000
1.000000 0.008301 0.000000
1.000000 0.008301 0.000000
1.000000 0.008301 0.000000
1.000000 0.008301 0.000000
0.000000 0.027527 0.000000
0.000000 0.027527 0.000000
0.000000 0.027527 0.000000
0.000000 0.027527 0.000000
0.008850 0.027527 0.000000
0.032562 0.027527 0.000000
0.059662 0.027527 0.000000
0.091064 0.027527 0.000000
0.126953 0.027527 0.000000
0.168457 0.027527 0.000000
0.215912 0.027527 0.000000
0.269409 0.027557 0.000000
0.326691 0.027527 0.000000
0.386261 0.027527 0.000000
0.446564 0.027466 0.000000
0.505676 0.027527 0.000000
0.561798 0.027557 0.000000
0.614044 0.027588 0.000000
0.662750 0.027496 0.000000
0.707764 0.027466 0.000000
0.749725 0.027466 0.000000
0.788635 0.027527 0.000000
0.825073 0.027588 0.000000
0.858704 0.027466 0.000000
0.890228 0.027588 0.000000
0.920074 0.027618 0.000000
0.948059 0.027557 0.000000
0.974731 0.027618 0.000000
1.000000 0.027588 0.000000
1.000000 0.027588 0.000000
1.000000 0.027588 0.000000
1.000000 0.027588 0.000000
0.000000 0.048767 0.000000
0.000000 0.048767 0.000000
0.000000 0.048767 0.000000
0.000000 0.048767 0.000000
0.008850 0.048767 0.000000
0.032562 0.048767 0.000000
0.059662 0.048767 0.000000
0.091064 0.048767 0.000000
0.126953 0.048767 0.000000
0.168457 0.048767 0.000000
0.215912 0.048767 0.000000
0.269409 0.048737 0.000000
0.326691 0.048737 0.000000
0.386261 0.048767 0.000000
0.446564 0.048737 0.000000
0.505676 0.048767 0.000000
0.561798 0.048828 0.000000
0.614044 0.048737 0.000000
0.662750 0.048706 0.000000
0.707764 0.048737 0.000000
0.749725 0.048676 0.000000
0.788635 0.048706 0.000000
0.825073 0.048737 0.000000
0.858704 0.048859 0.000000
0.890228 0.048676 0.000000
0.920074 0.048737 0.000000
0.948059 0.048828 0.000000
0.974731 0.048798 0.000000
1.000000 0.048828 0.000000
1.000000 0.048828 0.000000
1.000000 0.048828 0.000000
1.000000 0.048828 0.000000
0.000000 0.072021 0.000000
0.000000 0.072021 0.000000
0.000000 0.072021 0.000000
0.000000 0.072021 0.000000
0.008850 0.072021 0.000000
0.032562 0.072021 0.000000
0.059662 0.072021 0.000000
0.091064 0.072021 0.000000
0.126953 0.072021 0.000000
0.168457 0.072021 0.000000
0.215912 0.071991 0.000000
0.269409 0.072021 0.000000
0.326691 0.072021 0.000000
0.386261 0.072052 0.000000
0.446564 0.072052 0.000000
0.505676 0.071960 0.000000
0.561798 0.072021 0.000000
0.614044 0.071960 0.000000
0.662750 0.071991 0.000000
0.707764 0.072052 0.000000
0.749725 0.071930 0.000000
0.788635 0.072021 0.000000
0.825073 0.072113 0.000000
0.858704 0.072113 0.000000
0.890228 0.071930 0.000000
0.920074 0.072113 0.000000
0.948059 0.071991 0.000000
0.974731 0.072113 0.000000
1.000000 0.072021 0.000000
1.000000 0.072021 0.000000
1.000000 0.072021 0.000000
1.000000 0.072021 0.000000
0.000000 0.098389 0.000000
0.000000 0.098389 0.000000
0.000000 0.098389 0.000000
0.000000 0.098389 0.000000
0.008850 0.098389 0.000000
0.032562 0.098389 0.000000
0.059662 0.098389 0.000000
0.091064 0.098389 0.000000
0.126953 0.098389 0.000000
0.168457 0.098389 0.000000
0.215912 0.098419 0.000000
0.269409 0.098389 0.000000
0.326691 0.098419 0.000000
0.386261 0.098358 0.000000
0.446564 0.098328 0.000000
0.505676 0.098389 0.000000
0.561798 0.098328 0.000000
0.614044 0.098358 0.000000
0.662750 0.098389 0.000000
0.707764 0.098328 0.000000
0.749725 0.098480 0.000000
0.788635 0.098389 0.000000
0.825073 0.098297 0.000000
0.858704 0.098328 0.000000
0.890228 0.098450 0.000000
0.920074 0.098389 0.000000
0.948059 0.098358 0.000000
0.974731 0.098297 0.000000
1.000000 0.098389 0.000000
1.000000 0.098389 0.000000
1.000000 0.098389 0.000000
1.000000 0.098389 0.000000
0.000000 0.128479 0.000000
0.000000 0.128479 0.000000
0.000000 0.128479 0.000000
0.000000 0.128479 0.000000
0.008850 0.128479 0.000000
0.032562 0.128479 0.000000
0.059662 0.128479 0.000000
0.091064 0.128479 0.000000
0.126953 0.128479 0.000000
0.168457 0.128479 0.000000
0.215912 0.128448 0.000000
0.269409 0.128448 0.000000
0.326691 0.128479 0.000000
0.386261 0.128448 0.000000
0.446564 0.128418 0.000000
0.505676 0.128510 0.000000
0.561798 0.128510 0.000000
0.614044 0.128479 0.000000
0.662750 0.128479 0.000000
0.707764 0.128571 0.000000
0.749725 0.128479 0.000000
0.788635 0.128418 0.000000
0.825073 0.128510 0.000000
0.858704 0.128510 0.000000
0.890228 0.128448 0.000000
0.920074 0.128479 0.000000
0.948059 0.128448 0.000000
0.974731 0.128510 0.000000
1.000000 0.128418 0.000000
1.000000 0.128418 0.000000
1.000000 0.128418 0.000000
1.000000 0.128418 0.000000
0.000000 0.162598 0.000000
0.000000 0.162598 0.000000
0.000000 0.162598 0.000000
0.000000 0.162598 0.000000
0.008850 0.162598 0.000000
0.032562 0.162598 0.000000
0.059662 0.162598 0.000000
0.091064 0.162598 0.000000
0.126953 0.162598 0.000000
0.168457 0.162628 0.000000
0.215912 0.162628 0.000000
0.269409 0.162598 0.000000
0.326691 0.162628 0.000000
0.386261 0.162567 0.000000
0.446564 0.162567 0.000000
0.505676 0.162598 0.000000
0.561798 0.162537 0.000000
0.614044 0.162659 0.000000
0.662750 0.162628 0.000000
0.707764 0.162598 0.000000
0.749725 0.162537 0.000000
0.788635 0.162506 0.000000
0.825073 0.162567 0.000000
0.858704 0.162689 0.000000
0.890228 0.162567 0.000000
0.920074 0.162628 0.000000
0.948059 0.162476 0.000000
0.974731 0.162537 0.000000
1.000000 0.162598 0.000000
1.000000 0.162598 0.000000
1.000000 0.162598 0.000000
1.000000 0.162598 0.000000
0.000000 0.201416 0.000000
0.000000 0.201416 0.000000
0.000000 0.201416 0.000000
0.000000 0.201416 0.000000
0.008850 0.201416 0.000000
0.032562 0.201416 0.000000
0.059662 0.201416 0.000000
0.091064 0.201416 0.000000
0.126953 0.201416 0.000000
0.168457 0.201416 0.000000
0.215912 0.201416 0.000000
0.269409 0.201385 0.000000
0.326691 0.201385 0.000000
0.386261 0.201416 0.000000
0.446564 0.201355 0.000000
0.505676 0.201355 0.000000
0.561798 0.201355 0.000000
0.614044 0.201477 0.000000
0.662750 0.201447 0.000000
0.707764 0.201477 0.000000
0.749725 0.201355 0.000000
0.788635 0.201385 0.000000
0.825073 0.201447 0.000000
0.858704 0.201477 0.000000
0.890228 0.201477 0.000000
0.920074 0.201477 0.000000
0.948059 0.201355 0.000000
0.974731 0.201324 0.000000
1.000000 0.201416 0.000000
1.000000 0.201416 0.000000
1.000000 0.201416 0.000000
1.000000 0.201416 0.000000
0.000000 0.245544 0.000000
0.000000 0.245544 0.000000
0.000000 0.245544 0.000000
0.000000 0.245544 0.000000
0.008881 0.245544 0.000000
0.032562 0.245544 0.000000
0.059662 0.245544 0.000000
0.091064 0.245544 0.000000
0.126984 0.245544 0.000000
0.168457 0.245544 0.000000
0.215942 0.245544 0.000000
0.269409 0.245544 0.000000
0.326691 0.245575 0.000000
0.386261 0.245575 0.000000
0.446564 0.245514 0.000000
0.505676 0.245544 0.000000
0.561798 0.245514 0.000000
0.614044 0.245544 0.000000
0.662750 0.245605 0.000000
0.707764 0.245544 0.000000
0.749725 0.245453 0.000000
0.788635 0.245483 0.000000
0.825073 0.245544 0.000000
0.858704 0.245483 0.000000
0.890228 0.245605 0.000000
0.920074 0.245514 0.000000
0.948059 0.245575 0.000000
0.974731 0.245575 0.000000
1.000000 0.245605 0.000000
1.000000 0.245605 0.000000
1.000000 0.245605 0.000000
1.000000 0.245605 0.000000
0.000000 0.293823 0.000000
0.000000 0.293823 0.000000
0.000000 0.293823 0.000000
0.000000 0.293823 0.000000
0.008820 0.293823 0.000000
0.032562 0.293823 0.000000
0.059692 0.293823 0.000000
0.091034 0.293823 0.000000
0.126984 0.293823 0.000000
0.168427 0.293823 0.000000
0.215912 0.293823 0.000000
0.269440 0.293823 0.000000
0.326691 0.293823 0.000000
0.386261 0.293854 0.000000
0.446564 0.293823 0.000000
0.505676 0.293823 0.000000
0.561798 0.293793 0.000000
0.614044 0.293823 0.000000
0.662750 0.293823 0.000000
0.707764 0.293762 0.000000
0.749725 0.293762 0.000000
0.788635 0.293823 0.000000
0.825073 0.293884 0.000000
0.858704 0.293915 0.000000
0.890228 0.293854 0.000000
0.920074 0.293823 0.000000
0.948059 0.293732 0.000000
0.974731 0.293884 0.000000
1.000000 0.293945 0.000000
1.000000 0.293945 0.000000
1.000000 0.293945 0.000000
1.000000 0.293945 0.000000
0.000000 0.345093 0.000000
0.000000 0.345093 0.000000
0.000000 0.345093 0.000000
0.000000 0.345093 0.000000
0.008850 0.345093 0.000000
0.032532 0.345093 0.000000
0.059662 0.345093 0.000000
0.091064 0.345093 0.000000
0.126953 0.345093 0.000000
0.168427 0.345093 0.000000
0.215942 0.345093 0.000000
0.269440 0.345093 0.000000
0.326721 0.345093 0.000000
0.386261 0.345062 0.000000
0.446564 0.345062 0.000000
0.505676 0.345062 0.000000
0.561798 0.345093 0.000000
0.614044 0.345093 0.000000
0.662750 0.345123 0.000000
0.707764 0.345062 0.000000
0.749725 0.345032 0.000000
0.788635 0.345032 0.000000
0.825073 0.345062 0.000000
0.858704 0.345062 0.000000
0.890228 0.345123 0.000000
0.920074 0.345032 0.000000
0.948059 0.345093 0.000000
0.974731 0.345062 0.000000
1.000000 0.345215 0.000000
1.000000 0.345215 0.000000
1.000000 0.345215 0.000000
1.000000 0.345215 0.000000
0.000000 0.397797 0.000000
0.000000 0.397797 0.000000
0.000000 0.397797 0.000000
0.000000 0.397797 0.000000
0.008850 0.397797 0.000000
0.032532 0.397797 0.000000
0.059631 0.397797 0.000000
0.091095 0.397797 0.000000
0.126923 0.397797 0.000000
0.168488 0.397797 0.000000
0.215881 0.397797 0.000000
0.269409 0.397797 0.000000
0.326721 0.397797 0.000000
0.386230 0.397797 0.000000
0.446564 0.397827 0.000000
0.505676 0.397766 0.000000
0.561798 0.397766 0.000000
0.614044 0.397858 0.000000
0.662750 0.397888 0.000000
0.707764 0.397766 0.000000
0.749725 0.397736 0.000000
0.788635 0.397797 0.000000
0.825073 0.397827 0.000000
0.858704 0.397705 0.000000
0.890228 0.397736 0.000000
0.920074 0.397827 0.000000
0.948059 0.397888 0.000000
0.974731 0.397888 0.000000
1.000000 0.397705 0.000000
1.000000 0.397705 0.000000
1.000000 0.397705 0.000000
1.000000 0.397705 0.000000
0.000000 0.450714 0.000000
0.000000 0.450714 0.000000
0.000000 0.450714 0.000000
0.000000 0.450714 0.000000
0.008789 0.450714 0.000000
0.032562 0.450714 0.000000
0.059631 0.450714 0.000000
0.091125 0.450714 0.000000
0.126984 0.450714 0.000000
0.168457 0.450714 0.000000
0.215881 0.450714 0.000000
0.269379 0.450714 0.000000
0.326691 0.450714 0.000000
0.386230 0.450714 0.000000
0.446533 0.450714 0.000000
0.505676 0.450745 0.000000
0.561798 0.450714 0.000000
0.614044 0.450775 0.000000
0.662750 0.450775 0.000000
0.707764 0.450653 0.000000
0.749725 0.450653 0.000000
0.788635 0.450745 0.000000
0.825073 0.450806 0.000000
0.858704 0.450745 0.000000
0.890228 0.450775 0.000000
0.920074 0.450592 0.000000
0.948059 0.450653 0.000000
0.974731 0.450714 0.000000
1.000000 0.450684 0.000000
1.000000 0.450684 0.000000
1.000000 0.450684 0.000000
1.000000 0.450684 0.000000
0.000000 0.502258 0.000000
0.000000 0.502258 0.000000
0.000000 0.502258 0.000000
0.000000 0.502258 0.000000
0.008820 0.502258 0.000000
0.032623 0.502258 0.000000
0.059723 0.502258 0.000000
0.091095 0.502258 0.000000
0.126923 0.502258 0.000000
0.168488 0.502258 0.000000
0.215942 0.502258 0.000000
0.269409 0.502258 0.000000
0.326660 0.502258 0.000000
0.386261 0.502258 0.000000
0.446594 0.502258 0.000000
0.505676 0.502228 0.000000
0.561798 0.502258 0.000000
0.614044 0.502197 0.000000
0.662750 0.502228 0.000000
0.707764 0.502319 0.000000
0.749725 0.502258 0.000000
0.788635 0.502319 0.000000
0.825073 0.502167 0.000000
0.858704 0.502319 0.000000
0.890228 0.502289 0.000000
0.920074 0.502258 0.000000
0.948059 0.502258 0.000000
0.974731 0.502350 0.000000
1.000000 0.502197 0.000000
1.000000 0.502197 0.000000
1.000000 0.502197 0.000000
1.000000 0.502197 0.000000
0.000000 0.550873 0.000000
0.000000 0.550873 0.000000
0.000000 0.550873 0.000000
0.000000 0.550873 0.000000
0.008881 0.550873 0.000000
0.032532 0.550873 0.000000
0.059723 0.550873 0.000000
0.091064 0.550873 0.000000
0.126953 0.550873 0.000000
0.168518 0.550873 0.000000
0.215851 0.550873 0.000000
0.269379 0.550873 0.000000
0.326691 0.550873 0.000000
0.386261 0.550873 0.000000
0.446503 0.550873 0.000000
0.505676 0.550873 0.000000
0.561798 0.550812 0.000000
0.614044 0.550934 0.000000
0.662750 0.550934 0.000000
0.707764 0.550873 0.000000
0.749725 0.550934 0.000000
0.788635 0.550842 0.000000
0.825073 0.550934 0.000000
0.858704 0.550934 0.000000
0.890228 0.550964 0.000000
0.920074 0.550781 0.000000
0.948059 0.550873 0.000000
0.974731 0.550903 0.000000
1.000000 0.550781 0.000000
1.000000 0.550781 0.000000
1.000000 0.550781 0.000000
1.000000 0.550781 0.000000
0.000000 0.596283 0.000000
0.000000 0.596283 0.000000
0.000000 0.596283 0.000000
0.000000 0.596283 0.000000
0.008881 0.596283 0.000000
0.032623 0.596283 0.000000
0.059692 0.596283 0.000000
0.091125 0.596283 0.000000
0.126953 0.596283 0.000000
0.168427 0.596283 0.000000
0.215881 0.596283 0.000000
0.269470 0.596283 0.000000
0.326660 0.596283 0.000000
0.386230 0.596283 0.000000
0.446625 0.596283 0.000000
0.505737 0.596283 0.000000
0.561768 0.596283 0.000000
0.614044 0.596344 0.000000
0.662750 0.596252 0.000000
0.707764 0.596313 0.000000
0.749725 0.596344 0.000000
0.788635 0.596283 0.000000
0.825073 0.596252 0.000000
0.858704 0.596222 0.000000
0.890228 0.596375 0.000000
0.920074 0.596375 0.000000
0.948059 0.596252 0.000000
0.974731 0.596344 0.000000
1.000000 0.596191 0.000000
1.000000 0.596191 0.000000
1.000000 0.596191 0.000000
1.000000 0.596191 0.000000
0.000000 0.638672 0.000000
0.000000 0.638672 0.000000
0.000000 0.638672 0.000000
0.000000 0.638672 0.000000
0.008881 0.638672 0.000000
0.032593 0.638672 0.000000
0.059723 0.638672 0.000000
0.091064 0.638672 0.000000
0.126923 0.638672 0.000000
0.168396 0.638672 0.000000
0.215942 0.638672 0.000000
0.269440 0.638672 0.000000
0.326660 0.638672 0.000000
0.386230 0.638672 0.000000
0.446564 0.638672 0.000000
0.505676 0.638672 0.000000
0.561798 0.638672 0.000000
0.614044 0.638672 0.000000
0.662750 0.638641 0.000000
0.707764 0.638641 0.000000
0.749725 0.638611 0.000000
0.788635 0.638641 0.000000
0.825073 0.638733 0.000000
0.858704 0.638580 0.000000
0.890228 0.638763 0.000000
0.920074 0.638611 0.000000
0.948059 0.638611 0.000000
0.974731 0.638702 0.000000
1.000000 0.638672 0.000000
1.000000 0.638672 0.000000
1.000000 0.638672 0.000000
1.000000 0.638672 0.000000
0.000000 0.678040 0.000000
0.000000 0.678040 0.000000
0.000000 0.678040 0.000000
0.000000 0.678040 0.000000
0.008759 0.678040 0.000000
0.032623 0.678040 0.000000
0.059601 0.678040 0.000000
0.091034 0.678040 0.000000
0.126953 0.678040 0.000000
0.168518 0.678040 0.000000
0.215851 0.678040 0.000000
0.269318 0.678040 0.000000
0.326782 0.678040 0.000000
0.386200 0.678040 0.000000
0.446625 0.678040 0.000000
0.505707 0.678040 0.000000
0.561829 0.678040 0.000000
0.613983 0.678040 0.000000
0.662811 0.678040 0.000000
0.707764 0.678040 0.000000
0.749725 0.677979 0.000000
0.788635 0.678131 0.000000
0.825073 0.678040 0.000000
0.858704 0.677979 0.000000
0.890228 0.678101 0.000000
0.920074 0.678162 0.000000
0.948059 0.677948 0.000000
0.974731 0.677979 0.000000
1.000000 0.677979 0.000000
1.000000 0.677979 0.000000
1.000000 0.677979 0.000000
1.000000 0.677979 0.000000
0.000000 0.714630 0.000000
0.000000 0.714630 0.000000
0.000000 0.714630 0.000000
0.000000 0.714630 0.000000
0.008911 0.714630 0.000000
0.032623 0.714630 0.000000
0.059662 0.714630 0.000000
0.091064 0.714630 0.000000
0.127014 0.714630 0.000000
0.168549 0.714630 0.000000
0.216003 0.714630 0.000000
0.269379 0.714630 0.000000
0.326599 0.714630 0.000000
0.386292 0.714630 0.000000
0.446655 0.714630 0.000000
0.505615 0.714630 0.000000
0.561798 0.714630 0.000000
0.613953 0.714630 0.000000
0.662811 0.714630 0.000000
0.707825 0.714630 0.000000
0.749725 0.714569 0.000000
0.788635 0.714691 0.000000
0.825073 0.714691 0.000000
0.858704 0.714691 0.000000
0.890228 0.714630 0.000000
0.920074 0.714539 0.000000
0.948059 0.714508 0.000000
0.974731 0.714630 0.000000
1.000000 0.714600 0.000000
1.000000 0.714600 0.000000
1.000000 0.714600 0.000000
1.000000 0.714600 0.000000
0.000000 0.748871 0.000000
0.000000 0.748871 0.000000
0.000000 0.748871 0.000000
0.000000 0.748871 0.000000
0.008789 0.748871 0.000000
0.032532 0.748871 0.000000
0.059601 0.748871 0.000000
0.091064 0.748871 0.000000
0.126892 0.748871 0.000000
0.168396 0.748871 0.000000
0.215912 0.748871 0.000000
0.269501 0.748871 0.000000
0.326721 0.748871 0.000000
0.386322 0.748871 0.000000
0.446655 0.748871 0.000000
0.505707 0.748871 0.000000
0.561829 0.748871 0.000000
0.614136 0.748871 0.000000
0.662750 0.748871 0.000000
0.707733 0.748871 0.000000
0.749725 0.748810 0.000000
0.788635 0.748779 0.000000
0.825073 0.748932 0.000000
0.858704 0.748840 0.000000
0.890228 0.748962 0.000000
0.920074 0.748901 0.000000
0.948059 0.748779 0.000000
0.974731 0.748901 0.000000
1.000000 0.748779 0.000000
1.000000 0.748779 0.000000
1.000000 0.748779 0.000000
1.000000 0.748779 0.000000
0.000000 0.780823 0.000000
0.000000 0.780823 0.000000
0.000000 0.780823 0.000000
0.000000 0.780823 0.000000
0.008759 0.780823 0.000000
0.032593 0.780823 0.000000
0.059662 0.780823 0.000000
0.091125 0.780823 0.000000
0.126953 0.780823 0.000000
0.168518 0.780823 0.000000
0.215973 0.780823 0.000000
0.269348 0.780823 0.000000
0.326752 0.780823 0.000000
0.386230 0.780823 0.000000
0.446655 0.780823 0.000000
0.505737 0.780823 0.000000
0.561798 0.780823 0.000000
0.614014 0.780823 0.000000
0.662811 0.780823 0.000000
0.707825 0.780823 0.000000
0.749756 0.780823 0.000000
0.788635 0.780731 0.000000
0.825073 0.780762 0.000000
0.858704 0.780914 0.000000
0.890228 0.780914 0.000000
0.920074 0.780792 0.000000
0.948059 0.780701 0.000000
0.974731 0.780792 0.000000
1.000000 0.780762 0.000000
1.000000 0.780762 0.000000
1.000000 0.780762 0.000000
1.000000 0.780762 0.000000
0.000000 0.810455 0.000000
0.000000 0.810455 0.000000
0.000000 0.810455 0.000000
0.000000 0.810455 0.000000
0.008911 0.810455 0.000000
0.032654 0.810455 0.000000
0.059753 0.810455 0.000000
0.091003 0.810455 0.000000
0.127014 0.810455 0.000000
0.168396 0.810455 0.000000
0.215881 0.810455 0.000000
0.269501 0.810455 0.000000
0.326660 0.810455 0.000000
0.386230 0.810455 0.000000
0.446594 0.810455 0.000000
0.505737 0.810455 0.000000
0.561737 0.810455 0.000000
0.613983 0.810455 0.000000
0.662842 0.810455 0.000000
0.707764 0.810455 0.000000
0.749725 0.810455 0.000000
0.788696 0.810455 0.000000
0.825073 0.810364 0.000000
0.858704 0.810486 0.000000
0.890228 0.810455 0.000000
0.920074 0.810455 0.000000
0.948059 0.810333 0.000000
0.974731 0.810516 0.000000
1.000000 0.810547 0.000000
1.000000 0.810547 0.000000
1.000000 0.810547 0.000000
1.000000 0.810547 0.000000
0.000000 0.838318 0.000000
0.000000 0.838318 0.000000
0.000000 0.838318 0.000000
0.000000 0.838318 0.000000
0.008789 0.838318 0.000000
0.032532 0.838318 0.000000
0.059753 0.838318 0.000000
0.091064 0.838318 0.000000
0.126892 0.838318 0.000000
0.168427 0.838318 0.000000
0.215912 0.838318 0.000000
0.269348 0.838318 0.000000
0.326660 0.838318 0.000000
0.386200 0.838318 0.000000
0.446594 0.838318 0.000000
0.505737 0.838318 0.000000
0.561798 0.838318 0.000000
0.614014 0.838318 0.000000
0.662720 0.838318 0.000000
0.707733 0.838318 0.000000
0.749695 0.838318 0.000000
0.788574 0.838318 0.000000
0.825012 0.838318 0.000000
0.858704 0.838379 0.000000
0.890228 0.838287 0.000000
0.920074 0.838318 0.000000
0.948059 0.838348 0.000000
0.974731 0.838379 0.000000
1.000000 0.838379 0.000000
1.000000 0.838379 0.000000
1.000000 0.838379 0.000000
1.000000 0.838379 0.000000
0.000000 0.864532 0.000000
0.000000 0.864532 0.000000
0.000000 0.864532 0.000000
0.000000 0.864532 0.000000
0.008850 0.864532 0.000000
0.032501 0.864532 0.000000
0.059723 0.864532 0.000000
0.090973 0.864532 0.000000
0.126862 0.864532 0.000000
0.168427 0.864532 0.000000
0.215912 0.864532 0.000000
0.269318 0.864532 0.000000
0.326721 0.864532 0.000000
0.386261 0.864532 0.000000
0.446625 0.864532 0.000000
0.505707 0.864532 0.000000
0.561859 0.864532 0.000000
0.613983 0.864532 0.000000
0.662750 0.864532 0.000000
0.707703 0.864532 0.000000
0.749725 0.864532 0.000000
0.788544 0.864532 0.000000
0.825073 0.864532 0.000000
0.858612 0.864532 0.000000
0.890228 0.864594 0.000000
0.920074 0.864594 0.000000
0.948059 0.864502 0.000000
0.974731 0.864563 0.000000
1.000000 0.864502 0.000000
1.000000 0.864502 0.000000
1.000000 0.864502 0.000000
1.000000 0.864502 0.000000
0.000000 0.889343 0.000000
0.000000 0.889343 0.000000
0.000000 0.889343 0.000000
0.000000 0.889343 0.000000
0.008911 0.889343 0.000000
0.032562 0.889343 0.000000
0.059723 0.889343 0.000000
0.090973 0.889343 0.000000
0.127014 0.889343 0.000000
0.168488 0.889343 0.000000
0.215820 0.889343 0.000000
0.269440 0.889343 0.000000
0.326782 0.889343 0.000000
0.386261 0.889343 0.000000
0.446625 0.889343 0.000000
0.505676 0.889343 0.000000
0.561707 0.889343 0.000000
0.614044 0.889343 0.000000
0.662659 0.889343 0.000000
0.707825 0.889343 0.000000
0.749725 0.889343 0.000000
0.788605 0.889343 0.000000
0.825073 0.889343 0.000000
0.858734 0.889343 0.000000
0.890228 0.889374 0.000000
0.920074 0.889313 0.000000
0.948059 0.889282 0.000000
0.974731 0.889313 0.000000
1.000000 0.889404 0.000000
1.000000 0.889404 0.000000
1.000000 0.889404 0.000000
1.000000 0.889404 0.000000
0.000000 0.912781 0.000000
0.000000 0.912781 0.000000
0.000000 0.912781 0.000000
0.000000 0.912781 0.000000
0.008911 0.912781 0.000000
0.032532 0.912781 0.000000
0.059723 0.912781 0.000000
0.091156 0.912781 0.000000
0.127014 0.912781 0.000000
0.168457 0.912781 0.000000
0.215942 0.912781 0.000000
0.269409 0.912781 0.000000
0.326691 0.912781 0.000000
0.386200 0.912781 0.000000
0.446594 0.912781 0.000000
0.505646 0.912781 0.000000
0.561798 0.912781 0.000000
