3d-lut/luts/Clouseau 54.CUBE
#Created by: Adobe Photoshop Export Color Lookup Plugin
#Copyright: (C) Copyright 2017 RocketStock
TITLE "Untitled"
#LUT size
LUT_3D_SIZE 8
#data domain
#LUT data points
DOMAIN_MIN 0.000000 0.000000 0.000000
DOMAIN_MAX 0.903226 0.903226 0.903226
0.000000 0.007507 0.005585
0.052155 0.008362 0.006561
0.151215 0.010254 0.008667
0.331543 0.014557 0.013397
0.568390 0.021210 0.020721
0.768005 0.027588 0.027527
0.896393 0.031555 0.031586
0.977631 0.033936 0.033936
0.000000 0.063293 0.007690
0.056824 0.064453 0.009033
0.156525 0.066711 0.011688
0.336761 0.071411 0.017120
0.571991 0.078125 0.024719
0.769592 0.084045 0.031158
0.897156 0.087830 0.035065
0.977936 0.090179 0.037415
0.008392 0.159271 0.012756
0.067200 0.160706 0.014557
0.166962 0.163269 0.017731
0.345856 0.168060 0.023712
0.577240 0.174194 0.030975
0.771973 0.179535 0.036957
0.898285 0.183105 0.040802
0.978333 0.185333 0.043213
0.030121 0.333771 0.024078
0.088043 0.335114 0.026062
0.185455 0.337341 0.029266
0.359100 0.341187 0.034515
0.584686 0.346222 0.041229
0.775787 0.351013 0.047424
0.900177 0.354340 0.051666
0.979034 0.356445 0.054413
0.052612 0.561523 0.037781
0.108490 0.562378 0.039490
0.203033 0.563934 0.042450
0.372681 0.566772 0.047913
0.593536 0.570709 0.055511
0.780914 0.574738 0.063477
0.902924 0.577759 0.069397
0.980133 0.579620 0.073120
0.069183 0.753723 0.049927
0.124237 0.754242 0.051910
0.217468 0.755249 0.055389
0.385223 0.757141 0.062225
0.602600 0.759949 0.072357
0.786011 0.762543 0.081696
0.905396 0.764069 0.087280
0.980988 0.764893 0.090302
0.080383 0.877502 0.059052
0.135193 0.877838 0.061493
0.228058 0.878448 0.065826
0.394501 0.879578 0.073883
0.608490 0.881042 0.084137
0.788696 0.882111 0.091919
0.906525 0.882660 0.095947
0.981354 0.882904 0.098083
0.087921 0.955444 0.065643
0.142517 0.955566 0.068329
0.234924 0.955811 0.072998
0.399994 0.956268 0.081085
0.611420 0.956726 0.090363
0.789825 0.957062 0.096588
0.906952 0.957214 0.099976
0.981476 0.957306 0.101746
0.000000 0.007782 0.062744
0.052887 0.008728 0.063751
0.152191 0.010712 0.065887
0.332489 0.015137 0.070557
0.569122 0.021881 0.077637
0.768311 0.028229 0.084015
0.896606 0.032227 0.087891
0.977722 0.034607 0.090149
0.000000 0.063721 0.064911
0.057861 0.064941 0.066315
0.157623 0.067261 0.068848
0.337738 0.072021 0.074097
0.572632 0.078735 0.081360
0.769867 0.084686 0.087524
0.897278 0.088470 0.091187
0.977966 0.090790 0.093414
0.009644 0.159821 0.069885
0.068481 0.161255 0.071655
0.168213 0.163849 0.074799
0.346832 0.168640 0.080444
0.577789 0.174774 0.087311
0.772247 0.180115 0.092987
0.898407 0.183716 0.096710
0.978363 0.185974 0.099030
0.031464 0.334259 0.080780
0.089233 0.335602 0.082672
0.186432 0.337799 0.085663
0.359802 0.341675 0.090698
0.585144 0.346741 0.097076
0.776031 0.351562 0.103058
0.900299 0.354889 0.107117
0.979126 0.357025 0.109772
0.053589 0.561829 0.093811
0.109406 0.562775 0.095490
0.203796 0.564270 0.098297
0.373352 0.567139 0.103516
0.593964 0.571106 0.110809
0.781189 0.575226 0.118652
0.903076 0.578247 0.124329
0.980164 0.580109 0.127838
0.070129 0.753937 0.105469
0.125122 0.754456 0.107361
0.218323 0.755463 0.110748
0.385986 0.757385 0.117371
0.603149 0.760254 0.127197
0.786316 0.762817 0.136017
0.905518 0.764282 0.141235
0.981049 0.765106 0.144043
0.081360 0.877625 0.114319
0.136169 0.877960 0.116669
0.228973 0.878601 0.120850
0.395325 0.879730 0.128632
0.608948 0.881165 0.138336
0.788910 0.882202 0.145538
0.906586 0.882721 0.149261
0.981354 0.882996 0.151245
0.089020 0.955475 0.120728
0.143646 0.955597 0.123352
0.235901 0.955872 0.127747
0.400726 0.956299 0.135437
0.611755 0.956757 0.144043
0.789978 0.957092 0.149933
0.906982 0.957214 0.152985
0.981476 0.957336 0.154663
0.000000 0.008331 0.160339
0.054291 0.009399 0.161377
0.153778 0.011566 0.163422
0.334106 0.016144 0.167908
0.570251 0.023041 0.174500
0.768799 0.029358 0.180328
0.896820 0.033325 0.183807
0.977814 0.035736 0.185822
0.001007 0.064423 0.162476
0.059631 0.065735 0.163849
0.159485 0.068176 0.166321
0.339478 0.073090 0.171265
0.573700 0.079834 0.177917
0.770355 0.085724 0.183411
0.897522 0.089539 0.186798
0.978058 0.091858 0.188873
0.011871 0.160706 0.167328
0.070679 0.162231 0.169006
0.170288 0.164825 0.171844
0.348419 0.169678 0.177063
0.578583 0.175720 0.183258
0.772644 0.181091 0.188477
0.898621 0.184753 0.191895
0.978424 0.187012 0.194031
0.033630 0.335083 0.177368
0.091187 0.336426 0.179077
0.187988 0.338593 0.181763
0.360962 0.342468 0.186340
0.585876 0.347595 0.192200
0.776398 0.352509 0.197754
0.900543 0.355896 0.201569
0.979187 0.358032 0.204041
0.055145 0.562378 0.189148
0.110840 0.563324 0.190735
0.205078 0.564850 0.193329
0.374420 0.567749 0.198212
0.594727 0.571777 0.205048
0.781677 0.576050 0.212402
0.903320 0.579102 0.217682
0.980286 0.580963 0.220947
0.071655 0.754242 0.200012
0.126556 0.754822 0.201782
0.219696 0.755829 0.204956
0.387299 0.757843 0.211212
0.604004 0.760712 0.220337
0.786713 0.763245 0.228302
0.905731 0.764679 0.232910
0.981110 0.765442 0.235352
0.083069 0.877838 0.208344
0.137909 0.878204 0.210571
0.230591 0.878815 0.214478
0.396606 0.879974 0.221649
0.609650 0.881348 0.230347
0.789154 0.882355 0.236633
0.906708 0.882843 0.239899
0.981384 0.883087 0.241638
0.090851 0.955566 0.214386
0.145386 0.955719 0.216766
0.237488 0.955963 0.220856
0.401886 0.956390 0.227783
0.612335 0.956818 0.235382
0.790161 0.957123 0.240448
0.907043 0.957275 0.243195
0.981506 0.957367 0.244629
0.000000 0.009521 0.337891
0.057098 0.010742 0.338898
0.156830 0.013123 0.340790
0.337036 0.018036 0.344788
0.572174 0.025085 0.350281
0.769653 0.031311 0.354950
0.897186 0.035278 0.357758
0.977936 0.037720 0.359467
0.004303 0.065857 0.339966
0.063080 0.067291 0.341187
0.162933 0.069916 0.343414
0.342468 0.074982 0.347626
0.575470 0.081757 0.353058
0.771088 0.087555 0.357452
0.897858 0.091431 0.360291
0.978149 0.093781 0.361938
0.015839 0.162292 0.344269
0.074585 0.163879 0.345673
0.173920 0.166626 0.348114
0.351105 0.171448 0.352356
0.580017 0.177429 0.357300
0.773376 0.182892 0.361633
0.898987 0.186584 0.364502
0.978607 0.188904 0.366272
0.037354 0.336517 0.352631
0.094452 0.337860 0.353973
0.190704 0.339996 0.356110
0.363037 0.343903 0.359894
0.587128 0.349091 0.364777
0.777130 0.354126 0.369446
0.900879 0.357605 0.372742
0.979340 0.359894 0.374878
0.057861 0.563385 0.362213
0.113403 0.564301 0.363495
0.207397 0.565887 0.365723
0.376373 0.568848 0.369843
0.596161 0.573029 0.375824
0.782501 0.577545 0.382202
0.903748 0.580627 0.386566
0.980408 0.582489 0.389221
0.074371 0.754883 0.371399
0.129272 0.755463 0.372925
0.222321 0.756531 0.375702
0.389618 0.758636 0.381165
0.605530 0.761566 0.388733
0.787445 0.763977 0.395050
0.906036 0.765289 0.398590
0.981171 0.765961 0.400421
0.086273 0.878235 0.378693
0.140930 0.878601 0.380585
0.233429 0.879242 0.383881
0.398895 0.880402 0.389801
0.610840 0.881714 0.396637
0.789642 0.882629 0.401398
0.906860 0.883057 0.403900
0.981445 0.883270 0.405243
0.094147 0.955750 0.383820
0.148468 0.955872 0.385834
0.240234 0.956116 0.389130
0.403870 0.956543 0.394684
0.613220 0.956909 0.400421
0.790497 0.957184 0.404358
0.907166 0.957336 0.406403
0.981537 0.957397 0.407471
0.002472 0.011261 0.575073
0.061188 0.012726 0.575867
0.161102 0.015350 0.577332
0.340881 0.020599 0.580109
0.574524 0.027679 0.583862
0.770721 0.033813 0.586823
0.897675 0.037811 0.588715
0.978088 0.040283 0.589844
0.008972 0.067902 0.576691
0.067780 0.069489 0.577606
0.167511 0.072266 0.579193
0.346252 0.077484 0.582062
0.577454 0.084137 0.585602
0.772095 0.090027 0.588501
0.898346 0.093903 0.590393
0.978333 0.096344 0.591553
0.021210 0.164551 0.579773
0.079681 0.166107 0.580750
0.178436 0.168884 0.582428
0.354309 0.173645 0.585144
0.581818 0.179626 0.588409
0.774261 0.185211 0.591339
0.899414 0.188995 0.593292
0.978760 0.191376 0.594513
0.041626 0.338348 0.585327
0.098328 0.339630 0.586182
0.194031 0.341827 0.587646
0.365601 0.345764 0.590118
0.588745 0.351105 0.593475
0.778046 0.356323 0.596741
0.901398 0.359985 0.599030
0.979523 0.362457 0.600586
0.061279 0.564667 0.591736
0.116638 0.565613 0.592621
0.210388 0.567261 0.594116
0.378906 0.570282 0.597015
0.598053 0.574799 0.601227
0.783600 0.579498 0.605652
0.904266 0.582550 0.608582
0.980621 0.584351 0.610260
0.077972 0.755707 0.598053
0.132812 0.756348 0.599152
0.225769 0.757477 0.601166
0.392609 0.759705 0.604980
0.607391 0.762573 0.609955
0.788269 0.764832 0.613861
0.906311 0.765991 0.615936
0.981262 0.766602 0.616974
0.090424 0.878723 0.603302
0.144958 0.879150 0.604584
0.237061 0.879761 0.606812
0.401611 0.880920 0.610626
0.612213 0.882111 0.614807
0.790131 0.882904 0.617615
0.907043 0.883301 0.619110
0.981506 0.883514 0.619873
0.098297 0.955963 0.606750
0.152405 0.956085 0.608093
0.243622 0.956329 0.610199
0.406219 0.956696 0.613617
0.614197 0.957062 0.616974
0.790833 0.957306 0.619354
0.907288 0.957397 0.620575
0.981628 0.957458 0.621185
0.006439 0.013062 0.780304
0.065308 0.014648 0.780762
0.165100 0.017487 0.781616
0.344299 0.022888 0.783173
0.576447 0.029938 0.785095
0.771606 0.036072 0.786713
0.898102 0.040100 0.787720
0.978271 0.042603 0.788361
0.013428 0.069855 0.781219
0.072205 0.071503 0.781738
0.171722 0.074463 0.782623
0.349487 0.079742 0.784210
0.579163 0.086273 0.786072
0.772919 0.092194 0.787628
0.898773 0.096191 0.788696
0.978546 0.098663 0.789337
0.025940 0.166534 0.782959
0.084198 0.168182 0.783478
0.182251 0.170929 0.784393
0.356873 0.175598 0.785828
0.583374 0.181671 0.787598
0.775085 0.187347 0.789215
0.899841 0.191223 0.790253
0.978912 0.193695 0.790985
0.045227 0.339966 0.785919
0.101562 0.341278 0.786346
0.196899 0.343475 0.787140
0.367828 0.347504 0.788513
0.590210 0.352966 0.790375
0.778900 0.358337 0.792236
0.901825 0.362274 0.793579
0.979706 0.364929 0.794525
0.064331 0.565857 0.789429
0.119568 0.566833 0.789886
0.213104 0.568512 0.790741
0.381256 0.571686 0.792358
0.599823 0.576477 0.794861
0.784576 0.581238 0.797333
0.904724 0.584229 0.798889
0.980743 0.585938 0.799805
0.081360 0.756531 0.793030
0.136169 0.757172 0.793671
0.228973 0.758423 0.794830
0.395294 0.760651 0.796997
0.608948 0.763458 0.799622
0.788910 0.765533 0.801605
0.906586 0.766571 0.802643
0.981354 0.767059 0.803192
0.094177 0.879242 0.796021
0.148499 0.879608 0.796753
0.240265 0.880280 0.797943
0.403900 0.881348 0.799988
0.613220 0.882416 0.802063
0.790497 0.883118 0.803467
0.907166 0.883514 0.804230
0.981537 0.883698 0.804596
0.101898 0.956116 0.797913
0.155731 0.956268 0.798645
0.246490 0.956512 0.799774
0.408051 0.956818 0.801483
0.614960 0.957153 0.803192
0.791107 0.957367 0.804352
0.907410 0.957458 0.804962
0.981659 0.957550 0.805267
0.009247 0.014343 0.914551
0.068085 0.015991 0.914795
0.167816 0.018921 0.915192
0.346527 0.024445 0.916016
0.577637 0.031403 0.916992
0.772125 0.037506 0.917755
0.898346 0.041595 0.918304
0.978363 0.044159 0.918640
0.016418 0.071198 0.915039
0.075134 0.072906 0.915283
0.174408 0.075867 0.915710
0.351501 0.081146 0.916534
0.580261 0.087646 0.917419
0.773468 0.093628 0.918243
0.899017 0.097687 0.918762
0.978638 0.100250 0.919098
0.028992 0.167847 0.915924
0.086945 0.169495 0.916168
0.184601 0.172211 0.916595
0.358521 0.176880 0.917328
0.584351 0.182953 0.918213
0.775604 0.188721 0.919037
0.900085 0.192719 0.919586
0.979004 0.195221 0.919983
0.047455 0.341034 0.917358
0.103699 0.342346 0.917603
0.198700 0.344543 0.918030
0.369232 0.348602 0.918701
0.591156 0.354187 0.919647
0.779449 0.359711 0.920624
0.902161 0.363861 0.921356
0.979797 0.366577 0.921783
0.066345 0.566650 0.919159
0.121429 0.567627 0.919403
0.214844 0.569366 0.919891
0.382843 0.572632 0.920685
0.600952 0.577606 0.922028
0.785156 0.582336 0.923279
0.905029 0.585266 0.924042
0.980865 0.586914 0.924469
0.083679 0.757050 0.921051
0.138428 0.757751 0.921417
0.231110 0.759003 0.921997
0.397034 0.761292 0.923065
0.609894 0.764038 0.924377
0.789246 0.765930 0.925323
0.906738 0.766907 0.925842
0.981415 0.767365 0.926086
0.096588 0.879547 0.922607
0.150818 0.879944 0.922974
0.242249 0.880554 0.923553
0.405304 0.881622 0.924530
0.613831 0.882629 0.925537
0.790710 0.883270 0.926208
0.907227 0.883606 0.926605
0.981537 0.883789 0.926758
0.104218 0.956238 0.923523
0.157837 0.956360 0.923920
0.248230 0.956604 0.924438
0.409119 0.956879 0.925293
0.615387 0.957184 0.926086
0.791229 0.957397 0.926666
0.907440 0.957489 0.926910
0.981659 0.957581 0.927094
0.010956 0.015137 1.000000
0.069794 0.016815 1.000000
0.169464 0.019867 1.000000
0.347778 0.025360 1.000000
0.578278 0.032257 1.000000
0.772491 0.038422 1.000000
0.898499 0.042572 1.000000
0.978394 0.045135 1.000000
0.018341 0.072052 1.000000
0.076996 0.073761 1.000000
0.175995 0.076752 1.000000
0.352600 0.082001 1.000000
0.580841 0.088531 1.000000
0.773773 0.094513 1.000000
0.899170 0.098633 1.000000
0.978668 0.101166 1.000000
0.030762 0.168640 1.000000
0.088593 0.170288 1.000000
0.185974 0.173004 1.000000
0.359467 0.177643 1.000000
0.584930 0.183777 1.000000
0.775909 0.189606 1.000000
0.900238 0.193634 1.000000
0.979095 0.196198 1.000000
0.048767 0.341675 1.000000
0.104889 0.342987 1.000000
0.199799 0.345215 1.000000
0.370087 0.349304 1.000000
0.591736 0.354950 1.000000
0.779785 0.360596 1.000000
0.902344 0.364838 1.000000
0.979858 0.367584 1.000000
0.067566 0.567139 1.000000
0.122620 0.568146 1.000000
0.215912 0.569855 1.000000
0.383789 0.573212 1.000000
0.601654 0.578278 1.000000
0.785553 0.583038 1.000000
0.905212 0.585876 1.000000
0.980927 0.587463 1.000000
0.085083 0.757385 1.000000
0.139801 0.758118 1.000000
0.232452 0.759369 1.000000
0.398041 0.761627 1.000000
0.610413 0.764313 1.000000
0.789459 0.766144 1.000000
0.906830 0.767059 1.000000
0.981445 0.767548 1.000000
0.098053 0.879730 1.000000
0.152191 0.880127 1.000000
0.243439 0.880737 1.000000
0.406097 0.881775 1.000000
0.614136 0.882721 1.000000
0.790802 0.883331 1.000000
0.907288 0.883667 1.000000
0.981628 0.883850 1.000000
0.105591 0.956299 1.000000
0.159088 0.956421 1.000000
0.249207 0.956665 1.000000
0.409698 0.956940 1.000000
0.615601 0.957214 1.000000
0.791321 0.957428 1.000000
0.907471 0.957550 1.000000
0.981659 0.957581 1.000000
