3d-lut/luts/Clouseau 54.CUBE
#Created by: Adobe Photoshop Export Color Lookup Plugin
#Copyright: (C) Copyright 2017 RocketStock
TITLE "Untitled"
#LUT size
LUT_3D_SIZE 32
#data domain
DOMAIN_MIN 0.0 0.0 0.0
DOMAIN_MAX 1.0 1.0 1.0
#LUT data points
0.000000 0.007507 0.005585
0.007141 0.007660 0.005768
0.020630 0.007843 0.006012
0.035492 0.008087 0.006256
0.052155 0.008362 0.006561
0.071411 0.008698 0.006958
0.093903 0.009125 0.007385
0.120270 0.009613 0.007935
0.151215 0.010254 0.008667
0.187561 0.011047 0.009521
0.229889 0.011993 0.010590
0.278259 0.013184 0.011902
0.331543 0.014557 0.013397
0.388550 0.016052 0.015076
0.448242 0.017700 0.016937
0.509033 0.019440 0.018799
0.568390 0.021210 0.020721
0.624542 0.022949 0.022644
0.677002 0.024628 0.024414
0.725006 0.026154 0.026062
0.768005 0.027588 0.027527
0.806091 0.028778 0.028748
0.839874 0.029816 0.029846
0.869781 0.030762 0.030762
0.896393 0.031555 0.031586
0.920044 0.032257 0.032318
0.941223 0.032898 0.032898
0.960297 0.033447 0.033447
0.977631 0.033936 0.033936
0.993805 0.034424 0.034424
1.000000 0.034851 0.034851
1.000000 0.035278 0.035217
0.000000 0.019867 0.005981
0.007965 0.020050 0.006226
0.021545 0.020264 0.006470
0.036377 0.020538 0.006714
0.053101 0.020813 0.007080
0.072357 0.021149 0.007446
0.094940 0.021606 0.007935
0.121307 0.022156 0.008545
0.152374 0.022797 0.009277
0.188660 0.023621 0.010162
0.231049 0.024597 0.011292
0.279419 0.025787 0.012665
0.332672 0.027191 0.014221
0.389679 0.028717 0.015930
0.449280 0.030426 0.017761
0.509979 0.032166 0.019684
0.569275 0.033905 0.021637
0.625244 0.035645 0.023499
0.677521 0.037292 0.025299
0.725494 0.038818 0.026917
0.768372 0.040192 0.028320
0.806396 0.041382 0.029602
0.840149 0.042419 0.030640
0.869995 0.043304 0.031555
0.896606 0.044098 0.032349
0.920166 0.044800 0.033051
0.941315 0.045410 0.033661
0.960358 0.045990 0.034241
0.977722 0.046478 0.034760
0.993835 0.046936 0.035156
1.000000 0.047394 0.035614
1.000000 0.047791 0.036011
0.000000 0.032898 0.006470
0.008911 0.033112 0.006683
0.022491 0.033356 0.006989
0.037354 0.033600 0.007263
0.054108 0.033905 0.007629
0.073425 0.034271 0.008026
0.096069 0.034760 0.008545
0.122467 0.035309 0.009186
0.153534 0.035980 0.009979
0.189880 0.036835 0.010925
0.232269 0.037872 0.012085
0.280640 0.039062 0.013458
0.333862 0.040466 0.015045
0.390808 0.042023 0.016815
0.450378 0.043701 0.018677
0.510956 0.045441 0.020599
0.570099 0.047211 0.022522
0.625977 0.048950 0.024445
0.678131 0.050598 0.026215
0.725952 0.052063 0.027832
0.768738 0.053406 0.029236
0.806732 0.054565 0.030396
0.840424 0.055603 0.031464
0.870239 0.056488 0.032379
0.896790 0.057251 0.033173
0.920349 0.057953 0.033875
0.941406 0.058594 0.034485
0.960449 0.059143 0.035034
0.977814 0.059631 0.035522
0.993866 0.060089 0.035980
1.000000 0.060516 0.036438
1.000000 0.060944 0.036804
0.000000 0.047180 0.007019
0.010040 0.047424 0.007263
0.023651 0.047668 0.007568
0.038544 0.047943 0.007874
0.055359 0.048309 0.008301
0.074738 0.048676 0.008728
0.097351 0.049164 0.009277
0.123810 0.049744 0.009979
0.154938 0.050446 0.010742
0.191254 0.051300 0.011749
0.233704 0.052368 0.012970
0.282043 0.053619 0.014343
0.335205 0.055023 0.015991
0.392120 0.056610 0.017761
0.451569 0.058289 0.019684
0.512085 0.059998 0.021637
0.571014 0.061737 0.023560
0.626740 0.063446 0.025452
0.678772 0.065063 0.027191
0.726501 0.066559 0.028748
0.769135 0.067841 0.030151
0.807037 0.068970 0.031311
0.840668 0.070007 0.032349
0.870453 0.070892 0.033264
0.896942 0.071655 0.034058
0.920471 0.072388 0.034790
0.941528 0.072968 0.035370
0.960541 0.073517 0.035919
0.977875 0.074005 0.036438
0.993896 0.074463 0.036865
1.000000 0.074890 0.037292
1.000000 0.075287 0.037689
0.000000 0.063293 0.007690
0.011383 0.063538 0.007965
0.025024 0.063812 0.008301
0.040009 0.064117 0.008667
0.056824 0.064453 0.009033
0.076263 0.064880 0.009521
0.098907 0.065369 0.010101
0.125397 0.065979 0.010834
0.156525 0.066711 0.011688
0.192932 0.067596 0.012726
0.235291 0.068665 0.013977
0.283630 0.069977 0.015442
0.336761 0.071411 0.017120
0.393616 0.072968 0.018890
0.452881 0.074646 0.020813
0.513275 0.076385 0.022766
0.571991 0.078125 0.024719
0.627533 0.079773 0.026550
0.679474 0.081329 0.028259
0.727020 0.082794 0.029785
0.769592 0.084045 0.031158
0.807404 0.085175 0.032318
0.840942 0.086182 0.033356
0.870667 0.087067 0.034271
0.897156 0.087830 0.035065
0.920654 0.088531 0.035736
0.941650 0.089142 0.036377
0.960632 0.089661 0.036926
0.977936 0.090179 0.037415
0.993988 0.090607 0.037842
1.000000 0.091003 0.038269
1.000000 0.091431 0.038696
0.000061 0.081940 0.008545
0.013123 0.082184 0.008881
0.026794 0.082489 0.009216
0.041809 0.082794 0.009552
0.058655 0.083191 0.010010
0.078094 0.083618 0.010529
0.100800 0.084137 0.011169
0.127319 0.084778 0.011902
0.158478 0.085541 0.012817
0.194824 0.086426 0.013885
0.237244 0.087555 0.015167
0.285492 0.088806 0.016663
0.338531 0.090271 0.018372
0.395264 0.091827 0.020203
0.454437 0.093536 0.022125
0.514587 0.095215 0.024078
0.573151 0.096924 0.025970
0.628510 0.098572 0.027832
0.680206 0.100098 0.029480
0.727600 0.101440 0.030975
0.770111 0.102722 0.032318
0.807800 0.103821 0.033478
0.841309 0.104828 0.034485
0.870972 0.105713 0.035400
0.897369 0.106445 0.036163
0.920868 0.107147 0.036896
0.941833 0.107727 0.037506
0.960754 0.108276 0.038025
0.977997 0.108734 0.038513
0.994049 0.109192 0.038971
1.000000 0.109650 0.039398
1.000000 0.110046 0.039825
0.002228 0.103699 0.009644
0.015320 0.104004 0.010010
0.029022 0.104309 0.010345
0.044006 0.104645 0.010742
0.060944 0.105042 0.011200
0.080383 0.105469 0.011749
0.103119 0.106018 0.012421
0.129669 0.106689 0.013214
0.160797 0.107422 0.014160
0.197144 0.108398 0.015259
0.239563 0.109528 0.016602
0.287659 0.110809 0.018158
0.340637 0.112244 0.019867
0.397186 0.113800 0.021698
0.456177 0.115509 0.023682
0.516083 0.117157 0.025574
0.574371 0.118805 0.027435
0.629517 0.120392 0.029236
0.681000 0.121857 0.030884
0.728271 0.123199 0.032318
0.770630 0.124451 0.033630
0.808258 0.125549 0.034821
0.841675 0.126495 0.035828
0.871277 0.127380 0.036713
0.897644 0.128143 0.037506
0.921051 0.128784 0.038208
0.941986 0.129425 0.038818
0.960876 0.129944 0.039368
0.978088 0.130402 0.039856
0.994110 0.130859 0.040314
1.000000 0.131287 0.040741
1.000000 0.131683 0.041168
0.004974 0.129242 0.011047
0.018036 0.129547 0.011383
0.031830 0.129883 0.011780
0.046844 0.130219 0.012207
0.063751 0.130646 0.012726
0.083221 0.131073 0.013275
0.105957 0.131653 0.014008
0.132507 0.132324 0.014801
0.163605 0.133118 0.015778
0.199890 0.134064 0.016968
0.242188 0.135193 0.018311
0.290283 0.136475 0.019897
0.343048 0.137909 0.021637
0.399414 0.139496 0.023468
0.458130 0.141113 0.025391
0.517822 0.142700 0.027283
0.575775 0.144318 0.029114
0.630615 0.145844 0.030823
0.681885 0.147278 0.032440
0.729004 0.148590 0.033875
0.771240 0.149811 0.035187
0.808807 0.150909 0.036346
0.842133 0.151825 0.037354
0.871674 0.152710 0.038269
0.897949 0.153442 0.039032
0.921265 0.154083 0.039764
0.942169 0.154724 0.040375
0.961029 0.155243 0.040894
0.978180 0.155701 0.041382
0.994171 0.156128 0.041840
1.000000 0.156555 0.042297
1.000000 0.156921 0.042694
0.008392 0.159271 0.012756
0.021515 0.159607 0.013123
0.035248 0.159912 0.013580
0.050232 0.160309 0.014038
0.067200 0.160706 0.014557
0.086700 0.161224 0.015167
0.109406 0.161774 0.015900
0.135895 0.162445 0.016754
0.166962 0.163269 0.017731
0.203217 0.164246 0.018951
0.245361 0.165344 0.020355
0.293274 0.166656 0.022003
0.345856 0.168060 0.023712
0.401917 0.169586 0.025543
0.460327 0.171112 0.027374
0.519653 0.172638 0.029205
0.577240 0.174194 0.030975
0.631805 0.175659 0.032623
0.682922 0.177063 0.034180
0.729858 0.178375 0.035645
0.771973 0.179535 0.036957
0.809387 0.180603 0.038116
0.842621 0.181549 0.039154
0.872070 0.182373 0.040039
0.898285 0.183105 0.040802
0.921600 0.183777 0.041534
0.942413 0.184357 0.042175
0.961182 0.184875 0.042725
0.978333 0.185333 0.043213
0.994293 0.185760 0.043701
1.000000 0.186188 0.044128
1.000000 0.186584 0.044556
0.012573 0.194427 0.014893
0.025726 0.194763 0.015289
0.039459 0.195099 0.015747
0.054535 0.195496 0.016266
0.071381 0.195923 0.016815
0.090881 0.196411 0.017456
0.113495 0.196960 0.018188
0.139954 0.197662 0.019073
0.170990 0.198486 0.020142
0.207062 0.199432 0.021362
0.249023 0.200531 0.022736
0.296692 0.201813 0.024353
0.348938 0.203156 0.026062
0.404694 0.204590 0.027832
0.462708 0.206055 0.029602
0.521667 0.207520 0.031342
0.578888 0.208984 0.033081
0.633148 0.210419 0.034760
0.684021 0.211792 0.036316
0.730835 0.213043 0.037750
0.772766 0.214233 0.039032
0.810089 0.215271 0.040253
0.843170 0.216187 0.041229
0.872528 0.216980 0.042145
0.898682 0.217743 0.042938
0.921875 0.218384 0.043671
0.942657 0.218964 0.044312
0.961426 0.219452 0.044861
0.978455 0.219940 0.045410
0.994354 0.220337 0.045868
1.000000 0.220764 0.046265
1.000000 0.221161 0.046722
0.017761 0.235474 0.017548
0.030823 0.235809 0.018005
0.044556 0.236176 0.018433
0.059540 0.236511 0.018921
0.076447 0.236969 0.019501
0.095856 0.237488 0.020203
0.118408 0.238037 0.020966
0.144714 0.238708 0.021881
0.175537 0.239502 0.022888
0.211456 0.240417 0.024170
0.253113 0.241486 0.025513
0.300446 0.242676 0.027069
0.352295 0.243988 0.028717
0.407593 0.245300 0.030396
0.465179 0.246674 0.032104
0.523773 0.248077 0.033813
0.580658 0.249481 0.035492
0.634705 0.250885 0.037140
0.685333 0.252197 0.038727
0.731903 0.253448 0.040192
0.773682 0.254608 0.041473
0.810852 0.255585 0.042633
0.843811 0.256531 0.043701
0.873108 0.257324 0.044617
0.899109 0.258026 0.045441
0.922241 0.258698 0.046173
0.942963 0.259247 0.046814
0.961639 0.259735 0.047455
0.978668 0.260193 0.047943
0.994446 0.260651 0.048431
1.000000 0.261017 0.048920
1.000000 0.261414 0.049377
0.023712 0.282288 0.020630
0.036743 0.282623 0.021088
0.050385 0.282959 0.021576
0.065338 0.283325 0.022095
0.082062 0.283752 0.022675
0.101349 0.284210 0.023315
0.123779 0.284760 0.024109
0.149933 0.285400 0.024963
0.180511 0.286163 0.026001
0.216034 0.287018 0.027161
0.257355 0.287994 0.028503
0.304291 0.289093 0.029968
0.355652 0.290283 0.031525
0.410583 0.291565 0.033142
0.467896 0.292877 0.034882
0.526062 0.294220 0.036560
0.582642 0.295593 0.038208
0.636353 0.296906 0.039856
0.686737 0.298218 0.041473
0.733063 0.299408 0.042908
0.774689 0.300507 0.044281
0.811707 0.301544 0.045471
0.844543 0.302429 0.046539
0.873688 0.303192 0.047516
0.899658 0.303894 0.048370
0.922668 0.304535 0.049103
0.943298 0.305084 0.049805
0.961884 0.305603 0.050415
0.978851 0.306061 0.050964
0.994598 0.306458 0.051453
1.000000 0.306885 0.051941
1.000000 0.307251 0.052399
0.030121 0.333771 0.024078
0.043060 0.334076 0.024506
0.056641 0.334381 0.024963
0.071381 0.334717 0.025482
0.088043 0.335114 0.026062
0.107117 0.335541 0.026672
0.129333 0.336060 0.027435
0.155212 0.336670 0.028290
0.185455 0.337341 0.029266
0.220673 0.338104 0.030365
0.261536 0.339020 0.031586
0.308014 0.340027 0.033020
0.359100 0.341187 0.034515
0.413666 0.342377 0.036163
0.470612 0.343658 0.037811
0.528473 0.344940 0.039490
0.584686 0.346222 0.041229
0.638123 0.347534 0.042877
0.688202 0.348755 0.044464
0.734375 0.349945 0.046021
0.775787 0.351013 0.047424
0.812622 0.352020 0.048615
0.845337 0.352875 0.049805
0.874329 0.353668 0.050812
0.900177 0.354340 0.051666
0.923157 0.354950 0.052460
0.943695 0.355499 0.053162
0.962189 0.356018 0.053833
0.979034 0.356445 0.054413
0.994720 0.356873 0.054932
1.000000 0.357269 0.055481
1.000000 0.357605 0.055969
0.036469 0.388702 0.027588
0.049255 0.388977 0.028046
0.062653 0.389282 0.028473
0.077301 0.389618 0.028961
0.093719 0.389954 0.029480
0.112610 0.390350 0.030121
0.134491 0.390808 0.030762
0.160095 0.391327 0.031586
0.190063 0.391998 0.032532
0.225006 0.392700 0.033539
0.265594 0.393555 0.034821
0.311798 0.394531 0.036163
0.362549 0.395599 0.037689
0.416809 0.396729 0.039307
0.473450 0.397919 0.040985
0.530975 0.399170 0.042725
0.586823 0.400421 0.044434
0.639923 0.401642 0.046143
0.689789 0.402863 0.047821
0.735748 0.404022 0.049438
0.776917 0.405060 0.050903
0.813599 0.406006 0.052185
0.846191 0.406830 0.053375
0.875092 0.407623 0.054443
0.900787 0.408295 0.055420
0.923645 0.408905 0.056213
0.944061 0.409424 0.056976
0.962494 0.409882 0.057678
0.979309 0.410400 0.058319
0.994873 0.410797 0.058868
1.000000 0.411163 0.059448
1.000000 0.411591 0.059998
0.042297 0.446045 0.031067
0.054932 0.446289 0.031464
0.068146 0.446533 0.031860
0.082642 0.446838 0.032318
0.098938 0.447174 0.032867
0.117615 0.447510 0.033417
0.139404 0.447968 0.034088
0.164795 0.448456 0.034912
0.194550 0.449005 0.035797
0.229218 0.449707 0.036835
0.269623 0.450500 0.038055
0.315491 0.451416 0.039459
0.365936 0.452423 0.040985
0.419952 0.453491 0.042633
0.476318 0.454651 0.044373
0.533508 0.455811 0.046082
0.589020 0.457001 0.047913
0.641815 0.458252 0.049744
0.691437 0.459381 0.051483
0.737122 0.460480 0.053131
0.778198 0.461517 0.054688
0.814697 0.462433 0.056091
0.847107 0.463257 0.057343
0.875854 0.463989 0.058533
0.901459 0.464661 0.059540
0.924164 0.465332 0.060516
0.944519 0.465851 0.061371
0.962860 0.466370 0.062134
0.979553 0.466827 0.062836
0.995056 0.467285 0.063507
1.000000 0.467651 0.064117
1.000000 0.468079 0.064758
0.047607 0.504425 0.034454
0.060181 0.504669 0.034882
0.073303 0.504913 0.035217
0.087677 0.505188 0.035675
0.103821 0.505463 0.036163
0.122406 0.505798 0.036774
0.144012 0.506195 0.037445
0.169281 0.506622 0.038208
0.198883 0.507202 0.039154
0.233337 0.507812 0.040222
0.273468 0.508545 0.041412
0.319122 0.509399 0.042847
0.369354 0.510315 0.044403
0.423035 0.511322 0.046082
0.479187 0.512390 0.047852
0.536072 0.513489 0.049744
0.591248 0.514618 0.051636
0.643799 0.515778 0.053497
0.693176 0.516876 0.055389
0.738617 0.517883 0.057159
0.779480 0.518860 0.058838
0.815826 0.519806 0.060425
0.848114 0.520630 0.061798
0.876709 0.521393 0.063110
0.902161 0.522064 0.064301
0.924805 0.522705 0.065369
0.945007 0.523224 0.066315
0.963226 0.523712 0.067139
0.979797 0.524170 0.067871
0.995239 0.524567 0.068542
1.000000 0.524933 0.069244
1.000000 0.525330 0.069855
0.052612 0.561523 0.037781
0.065094 0.561707 0.038177
0.078156 0.561920 0.038544
0.092438 0.562134 0.039001
0.108490 0.562378 0.039490
0.126984 0.562714 0.040100
0.148438 0.563049 0.040741
0.173553 0.563477 0.041534
0.203033 0.563934 0.042450
0.237305 0.564514 0.043579
0.277252 0.565155 0.044861
0.322693 0.565918 0.046265
0.372681 0.566772 0.047913
0.426147 0.567688 0.049652
0.482086 0.568634 0.051544
0.538605 0.569641 0.053497
0.593536 0.570709 0.055511
0.645813 0.571716 0.057526
0.694946 0.572754 0.059570
0.740234 0.573792 0.061615
0.780914 0.574738 0.063477
0.817047 0.575623 0.065247
0.849182 0.576385 0.066803
0.877594 0.577118 0.068176
0.902924 0.577759 0.069397
0.925354 0.578278 0.070465
0.945496 0.578766 0.071442
0.963593 0.579224 0.072327
0.980133 0.579620 0.073120
0.995453 0.579956 0.073822
1.000000 0.580322 0.074463
1.000000 0.580627 0.075104
0.057312 0.615509 0.041016
0.069672 0.615662 0.041382
0.082703 0.615875 0.041809
0.096893 0.616058 0.042267
0.112854 0.616302 0.042786
0.131256 0.616547 0.043365
0.152649 0.616882 0.044098
0.177643 0.617249 0.044891
0.206940 0.617676 0.045807
0.241119 0.618164 0.046967
0.280914 0.618744 0.048279
0.326172 0.619415 0.049805
0.375946 0.620209 0.051483
0.429291 0.621033 0.053345
0.484985 0.621918 0.055359
0.541229 0.622833 0.057404
0.595856 0.623810 0.059601
0.647919 0.624817 0.061920
0.696869 0.625793 0.064209
0.741913 0.626770 0.066406
0.782318 0.627655 0.068390
0.818268 0.628448 0.070190
0.850189 0.629150 0.071838
0.878510 0.629791 0.073273
0.903656 0.630310 0.074463
0.925964 0.630798 0.075562
0.945984 0.631256 0.076599
0.963989 0.631622 0.077423
0.980377 0.631958 0.078186
0.995605 0.632233 0.078857
1.000000 0.632538 0.079529
1.000000 0.632812 0.080231
0.061646 0.665985 0.044159
0.073975 0.666138 0.044556
0.086914 0.666290 0.044983
0.101074 0.666473 0.045441
0.117004 0.666656 0.045990
0.135284 0.666901 0.046570
0.156586 0.667175 0.047302
0.181549 0.667511 0.048126
0.210693 0.667908 0.049103
0.244720 0.668365 0.050323
0.284393 0.668884 0.051697
0.329529 0.669495 0.053284
0.379150 0.670197 0.055054
0.432281 0.670929 0.057037
0.487823 0.671753 0.059204
0.543884 0.672607 0.061554
0.598236 0.673553 0.063995
0.650024 0.674500 0.066498
0.698700 0.675415 0.068909
0.743500 0.676270 0.071167
0.783691 0.677063 0.073273
0.819458 0.677765 0.075043
0.851166 0.678345 0.076691
0.879333 0.678894 0.078064
0.904358 0.679352 0.079315
0.926544 0.679779 0.080414
0.946411 0.680084 0.081299
0.964294 0.680389 0.082153
0.980621 0.680695 0.082886
0.995758 0.680939 0.083527
1.000000 0.681183 0.084167
1.000000 0.681396 0.084778
0.065613 0.712280 0.047150
0.077942 0.712402 0.047577
0.090820 0.712555 0.047974
0.104919 0.712708 0.048462
0.120758 0.712891 0.049042
0.139038 0.713104 0.049652
0.160278 0.713379 0.050415
0.185120 0.713654 0.051361
0.214203 0.714020 0.052338
0.248169 0.714386 0.053528
0.287720 0.714874 0.055023
0.332733 0.715424 0.056702
0.382233 0.716034 0.058655
0.435242 0.716766 0.060791
0.490723 0.717560 0.063232
0.546478 0.718353 0.065765
0.600555 0.719208 0.068329
0.652069 0.720032 0.070923
0.700470 0.720856 0.073425
0.744965 0.721558 0.075684
0.784973 0.722260 0.077759
0.820496 0.722839 0.079529
0.852081 0.723328 0.081116
0.880035 0.723785 0.082458
0.904938 0.724152 0.083649
0.927032 0.724487 0.084686
0.946808 0.724762 0.085541
0.964569 0.725006 0.086273
0.980835 0.725220 0.086975
0.995911 0.725403 0.087555
1.000000 0.725586 0.088165
1.000000 0.725769 0.088654
0.069183 0.753723 0.049927
0.081451 0.753845 0.050415
0.094330 0.753967 0.050873
0.108429 0.754120 0.051361
0.124237 0.754242 0.051910
0.142456 0.754456 0.052582
0.163635 0.754669 0.053375
0.188446 0.754944 0.054291
0.217468 0.755249 0.055389
0.251373 0.755615 0.056671
0.290833 0.756042 0.058228
0.335785 0.756531 0.060089
0.385223 0.757141 0.062225
0.438110 0.757782 0.064514
0.493378 0.758514 0.067108
0.548798 0.759216 0.069733
0.602600 0.759949 0.072357
0.653870 0.760681 0.074982
0.701965 0.761383 0.077454
0.746246 0.761963 0.079742
0.786011 0.762543 0.081696
0.821381 0.763031 0.083405
0.852814 0.763428 0.084930
0.880646 0.763794 0.086151
0.905396 0.764069 0.087280
0.927399 0.764313 0.088226
0.947083 0.764526 0.088989
0.964813 0.764709 0.089661
0.980988 0.764893 0.090302
0.996033 0.765045 0.090851
1.000000 0.765167 0.091339
1.000000 0.765289 0.091797
0.072449 0.790466 0.052490
0.084686 0.790588 0.052948
0.097534 0.790680 0.053436
0.111603 0.790833 0.053986
0.127350 0.790955 0.054565
0.145538 0.791138 0.055298
0.166718 0.791321 0.056091
0.191437 0.791565 0.057037
0.220459 0.791840 0.058228
0.254333 0.792175 0.059601
0.293732 0.792572 0.061279
0.338623 0.793030 0.063293
0.387970 0.793579 0.065552
0.440704 0.794159 0.068024
0.495728 0.794769 0.070618
0.550964 0.795410 0.073334
0.604462 0.796051 0.076019
0.655396 0.796661 0.078522
0.703247 0.797241 0.080963
0.747375 0.797729 0.083191
0.786926 0.798157 0.085052
0.822144 0.798553 0.086670
0.853394 0.798859 0.088043
0.881134 0.799133 0.089203
0.905792 0.799347 0.090210
0.927734 0.799561 0.091034
0.947357 0.799713 0.091736
0.964996 0.799866 0.092346
0.981110 0.799988 0.092896
0.996094 0.800079 0.093384
1.000000 0.800171 0.093811
1.000000 0.800293 0.094238
0.075378 0.823059 0.054901
0.087585 0.823151 0.055389
0.100403 0.823273 0.055878
0.114471 0.823364 0.056396
0.130188 0.823486 0.057007
0.148376 0.823639 0.057770
0.169525 0.823822 0.058655
0.194244 0.824036 0.059662
0.223236 0.824280 0.060913
0.257050 0.824554 0.062439
0.296417 0.824921 0.064209
0.341217 0.825348 0.066345
0.390411 0.825806 0.068665
0.443024 0.826324 0.071167
0.497894 0.826843 0.073853
0.552795 0.827393 0.076508
0.606049 0.827911 0.079102
0.656738 0.828430 0.081635
0.704346 0.828888 0.083923
0.748291 0.829285 0.086060
0.787659 0.829651 0.087799
0.822723 0.829926 0.089355
0.853882 0.830170 0.090576
0.881470 0.830383 0.091644
0.906097 0.830536 0.092529
0.927948 0.830688 0.093262
0.947510 0.830811 0.093903
0.965118 0.830933 0.094452
0.981201 0.831055 0.094940
0.996155 0.831116 0.095428
1.000000 0.831207 0.095856
1.000000 0.831268 0.096191
0.077972 0.851898 0.057037
0.090179 0.851959 0.057526
0.103027 0.852051 0.058075
0.117035 0.852142 0.058655
0.132812 0.852264 0.059357
0.150970 0.852386 0.060120
0.172119 0.852539 0.061035
0.196808 0.852722 0.062134
0.225739 0.852936 0.063446
0.259552 0.853241 0.065033
0.298798 0.853546 0.066895
0.343506 0.853912 0.069000
0.392548 0.854279 0.071381
0.445007 0.854736 0.073944
0.499725 0.855194 0.076599
0.554382 0.855621 0.079254
0.607391 0.856079 0.081787
0.657837 0.856476 0.084290
0.705292 0.856842 0.086487
0.748993 0.857147 0.088409
0.788269 0.857422 0.090088
0.823212 0.857666 0.091492
0.854218 0.857849 0.092621
0.881775 0.858002 0.093567
0.906311 0.858124 0.094391
0.928131 0.858246 0.095062
0.947632 0.858337 0.095673
0.965240 0.858429 0.096191
0.981262 0.858490 0.096649
0.996185 0.858551 0.097107
1.000000 0.858612 0.097443
1.000000 0.858673 0.097809
0.080383 0.877502 0.059052
0.092621 0.877563 0.059570
0.105408 0.877655 0.060150
0.119415 0.877747 0.060760
0.135193 0.877838 0.061493
0.153290 0.877960 0.062256
0.174438 0.878113 0.063263
0.199127 0.878265 0.064423
0.228058 0.878448 0.065826
0.261749 0.878662 0.067352
0.300964 0.878937 0.069305
0.345551 0.879272 0.071472
0.394501 0.879578 0.073883
0.446777 0.879944 0.076447
0.501312 0.880310 0.079010
0.555725 0.880676 0.081635
0.608490 0.881042 0.084137
0.658752 0.881348 0.086456
0.706055 0.881653 0.088562
0.749573 0.881897 0.090424
0.788696 0.882111 0.091919
0.823547 0.882263 0.093201
0.854523 0.882416 0.094269
0.882050 0.882507 0.095154
0.906525 0.882660 0.095947
0.928253 0.882721 0.096588
0.947754 0.882812 0.097137
0.965363 0.882874 0.097656
0.981354 0.882904 0.098083
0.996216 0.882965 0.098450
1.000000 0.883026 0.098846
1.000000 0.883057 0.099152
0.082550 0.900208 0.060913
0.094757 0.900269 0.061493
0.107605 0.900360 0.062073
0.121613 0.900452 0.062714
0.137299 0.900513 0.063416
0.155457 0.900635 0.064270
0.176575 0.900726 0.065338
0.201233 0.900879 0.066498
0.230103 0.901031 0.067871
0.263733 0.901215 0.069519
0.302887 0.901428 0.071442
0.347351 0.901672 0.073639
0.396179 0.901978 0.076050
0.448303 0.902252 0.078522
0.502594 0.902557 0.081116
0.556854 0.902832 0.083679
0.609436 0.903137 0.086090
0.659515 0.903381 0.088287
0.706604 0.903595 0.090302
0.750061 0.903809 0.092010
0.789093 0.903931 0.093414
0.823883 0.904083 0.094574
0.854767 0.904175 0.095612
0.882202 0.904297 0.096436
0.906677 0.904358 0.097229
0.928375 0.904419 0.097809
0.947845 0.904480 0.098328
0.965393 0.904541 0.098846
0.981384 0.904572 0.099243
0.996277 0.904602 0.099579
1.000000 0.904633 0.099976
1.000000 0.904663 0.100250
0.084503 0.920502 0.062653
0.096741 0.920593 0.063202
0.109528 0.920654 0.063782
0.123505 0.920685 0.064453
0.139252 0.920776 0.065247
0.157410 0.920837 0.066132
0.178436 0.920929 0.067139
0.203064 0.921021 0.068329
0.231873 0.921204 0.069763
0.265503 0.921326 0.071442
0.304565 0.921509 0.073364
0.348938 0.921722 0.075562
0.397644 0.921967 0.077942
0.449585 0.922180 0.080414
0.503784 0.922424 0.082916
0.557800 0.922638 0.085419
0.610199 0.922821 0.087738
0.660126 0.923035 0.089874
0.707123 0.923218 0.091705
0.750458 0.923340 0.093292
0.789368 0.923492 0.094635
0.824097 0.923584 0.095795
0.854950 0.923645 0.096741
0.882355 0.923706 0.097595
0.906799 0.923767 0.098267
0.928436 0.923828 0.098877
0.947906 0.923859 0.099396
0.965454 0.923889 0.099792
0.981415 0.923950 0.100220
0.996277 0.923981 0.100586
1.000000 0.924011 0.100891
1.000000 0.924042 0.101196
0.086304 0.938782 0.064209
0.098480 0.938843 0.064789
0.111298 0.938904 0.065430
0.125275 0.938965 0.066071
0.140961 0.938995 0.066864
0.159119 0.939056 0.067780
0.180145 0.939117 0.068817
0.204712 0.939209 0.070007
0.233490 0.939301 0.071442
0.267059 0.939453 0.073151
0.306030 0.939575 0.075043
0.350281 0.939758 0.077209
0.398895 0.939911 0.079590
0.450714 0.940063 0.082031
0.504791 0.940277 0.084503
0.558624 0.940430 0.086884
