3d-lut/luts/Clouseau 54.CUBE
#Created by: Adobe Photoshop Export Color Lookup Plugin
#Copyright: (C) Copyright 2017 RocketStock
TITLE "Untitled"
#LUT size
LUT_3D_SIZE 5
#data domain
#LUT data points
DOMAIN_MIN 0.000000 0.000000 0.000000
DOMAIN_MAX 0.903226 0.903226 0.903226
0.000000 0.007507 0.005585
0.120270 0.009613 0.007935
0.448242 0.017700 0.016937
0.806091 0.028778 0.028748
0.977631 0.033936 0.033936
0.004974 0.129242 0.011047
0.132507 0.132324 0.014801
0.458130 0.141113 0.025391
0.808807 0.150909 0.036346
0.978180 0.155701 0.041382
0.042297 0.446045 0.031067
0.164795 0.448456 0.034912
0.476318 0.454651 0.044373
0.814697 0.462433 0.056091
0.979553 0.466827 0.062836
0.072449 0.790466 0.052490
0.191437 0.791565 0.057037
0.495728 0.794769 0.070618
0.822144 0.798553 0.086670
0.981110 0.799988 0.092896
0.087921 0.955444 0.065643
0.206177 0.955750 0.071503
0.505615 0.956512 0.085846
0.824432 0.957092 0.097687
0.981476 0.957306 0.101746
0.000000 0.008179 0.129852
0.122192 0.010590 0.132263
0.450104 0.019104 0.140747
0.806641 0.030182 0.151337
0.977783 0.035400 0.155975
0.007599 0.130341 0.135284
0.135132 0.133545 0.138855
0.459869 0.142426 0.148407
0.809265 0.152191 0.158112
0.978302 0.157043 0.162689
0.044556 0.446930 0.153381
0.166687 0.449341 0.156830
0.477539 0.455627 0.165405
0.815125 0.463562 0.176178
0.979675 0.468170 0.182556
0.074402 0.790863 0.172882
0.193329 0.791962 0.177094
0.497192 0.795319 0.189697
0.822571 0.798981 0.203796
0.981171 0.800293 0.208984
0.090271 0.955536 0.185150
0.208313 0.955841 0.190491
0.506805 0.956604 0.203125
0.824677 0.957153 0.213135
0.981506 0.957336 0.216583
0.000488 0.010376 0.453857
0.127777 0.013428 0.455963
0.454712 0.022736 0.462341
0.807892 0.033722 0.469391
0.978027 0.038971 0.472504
0.014618 0.133209 0.458313
0.141815 0.136719 0.460938
0.463715 0.145630 0.467407
0.810394 0.155457 0.473999
0.978577 0.160522 0.477234
0.049866 0.449127 0.470734
0.171204 0.451569 0.473053
0.480469 0.458038 0.479156
0.816376 0.466614 0.487213
0.979950 0.471619 0.492004
0.079590 0.791870 0.484650
0.198395 0.793121 0.487885
0.500763 0.796600 0.496948
0.823456 0.799927 0.505798
0.981323 0.801025 0.508881
0.096191 0.955841 0.493805
0.213470 0.956146 0.497498
0.509369 0.956818 0.505432
0.825073 0.957306 0.511292
0.981537 0.957428 0.513336
0.007294 0.013428 0.819977
0.134827 0.016998 0.820892
0.459686 0.026855 0.823273
0.809235 0.037720 0.825684
0.978302 0.043091 0.826843
0.023010 0.136780 0.821808
0.149292 0.140442 0.822754
0.467529 0.149170 0.825012
0.811615 0.159271 0.827393
0.978851 0.164551 0.828613
0.055542 0.451630 0.826202
0.176086 0.454163 0.827087
0.483887 0.460968 0.829376
0.817810 0.470398 0.832611
0.980286 0.475616 0.834412
0.085815 0.793152 0.831604
0.204224 0.794525 0.832886
0.504486 0.797943 0.836121
0.824249 0.800781 0.838898
0.981445 0.801727 0.839844
0.102631 0.956146 0.835052
0.218872 0.956482 0.836273
0.511597 0.957031 0.838776
0.825470 0.957397 0.840607
0.981659 0.957550 0.841187
0.010956 0.015137 1.000000
0.138428 0.018890 1.000000
0.461853 0.028809 1.000000
0.809845 0.039642 1.000000
0.978394 0.045135 1.000000
0.026978 0.138580 1.000000
0.152649 0.142212 1.000000
0.469299 0.150909 1.000000
0.812195 0.161163 1.000000
0.978943 0.166565 1.000000
0.058197 0.452850 1.000000
0.178436 0.455444 1.000000
0.485535 0.462433 1.000000
0.818542 0.472290 1.000000
0.980438 0.477478 1.000000
0.088928 0.793823 1.000000
0.207062 0.795197 1.000000
0.506134 0.798553 1.000000
0.824524 0.801147 1.000000
0.981476 0.802002 1.000000
0.105591 0.956299 1.000000
0.221191 0.956604 1.000000
0.512482 0.957092 1.000000
0.825592 0.957458 1.000000
0.981659 0.957581 1.000000
