3d-lut/luts/Cobi 3.CUBE
#Created by: Adobe Photoshop Export Color Lookup Plugin
#Copyright: (C) Copyright 2017 RocketStock
TITLE "Untitled"
#LUT size
LUT_3D_SIZE 32
#data domain
DOMAIN_MIN 0.0 0.0 0.0
DOMAIN_MAX 1.0 1.0 1.0
#LUT data points
0.065491 0.001709 0.000000
0.129913 0.004272 0.000000
0.184692 0.006897 0.000000
0.228821 0.009888 0.000000
0.264038 0.012970 0.000000
0.292664 0.016205 0.000000
0.316711 0.019653 0.000000
0.338135 0.023102 0.000000
0.358765 0.026855 0.000000
0.379303 0.030701 0.000000
0.399658 0.034607 0.000000
0.419952 0.038757 0.000000
0.440308 0.042999 0.000000
0.460510 0.047241 0.000000
0.480804 0.051727 0.000000
0.501129 0.056274 0.000000
0.521515 0.060822 0.000000
0.542236 0.065613 0.000000
0.563538 0.070343 0.000000
0.585815 0.075287 0.000000
0.609375 0.080261 0.000000
0.634460 0.085236 0.000000
0.661346 0.090332 0.000000
0.690338 0.095490 0.000000
0.721710 0.100586 0.000000
0.755646 0.105835 0.000000
0.792389 0.111053 0.000732
0.831451 0.116180 0.007965
0.872314 0.121490 0.015564
0.914398 0.126617 0.023163
0.957092 0.131805 0.031006
1.000000 0.137024 0.038971
0.071106 0.065826 0.000000
0.134888 0.068726 0.000000
0.188873 0.071716 0.000000
0.232178 0.074890 0.000000
0.266754 0.078156 0.000000
0.294922 0.081451 0.000000
0.318695 0.084991 0.000000
0.339966 0.088501 0.000000
0.360535 0.092255 0.000000
0.381042 0.096039 0.000000
0.401367 0.099823 0.000000
0.421661 0.103851 0.000000
0.441895 0.107880 0.000000
0.462097 0.111938 0.000000
0.482330 0.116119 0.000000
0.502563 0.120270 0.000000
0.523010 0.124542 0.000000
0.543671 0.128876 0.000000
0.564972 0.133087 0.000000
0.587219 0.137482 0.000000
0.610779 0.141846 0.000000
0.635834 0.146118 0.000000
0.662720 0.150543 0.000000
0.691711 0.154877 0.000000
0.723022 0.159119 0.000305
0.756958 0.163483 0.007782
0.793549 0.167755 0.015381
0.832428 0.171906 0.022949
0.873108 0.176178 0.030823
0.914948 0.180267 0.038513
0.957367 0.184418 0.046539
1.000000 0.188568 0.054535
0.077179 0.127472 0.000000
0.140381 0.130219 0.000000
0.193329 0.132965 0.000000
0.235718 0.135895 0.000000
0.269623 0.138824 0.000000
0.297272 0.141937 0.000000
0.320740 0.145081 0.000000
0.341858 0.148254 0.000000
0.362427 0.151489 0.000000
0.382874 0.154785 0.000000
0.403137 0.158051 0.000000
0.423431 0.161438 0.000000
0.443634 0.164825 0.000000
0.463806 0.168213 0.000000
0.484009 0.171661 0.000000
0.504181 0.175049 0.000000
0.524536 0.178528 0.000000
0.545135 0.182068 0.000000
0.566437 0.185425 0.000000
0.588684 0.188934 0.000000
0.612213 0.192413 0.000000
0.637238 0.195801 0.000000
0.664124 0.199310 0.000122
0.693115 0.202759 0.007568
0.724335 0.206085 0.015015
0.758179 0.209473 0.022766
0.794678 0.212830 0.030457
0.833405 0.216156 0.038330
0.873871 0.219513 0.046326
0.915436 0.222687 0.054169
0.957672 0.225952 0.062225
1.000000 0.229187 0.070251
0.083740 0.179901 0.000000
0.146118 0.182220 0.000000
0.197968 0.184570 0.000000
0.239471 0.187012 0.000000
0.272675 0.189423 0.000000
0.299805 0.191986 0.000000
0.322906 0.194519 0.000000
0.343872 0.197083 0.000000
0.364441 0.199707 0.000000
0.384827 0.202362 0.000000
0.405090 0.205048 0.000000
0.425293 0.207733 0.000000
0.445435 0.210480 0.000000
0.465515 0.213165 0.000000
0.485657 0.215942 0.000000
0.505798 0.218628 0.000000
0.526062 0.221375 0.000000
0.546722 0.224152 0.000000
0.567932 0.226868 0.000000
0.590210 0.229645 0.000000
0.613708 0.232391 0.000000
0.638733 0.235046 0.007202
0.665619 0.237823 0.014801
0.694519 0.240509 0.022583
0.725677 0.243195 0.030243
0.759491 0.245880 0.038147
0.795837 0.248474 0.045868
0.834442 0.251099 0.053894
0.874664 0.253723 0.061951
0.915985 0.256256 0.069794
0.957977 0.258850 0.077911
1.000000 0.261414 0.085938
0.090851 0.221893 0.000000
0.152161 0.223724 0.000000
0.202911 0.225708 0.000000
0.243378 0.227692 0.000000
0.275818 0.229675 0.000000
0.302429 0.231689 0.000000
0.325165 0.233795 0.000000
0.346008 0.235901 0.000000
0.366547 0.238007 0.000000
0.386871 0.240173 0.000000
0.407043 0.242249 0.000000
0.427185 0.244446 0.000000
0.447296 0.246582 0.000000
0.467346 0.248810 0.000000
0.487427 0.251007 0.000000
0.507477 0.253174 0.000000
0.527771 0.255371 0.000000
0.548309 0.257568 0.000000
0.569550 0.259766 0.000000
0.591766 0.261963 0.006989
0.615265 0.264191 0.014618
0.640289 0.266327 0.022217
0.667084 0.268555 0.030060
0.695984 0.270630 0.037750
0.727142 0.272858 0.045685
0.760803 0.275024 0.053711
0.797058 0.277161 0.061584
0.835449 0.279297 0.069611
0.875458 0.281464 0.077667
0.916565 0.283539 0.085510
0.958252 0.285645 0.093506
1.000000 0.287750 0.101440
0.098297 0.255402 0.000000
0.158508 0.256989 0.000000
0.207977 0.258575 0.000000
0.247406 0.260223 0.000000
0.279053 0.261841 0.000000
0.305115 0.263550 0.000000
0.327545 0.265259 0.000000
0.348236 0.266937 0.000000
0.368713 0.268707 0.000000
0.388947 0.270447 0.000000
0.409119 0.272186 0.000000
0.429199 0.273956 0.000000
0.449249 0.275726 0.000000
0.469238 0.277527 0.000000
0.489227 0.279358 0.000000
0.509247 0.281158 0.000000
0.529449 0.282990 0.000000
0.549957 0.284821 0.006836
0.571167 0.286591 0.014252
0.593384 0.288483 0.022034
0.616852 0.290314 0.029785
0.641846 0.292145 0.037567
0.668671 0.293976 0.045502
0.697479 0.295776 0.053345
0.728546 0.297668 0.061371
0.762177 0.299530 0.069458
0.798279 0.301361 0.077271
0.836487 0.303223 0.085327
0.876312 0.305115 0.093323
0.917145 0.306885 0.101044
0.958527 0.308807 0.108948
1.000000 0.310669 0.116699
0.106049 0.282837 0.000000
0.165131 0.284180 0.000000
0.213257 0.285583 0.000000
0.251556 0.286926 0.000000
0.282379 0.288361 0.000000
0.307861 0.289825 0.000000
0.329987 0.291229 0.000000
0.350586 0.292664 0.000000
0.370972 0.294189 0.000000
0.391144 0.295654 0.000000
0.411285 0.297211 0.000000
0.431305 0.298767 0.000000
0.451233 0.300293 0.000000
0.471191 0.301880 0.000000
0.491089 0.303467 0.000000
0.511078 0.305084 0.006439
0.531158 0.306702 0.014069
0.551636 0.308319 0.021759
0.572815 0.309937 0.029449
0.595032 0.311554 0.037384
0.618469 0.313232 0.045105
0.643463 0.314911 0.053162
0.670258 0.316620 0.061188
0.699005 0.318329 0.069000
0.730042 0.320038 0.077026
0.763550 0.321777 0.085052
0.799500 0.323517 0.092896
0.837555 0.325287 0.100861
0.877106 0.327057 0.108704
0.917694 0.328796 0.116364
0.958801 0.330566 0.124054
1.000000 0.332367 0.131470
0.114197 0.306519 0.000000
0.171906 0.307709 0.000000
0.218536 0.308990 0.000000
0.255829 0.310272 0.000000
0.285797 0.311554 0.000000
0.310730 0.312866 0.000000
0.332489 0.314209 0.000000
0.352997 0.315552 0.000000
0.373291 0.316986 0.000000
0.393433 0.318390 0.000000
0.413452 0.319794 0.000000
0.433411 0.321289 0.000000
0.453339 0.322754 0.000000
0.473175 0.324249 0.006256
0.493042 0.325806 0.013885
0.512909 0.327332 0.021454
0.532928 0.328857 0.029297
0.553406 0.330475 0.037170
0.574524 0.332031 0.044952
0.596710 0.333649 0.052948
0.620148 0.335266 0.060730
0.645081 0.336914 0.068817
0.671875 0.338562 0.076874
0.700531 0.340210 0.084717
0.731567 0.341858 0.092712
0.764954 0.343567 0.100677
0.800781 0.345245 0.108337
0.838623 0.346954 0.116150
0.877991 0.348694 0.123840
0.918304 0.350372 0.131287
0.959137 0.352142 0.138702
1.000000 0.353851 0.145844
0.122559 0.328735 0.000000
0.178772 0.329926 0.000000
0.223999 0.331207 0.000000
0.260101 0.332489 0.000000
0.289276 0.333740 0.000000
0.313629 0.335052 0.000000
0.335083 0.336365 0.000000
0.355469 0.337769 0.000000
0.375732 0.339111 0.000000
0.395782 0.340515 0.000000
0.415741 0.341888 0.000000
0.435638 0.343353 0.006073
0.455414 0.344818 0.013489
0.475250 0.346313 0.021271
0.495026 0.347809 0.029022
0.514801 0.349274 0.036743
0.534790 0.350830 0.044739
0.555176 0.352386 0.052704
0.576294 0.353912 0.060577
0.598450 0.355499 0.068634
0.621857 0.357056 0.076508
0.646790 0.358673 0.084473
0.673523 0.360260 0.092468
0.702148 0.361847 0.100281
0.733063 0.363495 0.108185
0.766388 0.365143 0.115967
0.802094 0.366760 0.123505
0.839722 0.368439 0.131073
0.878815 0.370087 0.138489
0.918854 0.371735 0.145691
0.959412 0.373444 0.152832
1.000000 0.375061 0.159607
0.131165 0.350861 0.000000
0.185669 0.352051 0.000000
0.229462 0.353271 0.000000
0.264465 0.354553 0.000000
0.292786 0.355804 0.000000
0.316589 0.357086 0.000000
0.337738 0.358429 0.000000
0.358093 0.359741 0.000000
0.378235 0.361115 0.000000
0.398193 0.362488 0.005676
0.418121 0.363892 0.013306
0.437897 0.365326 0.021057
0.457642 0.366730 0.028656
0.477325 0.368164 0.036560
0.497040 0.369629 0.044556
0.516724 0.371094 0.052338
0.536621 0.372589 0.060394
0.556976 0.374084 0.068237
0.578094 0.375610 0.076324
0.600189 0.377136 0.084351
0.623566 0.378632 0.092102
0.648529 0.380219 0.100098
0.675201 0.381775 0.107941
0.703796 0.383331 0.115570
0.734619 0.384949 0.123291
0.767822 0.386536 0.130890
0.803406 0.388092 0.138214
0.840851 0.389709 0.145477
0.879639 0.391266 0.152466
0.919464 0.392914 0.159424
0.959717 0.394501 0.166229
1.000000 0.396088 0.172699
0.139893 0.372864 0.000000
0.192688 0.374023 0.000000
0.234985 0.375275 0.000000
0.268768 0.376465 0.000000
0.296326 0.377747 0.000000
0.319611 0.379028 0.000000
0.340515 0.380310 0.000000
0.360748 0.381622 0.005554
0.380798 0.382996 0.013092
0.400696 0.384277 0.020599
0.420502 0.385712 0.028442
0.440247 0.387115 0.036377
0.459869 0.388458 0.044098
0.479462 0.389893 0.052094
0.499054 0.391296 0.059937
0.518707 0.392761 0.067993
0.538513 0.394196 0.076080
0.558807 0.395630 0.083923
0.579926 0.397125 0.091919
0.602020 0.398621 0.099854
0.625366 0.400085 0.107574
0.650238 0.401611 0.115387
0.676880 0.403137 0.123108
0.705414 0.404602 0.130524
0.736206 0.406158 0.138000
0.769287 0.407715 0.145325
0.804657 0.409241 0.152313
0.841949 0.410797 0.159271
0.880554 0.412292 0.165863
0.920013 0.413849 0.172516
0.959991 0.415405 0.178925
1.000000 0.416962 0.185028
0.148682 0.394775 0.000000
0.199738 0.395935 0.000000
0.240540 0.397156 0.000000
0.273193 0.398376 0.000000
0.299927 0.399628 0.000000
0.322662 0.400909 0.005402
0.343323 0.402161 0.012726
0.363495 0.403442 0.020386
0.383453 0.404755 0.028259
0.403229 0.406036 0.035919
0.422974 0.407410 0.043915
0.442596 0.408783 0.051880
0.462128 0.410126 0.059753
0.481689 0.411499 0.067810
0.501160 0.412842 0.075623
0.520721 0.414276 0.083740
0.540497 0.415710 0.091736
0.560730 0.417084 0.099487
0.581787 0.418549 0.107391
0.603851 0.419983 0.115234
0.627167 0.421387 0.122711
0.652008 0.422882 0.130341
0.678589 0.424347 0.137817
0.707153 0.425781 0.144928
0.737762 0.427246 0.152100
0.770752 0.428680 0.158905
0.805969 0.430206 0.165771
0.843079 0.431702 0.172363
0.881409 0.433167 0.178589
0.920654 0.434631 0.184906
0.960327 0.436157 0.190979
1.000000 0.437592 0.196716
0.157471 0.416626 0.000000
0.206696 0.417816 0.000000
0.246033 0.419006 0.000000
0.277588 0.420166 0.005005
0.303497 0.421387 0.012543
0.325745 0.422668 0.020233
0.346191 0.423889 0.027893
0.366272 0.425140 0.035767
0.386139 0.426453 0.043701
0.405853 0.427673 0.051514
0.425476 0.429047 0.059570
0.444977 0.430298 0.067444
0.464447 0.431671 0.075439
0.483887 0.432983 0.083496
0.503296 0.434296 0.091339
0.522766 0.435699 0.099304
0.542480 0.437073 0.107208
0.562653 0.438416 0.114838
0.583649 0.439789 0.122559
0.605713 0.441223 0.130127
0.628998 0.442566 0.137421
0.653839 0.443970 0.144775
0.680359 0.445435 0.151947
0.708801 0.446777 0.158752
0.739349 0.448212 0.165558
0.772247 0.449585 0.172028
0.807312 0.451050 0.178467
0.844177 0.452484 0.184753
0.882233 0.453857 0.190674
0.921234 0.455322 0.196594
0.960632 0.456757 0.202301
1.000000 0.458160 0.207733
0.166229 0.438446 0.000000
0.213654 0.439606 0.004791
0.251495 0.440796 0.012360
0.281921 0.441925 0.019836
0.307068 0.443146 0.027710
0.328918 0.444366 0.035553
0.349121 0.445587 0.043335
0.369110 0.446777 0.051300
0.388855 0.448059 0.059357
0.408508 0.449280 0.067200
0.428040 0.450562 0.075256
0.447418 0.451813 0.083069
0.466797 0.453094 0.091095
0.486145 0.454376 0.099060
0.505463 0.455688 0.106781
0.524841 0.457001 0.114594
0.544495 0.458313 0.122314
0.564636 0.459656 0.129791
0.585602 0.460999 0.137207
0.607574 0.462311 0.144562
0.630829 0.463654 0.151581
0.655609 0.465027 0.158539
0.682129 0.466309 0.165222
0.710510 0.467712 0.171906
0.740967 0.469086 0.178284
0.773743 0.470398 0.184418
0.808655 0.471802 0.190552
0.845276 0.473145 0.196411
0.883148 0.474457 0.202026
0.921844 0.475861 0.207581
0.960907 0.477234 0.213013
1.000000 0.478577 0.218109
0.175018 0.460327 0.011963
0.220551 0.461426 0.019653
0.256897 0.462555 0.027496
0.286224 0.463715 0.035126
0.310699 0.464844 0.043091
0.332062 0.466034 0.051117
0.352142 0.467194 0.058929
0.372009 0.468414 0.067017
0.391632 0.469574 0.074890
0.411194 0.470825 0.082916
0.430634 0.472046 0.090912
0.449921 0.473236 0.098663
0.469177 0.474487 0.106598
0.488434 0.475739 0.114410
0.507629 0.476990 0.121979
0.526947 0.478241 0.129547
0.546509 0.479553 0.137054
0.566589 0.480804 0.144226
0.587524 0.482056 0.151367
0.609528 0.483368 0.158386
0.632721 0.484619 0.165070
0.657471 0.485962 0.171692
0.683868 0.487244 0.178009
0.712250 0.488525 0.184265
0.742615 0.489838 0.190399
0.775238 0.491119 0.196106
0.809998 0.492401 0.201904
0.846375 0.493744 0.207458
0.884033 0.494965 0.212769
0.922394 0.496307 0.217957
0.961212 0.497589 0.223053
1.000000 0.498871 0.227844
0.183685 0.482117 0.027039
0.227356 0.483215 0.034943
0.262238 0.484314 0.042908
0.290558 0.485413 0.050690
0.314301 0.486542 0.058746
0.335236 0.487671 0.066833
0.355194 0.488800 0.074646
0.374969 0.489990 0.082703
0.394470 0.491119 0.090485
0.413910 0.492279 0.098480
0.433228 0.493500 0.106415
0.452454 0.494659 0.114075
0.471588 0.495850 0.121735
0.490753 0.497070 0.129364
0.509827 0.498260 0.136719
0.529022 0.499512 0.144073
0.548553 0.500732 0.151245
0.568604 0.501923 0.158081
0.589478 0.503174 0.164917
0.611420 0.504364 0.171387
0.634613 0.505646 0.177856
0.659302 0.506897 0.184113
0.685699 0.508087 0.190094
0.713959 0.509369 0.195984
0.744232 0.510620 0.201721
0.776764 0.511841 0.207184
0.811340 0.513123 0.212616
0.847504 0.514374 0.217834
0.884857 0.515594 0.222809
0.923035 0.516846 0.227783
0.961456 0.518066 0.232361
1.000000 0.519318 0.237000
0.192200 0.503998 0.042511
0.233978 0.505096 0.050507
0.267548 0.506195 0.058563
0.294800 0.507233 0.066376
0.317871 0.508331 0.074463
0.338470 0.509460 0.082520
0.358276 0.510559 0.090302
0.377899 0.511688 0.098236
0.397339 0.512787 0.105988
0.416687 0.513947 0.113831
0.435913 0.515106 0.121582
0.454956 0.516235 0.129028
0.474060 0.517426 0.136505
0.493073 0.518585 0.143860
0.512054 0.519745 0.150879
0.531158 0.520966 0.157867
0.550629 0.522125 0.164703
0.570618 0.523315 0.171173
0.591461 0.524506 0.177704
0.613342 0.525696 0.183960
0.636536 0.526917 0.189911
0.661194 0.528107 0.195892
0.687469 0.529327 0.201447
0.715698 0.530518 0.207062
0.745880 0.531738 0.212494
0.778229 0.532928 0.217560
0.812653 0.534149 0.222717
0.848633 0.535370 0.227631
0.885742 0.536591 0.232269
0.923584 0.537811 0.236877
0.961823 0.539001 0.241364
1.000000 0.540222 0.245575
0.200531 0.526306 0.058136
0.240540 0.527313 0.066193
0.272705 0.528412 0.074280
0.299011 0.529449 0.082092
0.321442 0.530518 0.090118
0.341736 0.531647 0.098083
0.361389 0.532715 0.105774
0.380951 0.533813 0.113647
0.400238 0.534912 0.121185
0.419434 0.536011 0.128815
0.438568 0.537201 0.136322
0.457550 0.538300 0.143463
0.476501 0.539490 0.150726
0.495453 0.540588 0.157715
0.514282 0.541748 0.164368
0.533325 0.542877 0.171021
0.552704 0.544098 0.177521
0.572632 0.545227 0.183655
0.593445 0.546387 0.189758
0.615295 0.547546 0.195587
0.638428 0.548737 0.201324
0.663055 0.549957 0.206879
0.689301 0.551086 0.212189
0.717407 0.552307 0.217468
0.747559 0.553497 0.222565
0.779755 0.554657 0.227356
0.813995 0.555817 0.232147
0.849762 0.557037 0.236755
0.886597 0.558167 0.241119
0.924164 0.559387 0.245453
0.962097 0.560547 0.249542
1.000000 0.561737 0.253601
0.208618 0.549286 0.073822
0.246948 0.550293 0.081909
0.277802 0.551361 0.089935
0.303162 0.552429 0.097717
0.325012 0.553467 0.105591
0.345001 0.554565 0.113251
0.364594 0.555634 0.121002
0.383972 0.556763 0.128632
0.403137 0.557831 0.135956
0.422272 0.558929 0.143311
0.441284 0.560059 0.150513
0.460114 0.561157 0.157379
0.478973 0.562286 0.164215
0.497772 0.563416 0.170868
0.516541 0.564545 0.177185
0.535492 0.565704 0.183502
0.554779 0.566864 0.189606
0.574707 0.567963 0.195404
0.595459 0.569153 0.201141
0.617279 0.570312 0.206635
0.640350 0.571472 0.212036
0.664917 0.572601 0.217316
0.691101 0.573761 0.222290
0.719147 0.574951 0.227264
0.749176 0.576080 0.232056
0.781250 0.577271 0.236511
0.815277 0.578369 0.241028
0.850830 0.579559 0.245361
0.887421 0.580719 0.249451
0.924744 0.581879 0.253540
0.962341 0.583008 0.257385
1.000000 0.584167 0.261200
0.216553 0.573303 0.089508
0.253174 0.574341 0.097473
0.282806 0.575409 0.105408
0.307251 0.576416 0.113007
0.328583 0.577515 0.120789
0.348297 0.578522 0.128296
0.367767 0.579651 0.135742
0.387054 0.580719 0.143158
0.406097 0.581818 0.150146
0.425110 0.582886 0.157227
0.443970 0.584045 0.164032
0.462708 0.585114 0.170532
0.481476 0.586243 0.177032
0.500153 0.587341 0.183319
0.518799 0.588470 0.189301
0.537659 0.589569 0.195282
0.556885 0.590729 0.200928
0.576721 0.591797 0.206512
0.597443 0.592987 0.211914
0.619202 0.594116 0.217072
0.642273 0.595245 0.222168
0.666779 0.596375 0.227112
0.692902 0.597534 0.231812
0.720856 0.598663 0.236420
0.750793 0.599823 0.240936
0.782776 0.600952 0.245117
0.816620 0.602081 0.249359
0.851929 0.603210 0.253326
0.888275 0.604340 0.257263
0.925293 0.605438 0.261078
0.962646 0.606567 0.264679
1.000000 0.607697 0.268311
0.224304 0.598694 0.105011
0.259277 0.599731 0.112823
0.287567 0.600769 0.120392
0.311279 0.601807 0.128052
0.332092 0.602875 0.135559
0.351685 0.603882 0.142761
0.371002 0.604980 0.149994
0.390106 0.606049 0.157013
0.409088 0.607147 0.163727
0.427917 0.608246 0.170349
0.446686 0.609344 0.176910
0.465332 0.610413 0.183014
0.483948 0.611511 0.189178
0.502502 0.612579 0.195007
0.521057 0.613708 0.200745
0.539856 0.614807 0.206329
0.558960 0.615906 0.211670
0.578796 0.617035 0.216949
0.599457 0.618195 0.222046
0.621216 0.619232 0.226868
0.644196 0.620392 0.231689
0.668671 0.621490 0.236328
0.694733 0.622620 0.240692
0.722626 0.623718 0.245026
0.752411 0.624847 0.249268
0.784241 0.625946 0.253235
0.817932 0.627045 0.257172
0.852997 0.628143 0.260895
0.889160 0.629272 0.264618
0.925873 0.630341 0.268219
0.962952 0.631439 0.271576
1.000000 0.632507 0.274963
0.231750 0.625732 0.120239
0.265137 0.626740 0.127899
0.292328 0.627747 0.135193
0.315277 0.628784 0.142578
0.335663 0.629852 0.149841
0.355042 0.630859 0.156647
0.374237 0.631927 0.163513
0.393219 0.633026 0.170227
0.412079 0.634064 0.176575
0.430817 0.635162 0.182861
0.449432 0.636200 0.188995
0.467926 0.637268 0.194824
0.486450 0.638367 0.200623
0.504852 0.639435 0.206085
0.523315 0.640533 0.211548
0.542023 0.641602 0.216827
0.561096 0.642670 0.221802
0.580872 0.643799 0.226776
0.601471 0.644897 0.231537
0.623199 0.645966 0.236115
0.646149 0.647034 0.240570
0.670502 0.648163 0.244934
0.696564 0.649200 0.249054
0.724304 0.650299 0.253113
0.753998 0.651367 0.256989
0.785736 0.652435 0.260803
0.819214 0.653503 0.264526
0.854065 0.654602 0.268036
0.889954 0.655640 0.271484
0.926422 0.656708 0.274872
0.963226 0.657745 0.278076
1.000000 0.658783 0.281219
0.239044 0.654633 0.135040
0.270874 0.655609 0.142365
0.296967 0.656616 0.149475
0.319153 0.657654 0.156494
0.339172 0.658691 0.163391
0.358398 0.659698 0.169861
0.377472 0.660736 0.176392
0.396362 0.661804 0.182739
0.415039 0.662811 0.188690
0.433655 0.663879 0.194702
0.452118 0.664886 0.200348
0.470551 0.665955 0.205963
0.488922 0.667023 0.211426
0.507233 0.668060 0.216583
0.525604 0.669098 0.221680
0.544189 0.670197 0.226624
0.563202 0.671204 0.231262
0.582916 0.672272 0.235962
0.603516 0.673340 0.240479
0.625153 0.674377 0.244720
0.648041 0.675446 0.248932
0.672394 0.676483 0.253021
0.698334 0.677490 0.256897
0.726044 0.678589 0.260712
0.755585 0.679596 0.264343
0.787170 0.680634 0.267975
0.820496 0.681671 0.271423
0.855164 0.682648 0.274719
0.890717 0.683655 0.277985
0.926971 0.684692 0.281158
0.963531 0.685669 0.284149
1.000000 0.686707 0.287140
0.246033 0.685577 0.149261
0.276428 0.686615 0.156342
0.301514 0.687561 0.163025
0.323059 0.688568 0.169739
0.342712 0.689575 0.176270
0.361786 0.690552 0.182404
0.380707 0.691559 0.188568
0.399506 0.692535 0.194550
0.418030 0.693542 0.200195
0.436493 0.694580 0.205841
0.454834 0.695557 0.211151
0.473175 0.696594 0.216431
0.491425 0.697662 0.221558
0.509613 0.698608 0.226379
0.527863 0.699646 0.231201
0.546387 0.700684 0.235870
0.565338 0.701660 0.240234
0.584991 0.702637 0.244598
0.605499 0.703705 0.248840
0.627106 0.704681 0.252838
0.649963 0.705688 0.256805
0.674255 0.706696 0.260498
0.700073 0.707672 0.264252
0.727692 0.708649 0.267853
0.757202 0.709656 0.271210
0.788605 0.710602 0.274628
0.821747 0.711578 0.277893
0.856140 0.712555 0.281006
0.891541 0.713501 0.284088
0.927490 0.714478 0.287048
0.963776 0.715393 0.289917
1.000000 0.716309 0.292725
0.252716 0.718933 0.162842
0.281830 0.719849 0.169586
0.305939 0.720795 0.175934
0.326874 0.721741 0.182220
0.346252 0.722687 0.188385
0.365204 0.723633 0.194244
0.383972 0.724579 0.200073
0.402588 0.725555 0.205688
0.420990 0.726501 0.210999
0.439362 0.727448 0.216309
0.457611 0.728394 0.221313
0.475769 0.729370 0.226257
0.493866 0.730347 0.231049
0.511963 0.731293 0.235626
0.530090 0.732269 0.240143
0.548523 0.733185 0.244507
0.567444 0.734161 0.248627
0.587006 0.735138 0.252716
0.607513 0.736084 0.256714
0.629059 0.736969 0.260437
0.651825 0.737915 0.264160
0.676056 0.738831 0.267670
0.701843 0.739777 0.271149
0.729370 0.740662 0.274536
0.758728 0.741638 0.277740
0.790039 0.742523 0.280914
0.822937 0.743408 0.283997
0.857178 0.744324 0.286926
0.892334 0.745209 0.289825
0.928040 0.746094 0.292633
0.964020 0.746948 0.295349
1.000000 0.747772 0.298004
0.259277 0.754639 0.175751
0.287048 0.755615 0.182098
0.310211 0.756409 0.188110
0.330627 0.757294 0.194092
0.349792 0.758240 0.199951
0.368561 0.759064 0.205414
0.387238 0.760010 0.210907
0.405670 0.760864 0.216034
0.424011 0.761719 0.221222
0.442230 0.762695 0.226166
0.460297 0.763550 0.230835
0.478363 0.764404 0.235535
0.496338 0.765320 0.240051
0.514282 0.766174 0.244293
0.532349 0.767059 0.248535
0.550690 0.767944 0.252625
0.569550 0.768799 0.256500
0.589050 0.769684 0.260345
0.609497 0.770508 0.263977
0.630981 0.771393 0.267548
0.653748 0.772247 0.271057
0.677887 0.773071 0.274384
0.703583 0.773926 0.277649
0.731018 0.774780 0.280823
0.760254 0.775574 0.283844
0.791443 0.776428 0.286865
0.824158 0.777252 0.289764
0.858154 0.778046 0.292511
0.893066 0.778839 0.295288
0.928497 0.779541 0.297852
0.964294 0.780365 0.300476
1.000000 0.781189 0.303009
0.265472 0.792847 0.187958
0.292053 0.793671 0.193909
0.314453 0.794434 0.199615
0.334381 0.795227 0.205261
0.353302 0.796021 0.210754
0.371948 0.796753 0.215881
0.390442 0.797577 0.221069
0.408752 0.798370 0.225891
0.426941 0.799164 0.230713
0.445068 0.799927 0.235382
0.462982 0.800751 0.239777
0.480927 0.801483 0.244171
0.498810 0.802277 0.248444
0.516632 0.803070 0.252411
0.534546 0.803833 0.256409
0.552826 0.804565 0.260254
0.571564 0.805359 0.263885
0.591095 0.806122 0.267487
0.611420 0.806824 0.270874
0.632904 0.807617 0.274292
0.655579 0.808319 0.277588
0.679657 0.809082 0.280670
0.705292 0.809814 0.283783
0.732666 0.810547 0.286774
0.761780 0.811249 0.289642
0.792725 0.811920 0.292450
0.825317 0.812653 0.295227
0.859131 0.813324 0.297791
0.893799 0.814026 0.300415
0.929047 0.814697 0.302887
0.964539 0.815369 0.305328
1.000000 0.815979 0.307739
0.271454 0.832855 0.199493
0.296906 0.833496 0.205139
0.318542 0.834198 0.210480
0.338043 0.834839 0.215759
0.356781 0.835510 0.220795
0.375305 0.836151 0.225800
0.393677 0.836853 0.230591
0.411804 0.837524 0.235168
0.429901 0.838104 0.239685
0.447845 0.838806 0.244049
0.465668 0.839447 0.248230
0.483459 0.840088 0.252319
0.501251 0.840759 0.256317
0.518890 0.841370 0.260040
0.536743 0.842041 0.263794
0.554901 0.842621 0.267334
