3d-lut/luts/Cobi 3.CUBE
#Created by: Adobe Photoshop Export Color Lookup Plugin
#Copyright: (C) Copyright 2017 RocketStock
TITLE "Untitled"
#LUT size
LUT_3D_SIZE 8
#data domain
#LUT data points
DOMAIN_MIN 0.000000 0.000000 0.000000
DOMAIN_MAX 0.903226 0.903226 0.903226
0.065491 0.001709 0.000000
0.264038 0.012970 0.000000
0.358765 0.026855 0.000000
0.440308 0.042999 0.000000
0.521515 0.060822 0.000000
0.609375 0.080261 0.000000
0.721710 0.100586 0.000000
0.872314 0.121490 0.015564
0.090851 0.221893 0.000000
0.275818 0.229675 0.000000
0.366547 0.238007 0.000000
0.447296 0.246582 0.000000
0.527771 0.255371 0.000000
0.615265 0.264191 0.014618
0.727142 0.272858 0.045685
0.875458 0.281464 0.077667
0.122559 0.328735 0.000000
0.289276 0.333740 0.000000
0.375732 0.339111 0.000000
0.455414 0.344818 0.013489
0.534790 0.350830 0.044739
0.621857 0.357056 0.076508
0.733063 0.363495 0.108185
0.878815 0.370087 0.138489
0.157471 0.416626 0.000000
0.303497 0.421387 0.012543
0.386139 0.426453 0.043701
0.464447 0.431671 0.075439
0.542480 0.437073 0.107208
0.628998 0.442566 0.137421
0.739349 0.448212 0.165558
0.882233 0.453857 0.190674
0.192200 0.503998 0.042511
0.317871 0.508331 0.074463
0.397339 0.512787 0.105988
0.474060 0.517426 0.136505
0.550629 0.522125 0.164703
0.636536 0.526917 0.189911
0.745880 0.531738 0.212494
0.885742 0.536591 0.232269
0.224304 0.598694 0.105011
0.332092 0.602875 0.135559
0.409088 0.607147 0.163727
0.483948 0.611511 0.189178
0.558960 0.615906 0.211670
0.644196 0.620392 0.231689
0.752411 0.624847 0.249268
0.889160 0.629272 0.264618
0.252716 0.718933 0.162842
0.346252 0.722687 0.188385
0.420990 0.726501 0.210999
0.493866 0.730347 0.231049
0.567444 0.734161 0.248627
0.651825 0.737915 0.264160
0.758728 0.741638 0.277740
0.892334 0.745209 0.289825
0.277191 0.874054 0.210327
0.360260 0.876099 0.230377
0.432800 0.878174 0.248138
0.503601 0.880188 0.263672
0.575684 0.882080 0.277344
0.659210 0.884033 0.289490
0.764709 0.885742 0.300201
0.895203 0.887451 0.309906
0.069550 0.005463 0.122650
0.266083 0.017822 0.135345
0.360077 0.032501 0.149628
0.441467 0.049347 0.165009
0.522614 0.067749 0.180878
0.610382 0.087616 0.196899
0.722687 0.108154 0.212646
0.872864 0.129089 0.227997
0.096375 0.224670 0.149139
0.278259 0.232727 0.164520
0.368134 0.241150 0.180328
0.448761 0.249847 0.196381
0.528961 0.258606 0.212128
0.616425 0.267365 0.227570
0.728210 0.276031 0.242188
0.876099 0.284546 0.256073
0.128937 0.330536 0.179840
0.291901 0.335663 0.195801
0.377625 0.341156 0.211670
0.457062 0.346954 0.226990
0.536163 0.353088 0.241730
0.623169 0.359436 0.255646
0.734222 0.365906 0.268646
0.879486 0.372528 0.280914
0.164154 0.418365 0.211182
0.306152 0.423218 0.226501
0.388153 0.428314 0.241241
0.466187 0.433594 0.255127
0.543945 0.439056 0.268250
0.630371 0.444611 0.280457
0.740601 0.450317 0.291962
0.882904 0.455963 0.302795
0.198486 0.505615 0.240814
0.320526 0.509979 0.254700
0.399536 0.514496 0.267883
0.475861 0.519104 0.280060
0.552185 0.523865 0.291656
0.637939 0.528687 0.302460
0.747101 0.533508 0.312805
0.886414 0.538330 0.322723
0.229889 0.600189 0.267365
0.334747 0.604431 0.279694
0.411316 0.608734 0.291229
0.485779 0.613129 0.302124
0.560577 0.617584 0.312500
0.645630 0.622009 0.322449
0.753601 0.626465 0.332123
0.889709 0.630829 0.341553
0.257599 0.720306 0.290863
0.348877 0.724091 0.301819
0.423248 0.727905 0.312103
0.495728 0.731720 0.322113
0.568970 0.735535 0.331787
0.653259 0.739319 0.341278
0.759888 0.742920 0.350403
0.892853 0.746490 0.359222
0.281372 0.874817 0.311798
0.362854 0.876892 0.321808
0.434967 0.878906 0.331451
0.505371 0.880890 0.340973
0.577148 0.882843 0.350098
0.660553 0.884644 0.358917
0.765778 0.886414 0.367249
0.895691 0.888062 0.375092
0.074005 0.009674 0.285583
0.268188 0.022949 0.290527
0.361450 0.038391 0.296051
0.442749 0.055939 0.302155
0.523712 0.074890 0.308594
0.611450 0.095093 0.315460
0.723663 0.115967 0.322662
0.873474 0.136688 0.330170
0.102020 0.227570 0.295868
0.280731 0.235809 0.301971
0.369781 0.244293 0.308350
0.450226 0.253052 0.315247
0.530243 0.261810 0.322388
0.617615 0.270538 0.329895
0.729279 0.279144 0.337677
0.876709 0.287628 0.345795
0.135376 0.332367 0.308167
0.294525 0.337616 0.314972
0.379486 0.343262 0.322174
0.458710 0.349213 0.329651
0.537567 0.355377 0.337433
0.624481 0.361786 0.345551
0.735382 0.368317 0.353760
0.880066 0.375000 0.362183
0.170685 0.420105 0.321930
0.308838 0.425049 0.329376
0.390228 0.430237 0.337189
0.467957 0.435577 0.345245
0.545441 0.441101 0.353485
0.631744 0.446686 0.361847
0.741821 0.452393 0.370331
0.883545 0.458069 0.378845
0.204620 0.507172 0.336945
0.323181 0.511627 0.344971
0.401703 0.516174 0.353241
0.477722 0.520874 0.361603
0.553711 0.525604 0.370087
0.639404 0.530426 0.378540
0.748322 0.535278 0.387024
0.886993 0.540131 0.395294
0.235352 0.601715 0.352905
0.337341 0.605957 0.361328
0.413544 0.610382 0.369812
0.487671 0.614746 0.378265
0.562164 0.619171 0.386749
0.647064 0.623627 0.395050
0.754822 0.628082 0.403290
0.890320 0.632446 0.411285
0.262329 0.721680 0.369476
0.351501 0.725494 0.377991
0.425446 0.729340 0.386414
0.497528 0.733124 0.394806
0.570557 0.736938 0.403015
0.654663 0.740631 0.411041
0.761047 0.744263 0.418762
0.893463 0.747742 0.426117
0.285370 0.875549 0.386169
0.365448 0.877625 0.394531
0.437073 0.879608 0.402740
0.507111 0.881592 0.410797
0.578613 0.883453 0.418488
0.661865 0.885315 0.425903
0.766815 0.886993 0.432892
0.896179 0.888641 0.439484
0.078674 0.014191 0.376678
0.270386 0.028381 0.380463
0.362854 0.044586 0.384796
0.444031 0.062714 0.389618
0.524872 0.082275 0.394897
0.612549 0.102631 0.400574
0.724670 0.123566 0.406616
0.874084 0.144165 0.412933
0.107910 0.230499 0.384613
0.283203 0.238831 0.389465
0.371490 0.247498 0.394684
0.451721 0.256256 0.400391
0.531555 0.265015 0.406372
0.618866 0.273712 0.412720
0.730408 0.282288 0.419312
0.877350 0.290619 0.426056
0.141876 0.334259 0.394531
0.297211 0.339691 0.400177
0.381439 0.345367 0.406189
0.460419 0.351440 0.412506
0.538971 0.357666 0.419067
0.625793 0.364166 0.425812
0.736542 0.370728 0.432739
0.880768 0.377441 0.439819
0.177155 0.421875 0.406006
0.311523 0.426910 0.412262
0.392334 0.432190 0.418823
0.469757 0.437622 0.425598
0.546967 0.443115 0.432526
0.633179 0.448792 0.439575
0.743011 0.454437 0.446655
0.884186 0.460175 0.453766
0.210632 0.508789 0.418640
0.325806 0.513245 0.425354
0.403870 0.517914 0.432312
0.479523 0.522583 0.439301
0.555267 0.527405 0.446411
0.640839 0.532227 0.453552
0.749542 0.537079 0.460602
0.887634 0.541931 0.467590
0.240753 0.603302 0.432098
0.340027 0.607574 0.439087
0.415771 0.611938 0.446228
0.489532 0.616364 0.453278
0.563721 0.620819 0.460388
0.648499 0.625275 0.467346
0.756012 0.629669 0.474213
0.890930 0.634003 0.480865
0.266846 0.723053 0.445953
0.354126 0.726898 0.453064
0.427673 0.730743 0.460114
0.499359 0.734558 0.467102
0.572083 0.738342 0.473999
0.656006 0.741974 0.480652
0.762146 0.745544 0.487122
0.893951 0.748962 0.493195
0.289246 0.876343 0.459869
0.368011 0.878387 0.466888
0.439209 0.880371 0.473755
0.508820 0.882263 0.480438
0.580109 0.884186 0.486847
0.663147 0.885925 0.493011
0.767792 0.887665 0.498871
0.896667 0.889191 0.504211
0.083679 0.019196 0.465912
0.272614 0.034088 0.469116
0.364410 0.051117 0.472778
0.445404 0.069733 0.476807
0.526062 0.089661 0.481201
0.613678 0.110260 0.485901
0.725677 0.131165 0.490875
0.874664 0.151581 0.496094
0.114014 0.233521 0.472656
0.285767 0.242004 0.476685
0.373230 0.250702 0.481018
0.453278 0.259491 0.485779
0.532928 0.268250 0.490723
0.620117 0.276886 0.495941
0.731537 0.285400 0.501343
0.877960 0.293671 0.506897
0.148438 0.336212 0.480865
0.299866 0.341736 0.485596
0.383392 0.347565 0.490509
0.462097 0.353729 0.495758
0.540436 0.360016 0.501129
0.627136 0.366577 0.506744
0.737732 0.373169 0.512421
0.881378 0.379913 0.518250
0.183533 0.423737 0.490356
0.314270 0.428894 0.495575
0.394440 0.434143 0.500916
0.471588 0.439606 0.506561
0.548492 0.445190 0.512207
0.634583 0.450867 0.518066
0.744202 0.456543 0.523926
0.884857 0.462219 0.529877
0.216461 0.510406 0.500793
0.328491 0.514954 0.506317
0.406067 0.519592 0.512054
0.481445 0.524384 0.517883
0.556854 0.529175 0.523773
0.642273 0.534027 0.529694
0.750702 0.538818 0.535583
0.888275 0.543671 0.541504
0.245911 0.604828 0.511871
0.342651 0.609161 0.517670
0.418030 0.613586 0.523590
0.491333 0.617981 0.529480
0.565308 0.622467 0.535431
0.649933 0.626892 0.541290
0.757172 0.631287 0.547119
0.891541 0.635590 0.552826
0.271393 0.724457 0.523376
0.356720 0.728302 0.529297
0.429871 0.732147 0.535217
0.501160 0.735901 0.541107
0.573608 0.739655 0.546967
0.657379 0.743286 0.552612
0.763245 0.746826 0.558197
0.894501 0.750183 0.563477
0.292999 0.877106 0.535004
0.370514 0.879089 0.540924
0.441315 0.881073 0.546753
0.510529 0.882996 0.552429
0.581573 0.884796 0.557983
0.664368 0.886597 0.563293
0.768799 0.888184 0.568359
0.897125 0.889740 0.573059
0.088898 0.024384 0.559448
0.274963 0.040070 0.562256
0.365936 0.057770 0.565369
0.446747 0.076874 0.568909
0.527283 0.097168 0.572723
0.614807 0.117889 0.576813
0.726746 0.138702 0.581146
0.875214 0.158813 0.585754
0.120209 0.236542 0.565277
0.288361 0.245178 0.568787
0.375092 0.253967 0.572571
0.454834 0.262726 0.576660
0.534302 0.271423 0.581024
0.621368 0.280029 0.585602
0.732666 0.288452 0.590454
0.878601 0.296631 0.595398
0.155029 0.338196 0.572418
0.302551 0.343842 0.576569
0.385376 0.349762 0.580841
0.463806 0.355988 0.585480
0.541931 0.362427 0.590302
0.628510 0.368958 0.595245
0.738953 0.375671 0.600372
0.882019 0.382385 0.605621
0.189911 0.425568 0.580719
0.316925 0.430786 0.585327
0.396576 0.436127 0.590118
0.473389 0.441681 0.595093
0.550049 0.447266 0.600189
0.636017 0.452942 0.605438
0.745422 0.458588 0.610779
0.885498 0.464325 0.616211
0.222260 0.512085 0.589935
0.331146 0.516632 0.594940
0.408295 0.521332 0.600037
0.483276 0.526154 0.605286
0.558411 0.530914 0.610626
0.643707 0.535767 0.615997
0.751923 0.540588 0.621399
0.888916 0.545410 0.626801
0.250946 0.606445 0.599854
0.345245 0.610779 0.605072
0.420197 0.615204 0.610443
0.493256 0.619629 0.615845
0.566864 0.624084 0.621246
0.651337 0.628540 0.626617
0.758301 0.632843 0.631927
0.892059 0.637115 0.637146
0.275696 0.725861 0.610291
0.359314 0.729736 0.615631
0.432007 0.733551 0.621063
0.502930 0.737274 0.626434
0.575134 0.741028 0.631744
0.658752 0.744598 0.636932
0.764343 0.748108 0.641968
0.895050 0.751404 0.646790
0.296722 0.877808 0.620880
0.373016 0.879852 0.626251
0.443390 0.881805 0.631592
0.512146 0.883667 0.636780
0.582977 0.885468 0.641815
0.665619 0.887177 0.646606
0.769745 0.888794 0.651184
0.897583 0.890228 0.655426
0.094360 0.029877 0.677429
0.277313 0.046295 0.680054
0.367523 0.064636 0.682983
0.448181 0.084229 0.686157
0.528503 0.104767 0.689636
0.615997 0.125702 0.693359
0.727814 0.146240 0.697235
0.875854 0.166046 0.701385
0.126617 0.239716 0.682861
0.290924 0.248352 0.686066
0.376923 0.257172 0.689514
0.456482 0.265930 0.693237
0.535675 0.274597 0.697113
0.622681 0.283081 0.701233
0.733826 0.291473 0.705505
0.879242 0.299652 0.709930
0.161621 0.340210 0.689392
0.305206 0.345978 0.693085
0.387421 0.352081 0.696991
0.465546 0.358337 0.701080
0.543427 0.364807 0.705383
0.629852 0.371399 0.709778
0.740173 0.378113 0.714294
0.882660 0.384888 0.718872
0.196167 0.427429 0.696869
0.319580 0.432739 0.700958
0.398712 0.438141 0.705200
0.475220 0.443695 0.709625
0.551575 0.449310 0.714111
0.637421 0.455078 0.718719
0.746643 0.460724 0.723389
0.886169 0.466370 0.728058
0.227875 0.513702 0.705048
0.333801 0.518341 0.709503
0.410492 0.523071 0.713989
0.485107 0.527863 0.718597
0.559998 0.532684 0.723236
0.645111 0.537567 0.727905
0.753143 0.542389 0.732513
0.889496 0.547150 0.737091
0.255859 0.608002 0.713867
0.347931 0.612427 0.718445
0.422424 0.616821 0.723083
0.495056 0.621277 0.727753
0.568420 0.625702 0.732361
0.652740 0.630157 0.736969
0.759430 0.634399 0.741455
0.892639 0.638641 0.745819
0.279846 0.727264 0.722931
0.361877 0.731079 0.727539
0.434174 0.734894 0.732239
0.504700 0.738678 0.736816
0.576630 0.742310 0.741302
0.660065 0.745880 0.745728
0.765381 0.749329 0.749817
0.895538 0.752563 0.753876
0.300232 0.878571 0.732086
0.375458 0.880554 0.736664
0.445435 0.882477 0.741180
0.513855 0.884308 0.745544
0.584351 0.886108 0.749756
0.666809 0.887817 0.753723
0.770660 0.889343 0.757477
0.897980 0.890717 0.760895
0.099945 0.035706 0.846436
0.279755 0.052795 0.848022
0.369171 0.071716 0.849854
0.449677 0.091797 0.851807
0.529785 0.112396 0.853912
0.617218 0.133301 0.856110
0.728882 0.153534 0.858429
0.876465 0.173065 0.860809
0.133057 0.242889 0.849792
0.293579 0.251556 0.851715
0.378815 0.260376 0.853821
0.458099 0.269073 0.856018
0.537048 0.277710 0.858337
0.623962 0.286133 0.860718
0.734955 0.294495 0.863190
0.879822 0.302612 0.865692
0.168335 0.342316 0.853760
0.307861 0.348175 0.855927
0.389496 0.354340 0.858276
0.467316 0.360687 0.860687
0.544922 0.367218 0.863098
0.631256 0.373840 0.865631
0.741364 0.380585 0.868164
0.883331 0.387329 0.870667
0.202301 0.429352 0.858185
0.322235 0.434692 0.860596
0.400879 0.440155 0.863007
0.477051 0.445770 0.865540
0.553162 0.451447 0.868103
0.638855 0.457092 0.870575
0.747864 0.462799 0.873199
0.886749 0.468414 0.875732
0.233337 0.515381 0.862946
0.336426 0.520111 0.865448
0.412689 0.524811 0.868011
0.487000 0.529663 0.870544
0.561584 0.534515 0.873108
0.646545 0.539337 0.875641
0.754395 0.544159 0.878143
0.890106 0.548859 0.880524
0.260620 0.609589 0.867920
0.350555 0.614014 0.870483
0.424652 0.618439 0.873016
0.496918 0.622894 0.875549
0.569977 0.627319 0.878052
0.654144 0.631714 0.880463
0.760590 0.635956 0.882812
0.893188 0.640106 0.885132
0.283936 0.728668 0.872955
0.364502 0.732483 0.875427
0.436340 0.736298 0.877960
0.506470 0.740051 0.880371
0.578125 0.743652 0.882721
0.661377 0.747192 0.885010
0.766418 0.750488 0.887146
0.896027 0.753662 0.889160
0.303650 0.879333 0.877838
0.377930 0.881287 0.880280
0.447418 0.883179 0.882660
0.515442 0.885010 0.884979
0.585693 0.886749 0.887054
0.667999 0.888367 0.889099
0.771576 0.889832 0.890900
0.898407 0.891235 0.892639
