3d-lut/luts/Cobi 3.CUBE
#Created by: Adobe Photoshop Export Color Lookup Plugin
#Copyright: (C) Copyright 2017 RocketStock
TITLE "Untitled"
#LUT size
LUT_3D_SIZE 5
#data domain
#LUT data points
DOMAIN_MIN 0.000000 0.000000 0.000000
DOMAIN_MAX 0.903226 0.903226 0.903226
0.065491 0.001709 0.000000
0.338135 0.023102 0.000000
0.480804 0.051727 0.000000
0.634460 0.085236 0.000000
0.872314 0.121490 0.015564
0.114197 0.306519 0.000000
0.352997 0.315552 0.000000
0.493042 0.325806 0.013885
0.645081 0.336914 0.068817
0.877991 0.348694 0.123840
0.175018 0.460327 0.011963
0.372009 0.468414 0.067017
0.507629 0.476990 0.121979
0.657471 0.485962 0.171692
0.884033 0.494965 0.212769
0.231750 0.625732 0.120239
0.393219 0.633026 0.170227
0.523315 0.640533 0.211548
0.670502 0.648163 0.244934
0.889954 0.655640 0.271484
0.277191 0.874054 0.210327
0.414886 0.877655 0.243835
0.538910 0.881134 0.270721
0.683197 0.884399 0.292236
0.895203 0.887451 0.309906
0.072937 0.008606 0.257141
0.340515 0.032837 0.268280
0.482849 0.063538 0.281128
0.636261 0.098358 0.294891
0.873352 0.134827 0.309143
0.125061 0.309692 0.280640
0.356293 0.319183 0.294403
0.495605 0.329742 0.308624
0.647308 0.341156 0.323273
0.879059 0.353088 0.338318
0.186340 0.463196 0.308167
0.375854 0.471527 0.322784
0.510529 0.480255 0.337799
0.659882 0.489288 0.353302
0.885132 0.498322 0.368744
0.241180 0.628357 0.337341
0.397278 0.635742 0.352753
0.526306 0.643341 0.368225
0.672974 0.650940 0.383362
0.890961 0.658356 0.397919
0.284393 0.875397 0.367737
0.418823 0.878937 0.382904
0.541718 0.882355 0.397461
0.685394 0.885559 0.411102
0.896088 0.888489 0.423370
0.081085 0.016663 0.421112
0.343079 0.043518 0.427582
0.484985 0.075897 0.435394
0.638123 0.111694 0.444397
0.874359 0.147858 0.454315
0.136383 0.313019 0.435120
0.359680 0.322968 0.444092
0.498260 0.333832 0.453979
0.649567 0.345490 0.464600
0.880219 0.357574 0.475616
0.197296 0.466187 0.453644
0.379761 0.474670 0.464203
0.513428 0.483551 0.475281
0.662292 0.492554 0.486511
0.886261 0.501617 0.497772
0.250183 0.631042 0.474884
0.401367 0.638550 0.486145
0.529266 0.646149 0.497406
0.675354 0.653687 0.508423
0.891968 0.660950 0.518982
0.291107 0.876678 0.497009
0.422699 0.880249 0.508057
0.544464 0.883545 0.518646
0.687561 0.886658 0.528564
0.896912 0.889435 0.537537
0.090179 0.025726 0.585510
0.345825 0.054871 0.590607
0.487274 0.088806 0.596680
0.640167 0.125153 0.603699
0.875397 0.160645 0.611420
0.147888 0.316559 0.596466
0.363220 0.326843 0.603394
0.501007 0.338074 0.611145
0.651825 0.349854 0.619507
0.881317 0.362091 0.628326
0.208038 0.469238 0.610901
0.383728 0.477875 0.619232
0.516327 0.486816 0.628021
0.664734 0.495880 0.637146
0.887360 0.504913 0.646332
0.258667 0.633759 0.627716
0.405426 0.641266 0.636841
0.532166 0.648865 0.646027
0.677765 0.656403 0.655212
0.892944 0.663574 0.664001
0.297577 0.877991 0.645721
0.426514 0.881470 0.654877
0.547119 0.884735 0.663727
0.689606 0.887756 0.671906
0.897675 0.890320 0.679291
0.099945 0.035706 0.846436
0.348755 0.066803 0.849365
0.489655 0.102020 0.852783
0.642212 0.138367 0.856689
0.876465 0.173065 0.860809
0.159485 0.320221 0.852692
0.366882 0.330872 0.856537
0.503784 0.342316 0.860687
0.654205 0.354340 0.865021
0.882416 0.366577 0.869446
0.218262 0.472351 0.860535
0.387695 0.481140 0.864899
0.519318 0.490173 0.869293
0.667175 0.499268 0.873779
0.888428 0.508148 0.878143
0.266785 0.636475 0.869141
0.409454 0.644104 0.873627
0.535065 0.651672 0.878021
0.680054 0.659058 0.882233
0.893951 0.666046 0.886169
0.303650 0.879333 0.877838
0.430237 0.882751 0.882080
0.549744 0.885895 0.886047
0.691589 0.888733 0.889557
0.898407 0.891235 0.892639
