3d-lut/luts/Contrail 35.CUBE
#Created by: Adobe Photoshop Export Color Lookup Plugin
#Copyright: (C) Copyright 2017 RocketStock
TITLE "Untitled"
#LUT size
LUT_3D_SIZE 8
#data domain
#LUT data points
DOMAIN_MIN 0.000000 0.000000 0.000000
DOMAIN_MAX 0.903226 0.903226 0.903226
0.004028 0.003418 0.012604
0.059265 0.003601 0.012756
0.148132 0.003967 0.012970
0.308014 0.004456 0.013306
0.543640 0.005188 0.013855
0.748871 0.005920 0.014374
0.873596 0.006592 0.014832
0.950256 0.007080 0.015167
0.004730 0.058350 0.013916
0.060120 0.058624 0.014099
0.149231 0.059082 0.014374
0.309265 0.059784 0.014801
0.544830 0.060730 0.015350
0.749542 0.061676 0.015930
0.873901 0.062469 0.016388
0.950378 0.063080 0.016754
0.005798 0.146912 0.015717
0.061493 0.147278 0.015930
0.150879 0.147888 0.016235
0.311127 0.148743 0.016754
0.546600 0.149872 0.017426
0.750488 0.151062 0.018036
0.874329 0.151947 0.018585
0.950562 0.152649 0.018951
0.007782 0.306122 0.018524
0.063904 0.306641 0.018829
0.153687 0.307343 0.019165
0.314240 0.308380 0.019745
0.549255 0.309692 0.020477
0.751862 0.310913 0.021210
0.874969 0.311890 0.021729
0.950745 0.312653 0.022156
0.010651 0.540863 0.022064
0.067261 0.541382 0.022369
0.157379 0.541962 0.022797
0.318176 0.542938 0.023468
0.552643 0.544067 0.024231
0.753601 0.545166 0.024963
0.875793 0.545959 0.025482
0.950958 0.546600 0.025909
0.013611 0.745789 0.025543
0.070709 0.746063 0.025879
0.161224 0.746368 0.026337
0.322113 0.746857 0.026978
0.555847 0.747437 0.027802
0.755219 0.748016 0.028503
0.876434 0.748383 0.029022
0.951233 0.748627 0.029419
0.015991 0.870300 0.028198
0.073425 0.870453 0.028595
0.164185 0.870605 0.029053
0.325134 0.870819 0.029694
0.558228 0.871033 0.030457
0.756317 0.871277 0.031158
0.876953 0.871429 0.031616
0.951355 0.871552 0.032013
0.017792 0.946960 0.030304
0.075500 0.947021 0.030640
0.166351 0.947052 0.031128
0.327301 0.947144 0.031769
0.559937 0.947235 0.032471
0.757141 0.947296 0.033112
0.877289 0.947327 0.033600
0.951477 0.947388 0.033905
0.004150 0.003479 0.066528
0.059387 0.003693 0.066650
0.148376 0.004028 0.066925
0.308228 0.004578 0.067383
0.543854 0.005341 0.067993
0.748993 0.006073 0.068604
0.873688 0.006714 0.069122
0.950287 0.007233 0.069519
0.004822 0.058472 0.068115
0.060272 0.058746 0.068329
0.149445 0.059235 0.068634
0.309540 0.059937 0.069153
0.545044 0.060883 0.069794
0.749695 0.061890 0.070435
0.873962 0.062653 0.071014
0.950378 0.063263 0.071442
0.006012 0.147034 0.070251
0.061737 0.147461 0.070526
0.151123 0.148041 0.070923
0.311462 0.148926 0.071472
0.546875 0.150085 0.072205
0.750610 0.151245 0.072968
0.874390 0.152130 0.073517
0.950562 0.152863 0.074005
0.008026 0.306335 0.073578
0.064178 0.306824 0.073914
0.153961 0.307556 0.074341
0.314545 0.308594 0.075012
0.549561 0.309875 0.075806
0.752014 0.311188 0.076599
0.875061 0.312134 0.077240
0.950775 0.312866 0.077698
0.010895 0.541046 0.077759
0.067535 0.541534 0.078156
0.157776 0.542175 0.078613
0.318573 0.543152 0.079315
0.552948 0.544312 0.080200
0.753754 0.545380 0.080994
0.875824 0.546143 0.081635
0.950989 0.546783 0.082062
0.013885 0.745911 0.081787
0.071014 0.746155 0.082184
0.161591 0.746490 0.082733
0.322479 0.746948 0.083466
0.556152 0.747528 0.084351
0.755341 0.748077 0.085114
0.876526 0.748474 0.085754
0.951263 0.748718 0.086151
0.016266 0.870361 0.084991
0.073730 0.870483 0.085358
0.164490 0.870636 0.085907
0.325439 0.870850 0.086609
0.558472 0.871094 0.087463
0.756470 0.871307 0.088196
0.877045 0.871460 0.088776
0.951385 0.871582 0.089142
0.018097 0.946991 0.087372
0.075806 0.947052 0.087769
0.166718 0.947083 0.088287
0.327637 0.947144 0.089020
0.560181 0.947235 0.089813
0.757294 0.947327 0.090485
0.877380 0.947357 0.090973
0.951477 0.947388 0.091370
0.004303 0.003571 0.151703
0.059631 0.003815 0.151886
0.148590 0.004150 0.152161
0.308472 0.004730 0.152679
0.544189 0.005493 0.153320
0.749176 0.006287 0.154053
0.873749 0.006927 0.154602
0.950287 0.007477 0.155029
0.005035 0.058594 0.153564
0.060547 0.058929 0.153809
0.149750 0.059387 0.154205
0.309845 0.060120 0.154724
0.545380 0.061096 0.155487
0.749817 0.062103 0.156219
0.874054 0.062897 0.156799
0.950409 0.063507 0.157288
0.006226 0.147217 0.156219
0.062042 0.147705 0.156464
0.151489 0.148285 0.156921
0.311829 0.149170 0.157532
0.547150 0.150360 0.158325
0.750793 0.151520 0.159149
0.874542 0.152405 0.159760
0.950592 0.153137 0.160278
0.008301 0.306549 0.160126
0.064514 0.307098 0.160492
0.154358 0.307831 0.160950
0.315002 0.308868 0.161652
0.549988 0.310181 0.162537
0.752228 0.311493 0.163422
0.875183 0.312439 0.164062
0.950775 0.313202 0.164581
0.011230 0.541290 0.164978
0.067963 0.541779 0.165375
0.158203 0.542450 0.165924
0.319031 0.543396 0.166718
0.553375 0.544556 0.167633
0.753967 0.545624 0.168488
0.875946 0.546387 0.169128
0.951019 0.547028 0.169647
0.014252 0.746002 0.169739
0.071442 0.746246 0.170105
0.162048 0.746613 0.170685
0.322968 0.747070 0.171448
0.556549 0.747650 0.172394
0.755554 0.748199 0.173218
0.876617 0.748566 0.173859
0.951263 0.748840 0.174316
0.016632 0.870422 0.173340
0.074158 0.870544 0.173737
0.164948 0.870697 0.174316
0.325897 0.870880 0.175110
0.558868 0.871124 0.175995
0.756653 0.871338 0.176788
0.877075 0.871521 0.177368
0.951416 0.871613 0.177734
0.018494 0.947021 0.176086
0.076263 0.947052 0.176544
0.167145 0.947113 0.177094
0.328156 0.947174 0.177856
0.560486 0.947235 0.178680
0.757477 0.947327 0.179382
0.877441 0.947357 0.179932
0.951508 0.947388 0.180267
0.004517 0.003723 0.302917
0.059937 0.003998 0.303070
0.148956 0.004364 0.303406
0.308960 0.004913 0.303925
0.544586 0.005737 0.304688
0.749359 0.006561 0.305389
0.873871 0.007233 0.305969
0.950348 0.007751 0.306458
0.005341 0.058807 0.305176
0.060913 0.059174 0.305420
0.150146 0.059662 0.305817
0.310333 0.060394 0.306427
0.545898 0.061432 0.307190
0.750061 0.062469 0.307983
0.874146 0.063263 0.308533
0.950470 0.063904 0.309052
0.006622 0.147522 0.308319
0.062469 0.147980 0.308655
0.151947 0.148590 0.309052
0.312347 0.149567 0.309753
0.547607 0.150726 0.310608
0.751007 0.151917 0.311401
0.874634 0.152863 0.312042
0.950653 0.153534 0.312531
0.008759 0.306946 0.313049
0.065063 0.307495 0.313416
0.154938 0.308167 0.313904
0.315552 0.309296 0.314636
0.550476 0.310577 0.315521
0.752502 0.311859 0.316345
0.875275 0.312866 0.317047
0.950806 0.313629 0.317596
0.011719 0.541626 0.318756
0.068542 0.542114 0.319214
0.158844 0.542786 0.319733
0.319702 0.543732 0.320496
0.553864 0.544891 0.321503
0.754211 0.545929 0.322327
0.876068 0.546783 0.322998
0.951080 0.547363 0.323486
0.014771 0.746185 0.324280
0.072052 0.746460 0.324768
0.162689 0.746796 0.325317
0.323608 0.747253 0.326111
0.557098 0.747864 0.327026
0.755829 0.748383 0.327850
0.876709 0.748718 0.328430
0.951324 0.748993 0.328918
0.017181 0.870483 0.328583
0.074768 0.870636 0.328979
0.165619 0.870758 0.329529
0.326538 0.870941 0.330322
0.559326 0.871216 0.331146
0.756897 0.871429 0.331970
0.877197 0.871552 0.332520
0.951416 0.871704 0.332947
0.019012 0.947052 0.331757
0.076813 0.947083 0.332214
0.167786 0.947144 0.332703
0.328705 0.947205 0.333435
0.561005 0.947266 0.334290
0.757660 0.947327 0.335022
0.877502 0.947388 0.335510
0.951508 0.947418 0.335876
0.004822 0.003967 0.524780
0.060272 0.004181 0.524994
0.149445 0.004608 0.525299
0.309540 0.005219 0.525757
0.545044 0.006042 0.526428
0.749695 0.006897 0.527069
0.873962 0.007599 0.527588
0.950378 0.008118 0.528015
0.005676 0.059082 0.527405
0.061371 0.059479 0.527649
0.150696 0.059998 0.528015
0.310944 0.060760 0.528534
0.546387 0.061829 0.529205
0.750427 0.062836 0.529938
0.874298 0.063690 0.530487
0.950531 0.064331 0.530853
0.007019 0.147888 0.530945
0.063019 0.148346 0.531219
0.152588 0.148987 0.531586
0.313049 0.149933 0.532166
0.548279 0.151215 0.532959
0.751373 0.152405 0.533630
0.874756 0.153320 0.534180
0.950653 0.154053 0.534607
0.009308 0.307373 0.536133
0.065643 0.307892 0.536407
0.155640 0.308624 0.536835
0.316345 0.309814 0.537506
0.551178 0.311127 0.538269
0.752838 0.312378 0.538971
0.875427 0.313416 0.539581
0.950867 0.314117 0.539948
0.012329 0.542023 0.542236
0.069214 0.542511 0.542572
0.159607 0.543182 0.543060
0.320496 0.544189 0.543732
0.554535 0.545349 0.544464
0.754517 0.546356 0.545258
0.876190 0.547211 0.545807
0.951141 0.547791 0.546234
0.015411 0.746368 0.548096
0.072784 0.746643 0.548431
0.163452 0.746979 0.548859
0.324432 0.747498 0.549530
0.557709 0.748077 0.550323
0.756073 0.748566 0.550903
0.876862 0.748901 0.551422
0.951355 0.749207 0.551788
0.017792 0.870605 0.552399
0.075500 0.870697 0.552765
0.166351 0.870850 0.553284
0.327301 0.871063 0.553925
0.559937 0.871307 0.554535
0.757141 0.871521 0.555145
0.877289 0.871643 0.555664
0.951477 0.871765 0.555939
0.019623 0.947052 0.555786
0.077545 0.947113 0.556152
0.168549 0.947144 0.556488
0.329437 0.947235 0.557098
0.561554 0.947296 0.557739
0.757904 0.947357 0.558319
0.877625 0.947388 0.558685
0.951538 0.947449 0.558929
0.005157 0.004150 0.724640
0.060669 0.004456 0.724792
0.149933 0.004822 0.724915
0.310028 0.005493 0.725189
0.545593 0.006378 0.725494
0.749939 0.007202 0.725891
0.874115 0.007935 0.726166
0.950470 0.008453 0.726379
0.006073 0.059387 0.726654
0.061829 0.059753 0.726807
0.151276 0.060272 0.726990
0.311584 0.061127 0.727264
0.546936 0.062195 0.727692
0.750702 0.063202 0.728027
0.874451 0.064087 0.728333
0.950562 0.064728 0.728546
0.007446 0.148254 0.729340
0.063477 0.148682 0.729462
0.153198 0.149384 0.729645
0.313690 0.150391 0.730011
0.548859 0.151642 0.730438
0.751648 0.152863 0.730804
0.874878 0.153778 0.731110
0.950714 0.154541 0.731293
0.009766 0.307800 0.733185
0.066254 0.308319 0.733398
0.156281 0.309113 0.733612
0.317017 0.310181 0.733948
0.551666 0.311584 0.734344
0.753113 0.312866 0.734711
0.875580 0.313843 0.735016
0.950897 0.314606 0.735229
0.012878 0.542389 0.737793
0.069885 0.542908 0.737976
0.160309 0.543610 0.738251
0.321228 0.544556 0.738556
0.555145 0.545715 0.738953
0.754852 0.546783 0.739349
0.876282 0.547577 0.739624
0.951172 0.548126 0.739838
0.015991 0.746582 0.742065
0.073425 0.746826 0.742249
0.164185 0.747162 0.742493
0.325134 0.747681 0.742828
0.558228 0.748230 0.743195
0.756317 0.748718 0.743561
0.876984 0.749115 0.743774
0.951355 0.749359 0.743958
0.018372 0.870697 0.745270
0.076172 0.870789 0.745453
0.167053 0.870911 0.745697
0.328033 0.871124 0.746033
0.560486 0.871368 0.746368
0.757416 0.871552 0.746643
0.877441 0.871735 0.746887
0.951477 0.871857 0.747040
0.020203 0.947083 0.747711
0.078186 0.947144 0.747894
0.169189 0.947174 0.748108
0.330109 0.947235 0.748413
0.562012 0.947327 0.748688
0.758087 0.947388 0.748962
0.877716 0.947418 0.749176
0.951599 0.947449 0.749298
0.005402 0.004303 0.848572
0.061005 0.004608 0.848633
0.150269 0.005035 0.848724
0.310425 0.005707 0.848846
0.546021 0.006622 0.848999
0.750122 0.007507 0.849213
0.874176 0.008179 0.849365
0.950500 0.008759 0.849457
0.006378 0.059570 0.850159
0.062195 0.059998 0.850220
0.151642 0.060547 0.850311
0.312012 0.061371 0.850464
0.547333 0.062500 0.850647
0.750854 0.063538 0.850830
0.874542 0.064392 0.850983
0.950623 0.065063 0.851074
0.007782 0.148499 0.852264
0.063904 0.149017 0.852325
0.153656 0.149719 0.852386
0.314178 0.150665 0.852570
0.549255 0.151947 0.852783
0.751862 0.153168 0.852966
0.874969 0.154144 0.853119
0.950745 0.154877 0.853210
0.010193 0.308105 0.855225
0.066681 0.308655 0.855316
0.156860 0.309448 0.855438
0.317596 0.310547 0.855591
0.552155 0.311951 0.855774
0.753357 0.313232 0.855957
0.875641 0.314178 0.856110
0.950928 0.314972 0.856201
0.013306 0.542694 0.858734
0.070343 0.543182 0.858795
0.160828 0.543854 0.858948
0.321747 0.544891 0.859100
0.555573 0.545959 0.859283
0.755035 0.547089 0.859436
0.876404 0.547882 0.859589
0.951202 0.548431 0.859650
0.016449 0.746765 0.862000
0.073975 0.746979 0.862061
0.164703 0.747314 0.862183
0.325684 0.747833 0.862274
0.558624 0.748413 0.862457
0.756592 0.748871 0.862671
0.877075 0.749207 0.862793
0.951385 0.749451 0.862885
0.018860 0.870758 0.864410
0.076660 0.870850 0.864471
0.167633 0.871002 0.864594
0.328522 0.871185 0.864716
0.560883 0.871429 0.864899
0.757599 0.871613 0.865051
0.877502 0.871765 0.865143
0.951508 0.871918 0.865234
0.020660 0.947113 0.866241
0.078644 0.947144 0.866333
0.169739 0.947205 0.866425
0.330505 0.947266 0.866608
0.562347 0.947327 0.866730
0.758270 0.947388 0.866852
0.877777 0.947449 0.866943
0.951599 0.947449 0.867004
0.005615 0.004456 0.926483
0.061249 0.004730 0.926483
0.150604 0.005188 0.926544
0.310822 0.005859 0.926575
0.546265 0.006744 0.926636
0.750305 0.007690 0.926727
0.874268 0.008392 0.926788
0.950531 0.008972 0.926819
0.006622 0.059753 0.927734
0.062469 0.060150 0.927765
0.151947 0.060730 0.927795
0.312347 0.061615 0.927856
0.547607 0.062714 0.927948
0.751007 0.063782 0.928009
0.874634 0.064636 0.928101
0.950653 0.065277 0.928101
0.008057 0.148682 0.929382
0.064240 0.149200 0.929443
0.154022 0.149902 0.929474
0.314606 0.150970 0.929535
0.549591 0.152191 0.929626
0.752045 0.153473 0.929688
0.875092 0.154388 0.929749
0.950775 0.155121 0.929779
0.010468 0.308350 0.931732
0.067078 0.308899 0.931793
0.157196 0.309723 0.931793
0.317963 0.310822 0.931885
0.552521 0.312195 0.931946
0.753510 0.313538 0.932007
0.875732 0.314484 0.932098
0.950958 0.315247 0.932129
0.013672 0.542908 0.934509
0.070770 0.543457 0.934570
0.161285 0.544067 0.934570
0.322205 0.545105 0.934631
0.555908 0.546234 0.934723
0.755219 0.547272 0.934753
0.876434 0.548035 0.934814
0.951233 0.548615 0.934845
0.016785 0.746826 0.937042
0.074310 0.747070 0.937073
0.165161 0.747437 0.937103
0.326111 0.747925 0.937164
0.558990 0.748505 0.937195
0.756714 0.748962 0.937256
0.877106 0.749298 0.937286
0.951416 0.749542 0.937317
0.019196 0.870819 0.938965
0.077057 0.870911 0.938995
0.167999 0.871033 0.939026
0.328918 0.871246 0.939056
0.561157 0.871490 0.939117
0.757751 0.871674 0.939148
0.877533 0.871826 0.939178
0.951508 0.871948 0.939209
0.020996 0.947144 0.940369
0.079071 0.947174 0.940399
0.170074 0.947235 0.940430
0.330933 0.947296 0.940460
0.562653 0.947357 0.940521
0.758423 0.947388 0.940552
0.877808 0.947449 0.940582
0.951599 0.947449 0.940613
