3d-lut/luts/Contrail 35.CUBE
#Created by: Adobe Photoshop Export Color Lookup Plugin
#Copyright: (C) Copyright 2017 RocketStock
TITLE "Untitled"
#LUT size
LUT_3D_SIZE 32
#data domain
DOMAIN_MIN 0.0 0.0 0.0
DOMAIN_MAX 1.0 1.0 1.0
#LUT data points
0.004028 0.003418 0.012604
0.015839 0.003448 0.012634
0.028503 0.003510 0.012665
0.043427 0.003571 0.012726
0.059265 0.003601 0.012756
0.077087 0.003662 0.012787
0.097412 0.003754 0.012848
0.120911 0.003845 0.012878
0.148132 0.003967 0.012970
0.180054 0.004059 0.013000
0.217255 0.004150 0.013123
0.259918 0.004303 0.013214
0.308014 0.004456 0.013306
0.361023 0.004608 0.013428
0.418732 0.004791 0.013550
0.480408 0.004974 0.013702
0.543640 0.005188 0.013855
0.602783 0.005371 0.013947
0.656921 0.005585 0.014099
0.705750 0.005768 0.014252
0.748871 0.005920 0.014374
0.786560 0.006104 0.014465
0.819397 0.006287 0.014618
0.848267 0.006439 0.014709
0.873596 0.006592 0.014832
0.896027 0.006714 0.014923
0.916046 0.006836 0.015015
0.933990 0.006958 0.015076
0.950256 0.007080 0.015167
0.965179 0.007172 0.015228
0.969513 0.007294 0.015320
0.969513 0.007446 0.015411
0.004181 0.015167 0.012878
0.016022 0.015228 0.012909
0.028656 0.015289 0.012939
0.043610 0.015350 0.013000
0.059448 0.015411 0.013031
0.077301 0.015503 0.013062
0.097656 0.015594 0.013123
0.121094 0.015656 0.013214
0.148407 0.015747 0.013275
0.180267 0.015869 0.013336
0.217468 0.015991 0.013458
0.260162 0.016144 0.013550
0.308258 0.016296 0.013672
0.361359 0.016479 0.013794
0.419006 0.016663 0.013916
0.480713 0.016876 0.014069
0.543945 0.017090 0.014191
0.603027 0.017303 0.014343
0.657135 0.017487 0.014465
0.705933 0.017700 0.014618
0.749023 0.017883 0.014740
0.786652 0.018066 0.014862
0.819519 0.018250 0.014984
0.848328 0.018372 0.015076
0.873688 0.018555 0.015167
0.896088 0.018707 0.015289
0.916077 0.018829 0.015381
0.934021 0.018982 0.015472
0.950287 0.019104 0.015533
0.965210 0.019226 0.015625
0.969513 0.019318 0.015717
0.969513 0.019440 0.015778
0.004333 0.027802 0.013153
0.016205 0.027863 0.013214
0.028778 0.027924 0.013245
0.043823 0.027985 0.013306
0.059662 0.028046 0.013336
0.077484 0.028107 0.013397
0.097900 0.028198 0.013458
0.121368 0.028259 0.013550
0.148621 0.028412 0.013611
0.180542 0.028534 0.013702
0.217804 0.028656 0.013794
0.260529 0.028839 0.013916
0.308533 0.029022 0.014008
0.361603 0.029205 0.014130
0.419312 0.029419 0.014252
0.480988 0.029572 0.014404
0.544281 0.029724 0.014557
0.603271 0.029907 0.014709
0.657379 0.030060 0.014832
0.706116 0.030212 0.014984
0.749176 0.030365 0.015137
0.786743 0.030518 0.015228
0.819641 0.030640 0.015320
0.848419 0.030762 0.015472
0.873749 0.030884 0.015564
0.896149 0.031006 0.015656
0.916107 0.031128 0.015747
0.934052 0.031219 0.015839
0.950317 0.031311 0.015930
0.965210 0.031403 0.015991
0.969513 0.031494 0.016083
0.969513 0.031555 0.016144
0.004486 0.042603 0.013550
0.016357 0.042664 0.013611
0.028931 0.042755 0.013641
0.044037 0.042786 0.013702
0.059906 0.042877 0.013733
0.077759 0.042938 0.013763
0.098114 0.043030 0.013824
0.121643 0.043152 0.013916
0.148895 0.043243 0.013977
0.180817 0.043396 0.014069
0.218079 0.043549 0.014160
0.260864 0.043732 0.014252
0.308899 0.043945 0.014404
0.362000 0.044098 0.014526
0.419647 0.044342 0.014648
0.481323 0.044586 0.014801
0.544556 0.044800 0.014954
0.603546 0.045044 0.015076
0.657593 0.045319 0.015228
0.706238 0.045532 0.015381
0.749329 0.045746 0.015533
0.786926 0.045959 0.015656
0.819733 0.046112 0.015778
0.848480 0.046295 0.015900
0.873840 0.046478 0.015991
0.896210 0.046661 0.016083
0.916138 0.046783 0.016205
0.934113 0.046936 0.016266
0.950348 0.047058 0.016357
0.965240 0.047211 0.016418
0.969513 0.047302 0.016510
0.969513 0.047455 0.016602
0.004730 0.058350 0.013916
0.016541 0.058411 0.013947
0.029083 0.058502 0.014008
0.044281 0.058563 0.014038
0.060120 0.058624 0.014099
0.078003 0.058716 0.014160
0.098419 0.058838 0.014221
0.121918 0.058929 0.014282
0.149231 0.059082 0.014374
0.181152 0.059235 0.014465
0.218414 0.059387 0.014557
0.261108 0.059570 0.014679
0.309265 0.059784 0.014801
0.362335 0.060028 0.014923
0.420013 0.060211 0.015045
0.481720 0.060455 0.015198
0.544830 0.060730 0.015350
0.603851 0.060974 0.015503
0.657837 0.061188 0.015656
0.706482 0.061462 0.015778
0.749542 0.061676 0.015930
0.787079 0.061920 0.016052
0.819824 0.062103 0.016205
0.848602 0.062286 0.016296
0.873901 0.062469 0.016388
0.896301 0.062653 0.016510
0.916199 0.062775 0.016602
0.934143 0.062927 0.016693
0.950378 0.063080 0.016754
0.965240 0.063171 0.016846
0.969513 0.063354 0.016937
0.969513 0.063477 0.017059
0.004913 0.076111 0.014282
0.016815 0.076202 0.014343
0.029266 0.076263 0.014374
0.044525 0.076355 0.014435
0.060394 0.076477 0.014496
0.078339 0.076538 0.014557
0.098755 0.076630 0.014618
0.122223 0.076752 0.014679
0.149567 0.076904 0.014771
0.181488 0.077057 0.014862
0.218811 0.077240 0.014984
0.261536 0.077454 0.015076
0.309692 0.077667 0.015198
0.362671 0.077881 0.015350
0.420380 0.078156 0.015472
0.482147 0.078369 0.015625
0.545166 0.078613 0.015778
0.604156 0.078888 0.015930
0.658142 0.079132 0.016083
0.706726 0.079407 0.016235
0.749725 0.079651 0.016388
0.787231 0.079865 0.016510
0.819977 0.080078 0.016632
0.848724 0.080231 0.016754
0.873993 0.080444 0.016876
0.896332 0.080627 0.016998
0.916260 0.080780 0.017090
0.934174 0.080933 0.017181
0.950409 0.081085 0.017273
0.965271 0.081238 0.017365
0.969513 0.081390 0.017456
0.969513 0.081512 0.017517
0.005188 0.096405 0.014709
0.017090 0.096466 0.014771
0.029480 0.096558 0.014832
0.044800 0.096649 0.014862
0.060699 0.096741 0.014923
0.078613 0.096863 0.014984
0.099060 0.096985 0.015045
0.122589 0.097076 0.015137
0.149933 0.097229 0.015198
0.181915 0.097412 0.015320
0.219208 0.097565 0.015442
0.261993 0.097809 0.015533
0.310059 0.098053 0.015686
0.363190 0.098267 0.015808
0.420898 0.098511 0.015930
0.482544 0.098785 0.016113
0.545624 0.099060 0.016266
0.604492 0.099335 0.016418
0.658447 0.099609 0.016602
0.707001 0.099854 0.016754
0.749939 0.100098 0.016846
0.787445 0.100311 0.017029
0.820160 0.100555 0.017181
0.848846 0.100739 0.017303
0.874115 0.100922 0.017395
0.896423 0.101135 0.017487
0.916321 0.101288 0.017609
0.934235 0.101471 0.017700
0.950470 0.101624 0.017761
0.965271 0.101746 0.017853
0.969513 0.101898 0.017944
0.969513 0.102051 0.018036
0.005493 0.119751 0.015198
0.017395 0.119843 0.015228
0.029724 0.119934 0.015289
0.045135 0.119995 0.015320
0.061066 0.120117 0.015381
0.079041 0.120209 0.015442
0.099457 0.120392 0.015533
0.123016 0.120514 0.015594
0.150391 0.120667 0.015686
0.182312 0.120850 0.015808
0.219635 0.121033 0.015900
0.262482 0.121246 0.016052
0.310547 0.121460 0.016174
0.363708 0.121735 0.016296
0.421387 0.122009 0.016449
0.483093 0.122314 0.016663
0.546051 0.122589 0.016815
0.604889 0.122864 0.016998
0.658752 0.123138 0.017151
0.707275 0.123413 0.017303
0.750183 0.123718 0.017456
0.787659 0.123932 0.017609
0.820343 0.124115 0.017700
0.848969 0.124329 0.017853
0.874207 0.124542 0.017944
0.896515 0.124725 0.018066
0.916412 0.124878 0.018158
0.934296 0.125061 0.018250
0.950500 0.125244 0.018341
0.965302 0.125366 0.018433
0.969513 0.125519 0.018524
0.969513 0.125671 0.018616
0.005798 0.146912 0.015717
0.017731 0.146973 0.015747
0.030029 0.147064 0.015808
0.045563 0.147156 0.015869
0.061493 0.147278 0.015930
0.079468 0.147430 0.015991
0.099915 0.147583 0.016083
0.123566 0.147705 0.016174
0.150879 0.147888 0.016235
0.182861 0.148071 0.016357
0.220215 0.148285 0.016479
0.263000 0.148499 0.016602
0.311127 0.148743 0.016754
0.364258 0.149017 0.016907
0.421967 0.149292 0.017090
0.483582 0.149628 0.017242
0.546600 0.149872 0.017426
0.605286 0.150177 0.017578
0.659088 0.150482 0.017761
0.707611 0.150726 0.017914
0.750488 0.151062 0.018036
0.787842 0.151276 0.018188
0.820526 0.151520 0.018311
0.849152 0.151733 0.018433
0.874329 0.151947 0.018585
0.896606 0.152100 0.018677
0.916473 0.152313 0.018799
0.934357 0.152466 0.018890
0.950562 0.152649 0.018951
0.965332 0.152802 0.019043
0.969513 0.152954 0.019135
0.969513 0.153076 0.019226
0.006226 0.178650 0.016296
0.018158 0.178741 0.016357
0.030365 0.178864 0.016388
0.045990 0.178955 0.016479
0.062012 0.179077 0.016541
0.079956 0.179230 0.016602
0.100464 0.179382 0.016663
0.124023 0.179504 0.016754
0.151459 0.179688 0.016846
0.183441 0.179901 0.016998
0.220825 0.180115 0.017120
0.263641 0.180328 0.017273
0.311829 0.180603 0.017426
0.364899 0.180908 0.017578
0.422607 0.181213 0.017761
0.484253 0.181488 0.017914
0.547150 0.181824 0.018066
0.605835 0.182129 0.018250
0.659576 0.182404 0.018402
0.707947 0.182709 0.018585
0.750793 0.182983 0.018738
0.788086 0.183228 0.018890
0.820709 0.183441 0.019012
0.849335 0.183716 0.019135
0.874512 0.183929 0.019257
0.896759 0.184113 0.019348
0.916565 0.184296 0.019440
0.934387 0.184479 0.019562
0.950592 0.184601 0.019653
0.965393 0.184753 0.019775
0.969513 0.184937 0.019836
0.969513 0.185089 0.019958
0.006683 0.215729 0.016998
0.018677 0.215851 0.017059
0.030701 0.215942 0.017090
0.046570 0.216064 0.017181
0.062592 0.216187 0.017242
0.080566 0.216339 0.017303
0.101074 0.216492 0.017395
0.124664 0.216675 0.017487
0.152100 0.216827 0.017548
0.184143 0.217041 0.017700
0.221497 0.217285 0.017853
0.264343 0.217529 0.017944
0.312469 0.217804 0.018097
0.365662 0.218109 0.018280
0.423370 0.218414 0.018433
0.484955 0.218750 0.018646
0.547821 0.219055 0.018829
0.606384 0.219360 0.019012
0.660034 0.219696 0.019165
0.708405 0.219971 0.019348
0.751099 0.220215 0.019470
0.788422 0.220520 0.019623
0.820953 0.220764 0.019745
0.849518 0.221008 0.019897
0.874664 0.221191 0.019989
0.896881 0.221405 0.020111
0.916687 0.221619 0.020264
0.934479 0.221741 0.020325
0.950653 0.221924 0.020416
0.965393 0.222076 0.020508
0.969513 0.222229 0.020599
0.969513 0.222412 0.020691
0.007233 0.258270 0.017700
0.019196 0.258392 0.017761
0.031158 0.258514 0.017853
0.047211 0.258667 0.017914
0.063171 0.258789 0.017975
0.081238 0.258942 0.018066
0.101746 0.259094 0.018127
0.125366 0.259247 0.018250
0.152863 0.259460 0.018372
0.184937 0.259644 0.018494
0.222321 0.259918 0.018646
0.265198 0.260132 0.018768
0.313293 0.260437 0.018921
0.366425 0.260742 0.019073
0.424133 0.261078 0.019257
0.485748 0.261383 0.019409
0.548553 0.261719 0.019623
0.606995 0.262054 0.019806
0.660553 0.262360 0.019989
0.708801 0.262665 0.020142
0.751495 0.262939 0.020294
0.788727 0.263245 0.020447
0.821228 0.263519 0.020599
0.849731 0.263702 0.020721
0.874817 0.263916 0.020844
0.897003 0.264130 0.020966
0.916809 0.264343 0.021088
0.934570 0.264465 0.021179
0.950684 0.264648 0.021240
0.965424 0.264832 0.021362
0.969513 0.264984 0.021454
0.969513 0.265167 0.021515
0.007782 0.306122 0.018524
0.019836 0.306244 0.018585
0.031708 0.306366 0.018646
0.047913 0.306488 0.018738
0.063904 0.306641 0.018829
0.081970 0.306793 0.018890
0.102509 0.306946 0.018982
0.126190 0.307159 0.019043
0.153687 0.307343 0.019165
0.185760 0.307587 0.019318
0.223145 0.307831 0.019440
0.266022 0.308105 0.019592
0.314240 0.308380 0.019745
0.367340 0.308685 0.019958
0.425018 0.309052 0.020111
0.486633 0.309357 0.020294
0.549255 0.309692 0.020477
0.607666 0.309967 0.020660
0.661163 0.310303 0.020813
0.709290 0.310608 0.020996
0.751862 0.310913 0.021210
0.789062 0.311249 0.021332
0.821503 0.311493 0.021454
0.849945 0.311676 0.021606
0.874969 0.311890 0.021729
0.897156 0.312134 0.021851
0.916870 0.312317 0.021942
0.934662 0.312469 0.022064
0.950745 0.312653 0.022156
0.965485 0.312805 0.022247
0.969513 0.312988 0.022308
0.969513 0.313110 0.022400
0.008484 0.358978 0.019348
0.020477 0.359100 0.019409
0.032837 0.359192 0.019501
0.048615 0.359344 0.019562
0.064667 0.359497 0.019623
0.082764 0.359711 0.019745
0.103333 0.359802 0.019836
0.127045 0.360016 0.019958
0.154541 0.360199 0.020050
0.186676 0.360474 0.020172
0.224121 0.360687 0.020325
0.266968 0.360992 0.020477
0.315186 0.361298 0.020630
0.368256 0.361572 0.020844
0.425934 0.361877 0.020996
0.487579 0.362213 0.021210
0.550110 0.362579 0.021362
0.608337 0.362915 0.021545
0.661743 0.363251 0.021759
0.709747 0.363556 0.021942
0.752319 0.363800 0.022095
0.789398 0.364105 0.022247
0.821777 0.364319 0.022369
0.850220 0.364594 0.022491
0.875183 0.364807 0.022644
0.897278 0.365021 0.022736
0.917023 0.365234 0.022858
0.934753 0.365387 0.022949
0.950806 0.365570 0.023041
0.965515 0.365723 0.023132
0.969513 0.365845 0.023224
0.969513 0.365997 0.023315
0.009155 0.416412 0.020264
0.021240 0.416534 0.020325
0.034088 0.416656 0.020386
0.049408 0.416779 0.020477
0.065521 0.416901 0.020569
0.083618 0.417053 0.020630
0.104248 0.417206 0.020721
0.127930 0.417419 0.020844
0.155457 0.417603 0.020966
0.187592 0.417847 0.021088
0.225067 0.418091 0.021240
0.267944 0.418427 0.021393
0.316132 0.418732 0.021545
0.369293 0.419006 0.021729
0.426910 0.419342 0.021942
0.488525 0.419647 0.022125
0.550964 0.419983 0.022308
0.609039 0.420288 0.022491
0.662384 0.420624 0.022705
0.710327 0.420929 0.022888
0.752716 0.421234 0.023041
0.789734 0.421478 0.023193
0.822083 0.421753 0.023315
0.850403 0.421997 0.023468
0.875397 0.422211 0.023590
0.897461 0.422394 0.023712
0.917114 0.422607 0.023773
0.934845 0.422760 0.023895
0.950867 0.422913 0.023987
0.965576 0.423035 0.024078
0.969513 0.423187 0.024170
0.969513 0.423401 0.024261
0.009888 0.477783 0.021149
0.022003 0.477905 0.021210
0.035522 0.478027 0.021271
0.050262 0.478149 0.021362
0.066376 0.478302 0.021454
0.084503 0.478485 0.021545
0.105133 0.478638 0.021637
0.128906 0.478821 0.021729
0.156433 0.479034 0.021881
0.188568 0.479218 0.022034
0.226044 0.479492 0.022156
0.268982 0.479736 0.022339
0.317169 0.480042 0.022491
0.370270 0.480408 0.022675
0.427917 0.480713 0.022888
0.489471 0.481049 0.023071
0.551788 0.481323 0.023285
0.609833 0.481628 0.023468
0.662964 0.481934 0.023651
0.710846 0.482239 0.023834
0.753174 0.482544 0.023987
0.790131 0.482788 0.024139
0.822357 0.483093 0.024292
0.850677 0.483276 0.024414
0.875580 0.483490 0.024536
0.897614 0.483612 0.024658
0.917236 0.483795 0.024750
0.934937 0.483948 0.024872
0.950928 0.484131 0.024963
0.965607 0.484314 0.025055
0.969513 0.484436 0.025146
0.969513 0.484619 0.025238
0.010651 0.540863 0.022064
0.022766 0.540985 0.022156
0.036591 0.541077 0.022186
0.051117 0.541199 0.022278
0.067261 0.541382 0.022369
0.085419 0.541504 0.022461
0.106110 0.541656 0.022583
0.129822 0.541809 0.022675
0.157379 0.541962 0.022797
0.189636 0.542175 0.022949
0.227112 0.542450 0.023102
0.270020 0.542694 0.023254
0.318176 0.542938 0.023468
0.371307 0.543243 0.023651
0.428955 0.543518 0.023834
0.490448 0.543793 0.023987
0.552643 0.544067 0.024231
0.610565 0.544403 0.024414
0.663635 0.544678 0.024597
0.711334 0.544922 0.024780
0.753601 0.545166 0.024963
0.790497 0.545441 0.025085
0.822662 0.545624 0.025238
0.850922 0.545807 0.025360
0.875793 0.545959 0.025482
0.897766 0.546143 0.025604
0.917389 0.546295 0.025757
0.935028 0.546448 0.025848
0.950958 0.546600 0.025909
0.965637 0.546722 0.026001
0.969513 0.546875 0.026093
0.969513 0.546997 0.026184
0.011414 0.599945 0.022949
0.023590 0.600037 0.023041
0.037415 0.600128 0.023132
0.052002 0.600250 0.023193
0.068146 0.600342 0.023285
0.086304 0.600464 0.023376
0.106995 0.600647 0.023499
0.130829 0.600769 0.023621
0.158447 0.600922 0.023743
0.190613 0.601074 0.023865
0.228119 0.601257 0.024048
0.271088 0.601501 0.024231
0.319244 0.601715 0.024414
0.372375 0.601959 0.024567
0.429932 0.602203 0.024750
0.491425 0.602478 0.024994
0.553528 0.602753 0.025177
0.611359 0.602966 0.025360
0.664215 0.603180 0.025543
0.711823 0.603424 0.025696
0.754089 0.603607 0.025879
0.790833 0.603790 0.026001
0.822968 0.604004 0.026184
0.851166 0.604156 0.026337
0.876007 0.604340 0.026459
0.897919 0.604431 0.026581
0.917480 0.604584 0.026672
0.935089 0.604706 0.026764
0.951019 0.604797 0.026855
0.965668 0.604950 0.026947
0.969513 0.605042 0.027039
0.969513 0.605133 0.027100
0.012177 0.653992 0.023834
0.024353 0.654083 0.023926
0.038239 0.654175 0.024017
0.052856 0.654266 0.024078
0.069031 0.654327 0.024170
0.087250 0.654449 0.024292
0.107941 0.654572 0.024414
0.131775 0.654724 0.024536
0.159393 0.654785 0.024628
0.191589 0.654999 0.024780
0.229126 0.655182 0.024963
0.272034 0.655365 0.025116
0.320282 0.655518 0.025299
0.373383 0.655762 0.025482
0.430939 0.655945 0.025665
0.492432 0.656158 0.025879
0.554382 0.656372 0.026062
0.612000 0.656555 0.026276
0.664825 0.656769 0.026459
0.712402 0.656952 0.026611
0.754425 0.657135 0.026825
0.791168 0.657288 0.026947
0.823242 0.657471 0.027100
0.851379 0.657593 0.027222
0.876190 0.657715 0.027374
0.898041 0.657837 0.027466
0.917603 0.657959 0.027557
0.935150 0.658051 0.027649
0.951080 0.658173 0.027771
0.965698 0.658264 0.027863
0.969513 0.658356 0.027924
0.969513 0.658417 0.028015
0.012878 0.702667 0.024689
0.025116 0.702728 0.024780
0.039062 0.702820 0.024872
0.053680 0.702911 0.024963
0.069885 0.703033 0.025055
0.088135 0.703094 0.025146
0.108887 0.703186 0.025269
0.132690 0.703308 0.025360
0.160339 0.703430 0.025543
0.192566 0.703522 0.025665
0.230072 0.703674 0.025818
0.273010 0.703857 0.025970
0.321228 0.703979 0.026184
0.374329 0.704132 0.026367
0.431885 0.704315 0.026550
0.493317 0.704498 0.026764
0.555145 0.704651 0.026947
0.612701 0.704865 0.027130
0.665405 0.705048 0.027344
0.712860 0.705200 0.027527
0.754852 0.705353 0.027679
0.791504 0.705475 0.027863
0.823547 0.705597 0.027954
0.851593 0.705750 0.028076
0.876282 0.705811 0.028198
0.898193 0.705902 0.028320
0.917694 0.705994 0.028412
0.935242 0.706055 0.028503
0.951172 0.706177 0.028595
0.965729 0.706238 0.028717
0.969513 0.706299 0.028778
0.969513 0.706390 0.028870
0.013611 0.745789 0.025543
0.025848 0.745850 0.025635
0.039856 0.745941 0.025696
0.054474 0.745972 0.025787
0.070709 0.746063 0.025879
0.088928 0.746124 0.025970
0.109680 0.746185 0.026093
0.133545 0.746277 0.026184
0.161224 0.746368 0.026337
0.193451 0.746490 0.026489
0.230988 0.746613 0.026642
0.273956 0.746765 0.026825
0.322113 0.746857 0.026978
0.375244 0.746979 0.027161
0.432770 0.747131 0.027374
0.494171 0.747284 0.027588
0.555847 0.747437 0.027802
0.613312 0.747589 0.027954
0.665985 0.747742 0.028137
0.713257 0.747864 0.028351
0.755219 0.748016 0.028503
0.791779 0.748108 0.028656
0.823730 0.748199 0.028748
0.851807 0.748322 0.028900
0.876434 0.748383 0.029022
0.898315 0.748474 0.029114
0.917786 0.748535 0.029236
0.935303 0.748566 0.029327
0.951233 0.748627 0.029419
0.965759 0.748688 0.029510
0.969513 0.748749 0.029572
0.969513 0.748840 0.029633
0.014252 0.783356 0.026306
0.026520 0.783417 0.026367
0.040558 0.783478 0.026459
0.055176 0.783508 0.026550
0.071472 0.783569 0.026642
0.089722 0.783630 0.026733
0.110474 0.783691 0.026855
0.134399 0.783783 0.026947
0.162048 0.783844 0.027069
0.194305 0.783936 0.027222
0.231842 0.784027 0.027405
0.274780 0.784119 0.027588
0.322968 0.784271 0.027771
0.376038 0.784393 0.027954
0.433533 0.784515 0.028107
0.494873 0.784637 0.028351
0.556549 0.784760 0.028564
0.613892 0.784851 0.028717
0.666382 0.784973 0.028900
0.713684 0.785065 0.029083
0.755554 0.785187 0.029236
0.792053 0.785278 0.029388
0.823975 0.785339 0.029541
0.851990 0.785431 0.029633
0.876617 0.785492 0.029724
0.898438 0.785553 0.029846
0.917877 0.785645 0.029968
0.935394 0.785675 0.030060
0.951263 0.785706 0.030121
0.965790 0.785767 0.030212
0.969513 0.785828 0.030304
0.969513 0.785858 0.030396
0.014893 0.816162 0.026978
0.027161 0.816193 0.027069
0.041199 0.816254 0.027130
0.055878 0.816284 0.027222
0.072144 0.816345 0.027344
0.090424 0.816406 0.027435
0.111237 0.816467 0.027527
0.135132 0.816528 0.027649
0.162811 0.816589 0.027802
0.195038 0.816650 0.027954
0.232574 0.816711 0.028076
0.275543 0.816803 0.028259
0.323761 0.816925 0.028442
0.376801 0.817047 0.028656
0.434265 0.817139 0.028839
0.495636 0.817230 0.029053
0.557159 0.817322 0.029236
0.614349 0.817444 0.029419
0.666809 0.817535 0.029602
0.714020 0.817596 0.029755
0.755829 0.817657 0.029907
0.792297 0.817749 0.030060
0.824188 0.817810 0.030212
0.852112 0.817841 0.030304
0.876740 0.817902 0.030457
0.898529 0.817963 0.030548
0.917969 0.817993 0.030609
0.935425 0.818054 0.030701
0.951324 0.818085 0.030792
0.965820 0.818146 0.030884
0.969513 0.818176 0.030975
0.969513 0.818207 0.031036
0.015472 0.844971 0.027618
0.027740 0.845001 0.027710
0.041809 0.845032 0.027832
0.056519 0.845093 0.027893
0.072815 0.845123 0.027985
0.091125 0.845154 0.028076
0.111877 0.845184 0.028198
0.135834 0.845245 0.028290
0.163483 0.845306 0.028442
0.195770 0.845367 0.028595
0.233368 0.845398 0.028748
0.276245 0.845490 0.028931
0.324493 0.845551 0.029114
0.377472 0.845642 0.029297
0.434967 0.845734 0.029480
0.496246 0.845825 0.029694
0.557739 0.845886 0.029877
0.614868 0.845978 0.030060
0.667236 0.846069 0.030212
0.714355 0.846130 0.030396
0.756073 0.846222 0.030548
0.792572 0.846283 0.030670
0.824371 0.846313 0.030823
0.852295 0.846344 0.030945
0.876862 0.846375 0.031036
0.898621 0.846436 0.031128
0.918060 0.846466 0.031250
0.935516 0.846497 0.031342
0.951355 0.846497 0.031433
0.965851 0.846558 0.031494
0.969513 0.846588 0.031586
0.969513 0.846619 0.031677
0.015991 0.870300 0.028198
0.028259 0.870331 0.028290
0.042389 0.870392 0.028412
0.057129 0.870422 0.028503
0.073425 0.870453 0.028595
0.091736 0.870483 0.028687
0.112549 0.870483 0.028778
0.136475 0.870544 0.028931
0.164185 0.870605 0.029053
0.196442 0.870636 0.029175
0.234009 0.870697 0.029327
0.276947 0.870758 0.029572
0.325134 0.870819 0.029694
0.378082 0.870850 0.029907
0.435608 0.870911 0.030060
0.496918 0.870972 0.030273
0.558228 0.871033 0.030457
0.615265 0.871124 0.030640
0.667572 0.871155 0.030823
0.714661 0.871216 0.031006
0.756317 0.871277 0.031158
0.792725 0.871307 0.031281
0.824524 0.871338 0.031403
0.852417 0.871368 0.031525
0.876953 0.871429 0.031616
0.898712 0.871460 0.031738
0.918091 0.871490 0.031830
0.935577 0.871521 0.031952
0.951355 0.871552 0.032013
0.965881 0.871552 0.032074
0.969513 0.871582 0.032135
0.969513 0.871613 0.032227
0.016479 0.892700 0.028778
0.028717 0.892731 0.028900
0.042938 0.892761 0.028992
0.057678 0.892792 0.029053
0.074005 0.892792 0.029144
0.092285 0.892822 0.029236
0.113098 0.892853 0.029358
0.137054 0.892883 0.029480
0.164764 0.892914 0.029602
0.197052 0.892944 0.029724
0.234619 0.893005 0.029938
0.277527 0.893097 0.030090
0.325745 0.893127 0.030273
0.378693 0.893158 0.030457
0.436127 0.893219 0.030640
0.497437 0.893250 0.030853
0.558685 0.893311 0.031006
0.615723 0.893341 0.031219
0.667877 0.893402 0.031372
0.714935 0.893463 0.031525
0.756592 0.893494 0.031708
0.792908 0.893524 0.031830
0.824677 0.893555 0.031952
0.852539 0.893585 0.032043
0.877075 0.893616 0.032166
0.898773 0.893646 0.032288
0.918182 0.893677 0.032349
0.935608 0.893707 0.032440
0.951385 0.893707 0.032532
0.965912 0.893738 0.032623
0.969513 0.893738 0.032684
0.969513 0.893768 0.032745
0.016968 0.912689 0.029327
0.029083 0.912720 0.029419
0.043457 0.912720 0.029510
0.058197 0.912750 0.029572
0.074524 0.912781 0.029694
0.092834 0.912811 0.029755
0.113708 0.912811 0.029877
0.137604 0.912842 0.029999
0.165344 0.912872 0.030151
0.197601 0.912903 0.030304
0.235199 0.912933 0.030457
0.278137 0.912964 0.030609
0.326294 0.912994 0.030792
0.379303 0.913055 0.031006
0.436676 0.913055 0.031189
0.497925 0.913116 0.031342
0.559174 0.913147 0.031525
0.616089 0.913177 0.031708
0.668243 0.913208 0.031891
0.715179 0.913239 0.032013
0.756805 0.913269 0.032196
0.793060 0.913330 0.032318
0.824829 0.913361 0.032440
0.852661 0.913391 0.032593
0.877167 0.913391 0.032684
0.898834 0.913422 0.032745
0.918213 0.913452 0.032837
0.935638 0.913452 0.032928
0.951416 0.913483 0.033020
0.965942 0.913513 0.033081
0.969513 0.913513 0.033142
0.969513 0.913544 0.033234
0.017395 0.930664 0.029816
0.029419 0.930695 0.029907
0.043945 0.930695 0.029999
0.058655 0.930695 0.030060
0.075012 0.930725 0.030182
0.093353 0.930725 0.030273
0.114197 0.930756 0.030396
0.138184 0.930786 0.030548
0.165863 0.930786 0.030609
0.198151 0.930817 0.030792
0.235718 0.930847 0.030945
0.278687 0.930878 0.031128
0.326813 0.930878 0.031311
0.379791 0.930908 0.031494
0.437195 0.930939 0.031647
0.498413 0.930969 0.031860
