3d-lut/luts/Contrail 35.CUBE
#Created by: Adobe Photoshop Export Color Lookup Plugin
#Copyright: (C) Copyright 2017 RocketStock
TITLE "Untitled"
#LUT size
LUT_3D_SIZE 5
#data domain
#LUT data points
DOMAIN_MIN 0.000000 0.000000 0.000000
DOMAIN_MAX 0.903226 0.903226 0.903226
0.004028 0.003418 0.012604
0.120911 0.003845 0.012878
0.418732 0.004791 0.013550
0.786560 0.006104 0.014465
0.950256 0.007080 0.015167
0.005493 0.119751 0.015198
0.123016 0.120514 0.015594
0.421387 0.122009 0.016449
0.787659 0.123932 0.017609
0.950500 0.125244 0.018341
0.009155 0.416412 0.020264
0.127930 0.417419 0.020844
0.426910 0.419342 0.021942
0.789734 0.421478 0.023193
0.950867 0.422913 0.023987
0.014252 0.783356 0.026306
0.134399 0.783783 0.026947
0.433533 0.784515 0.028107
0.792053 0.785278 0.029388
0.951263 0.785706 0.030121
0.017792 0.946960 0.030304
0.138641 0.947052 0.030975
0.437683 0.947174 0.032104
0.793396 0.947327 0.033264
0.951477 0.947388 0.033905
0.004242 0.003571 0.125702
0.121216 0.004028 0.126099
0.419189 0.005035 0.126984
0.786713 0.006409 0.128113
0.950287 0.007416 0.128937
0.005798 0.119995 0.129242
0.123535 0.120850 0.129791
0.421906 0.122375 0.130890
0.787842 0.124298 0.132233
0.950562 0.125641 0.133179
0.009613 0.416779 0.136047
0.128571 0.417816 0.136719
0.427612 0.419739 0.138123
0.790009 0.421967 0.139557
0.950897 0.423370 0.140533
0.014832 0.783508 0.143951
0.135040 0.783936 0.144745
0.434174 0.784668 0.146149
0.792267 0.785400 0.147583
0.951324 0.785858 0.148468
0.018341 0.946991 0.149170
0.139282 0.947083 0.149933
0.438263 0.947205 0.151276
0.793579 0.947327 0.152557
0.951477 0.947388 0.153320
0.004700 0.003815 0.406891
0.121887 0.004364 0.407288
0.419983 0.005493 0.408264
0.787048 0.006897 0.409485
0.950378 0.007935 0.410370
0.006439 0.120514 0.411835
0.124329 0.121368 0.412445
0.422913 0.122986 0.413635
0.788208 0.125000 0.414978
0.950623 0.126343 0.415924
0.010437 0.417419 0.420990
0.129608 0.418549 0.421692
0.428711 0.420502 0.423035
0.790405 0.422668 0.424561
0.950958 0.424072 0.425446
0.015778 0.783783 0.431274
0.136200 0.784149 0.432098
0.435333 0.784912 0.433441
0.792694 0.785645 0.434814
0.951355 0.786072 0.435669
0.019318 0.947052 0.437958
0.140411 0.947144 0.438751
0.439301 0.947235 0.439972
0.793884 0.947357 0.441223
0.951538 0.947418 0.441864
0.005219 0.004181 0.761780
0.122711 0.004761 0.761993
0.420990 0.005951 0.762451
0.787476 0.007507 0.762878
0.950470 0.008545 0.763275
0.007141 0.121094 0.765472
0.125275 0.121948 0.765747
0.424011 0.123749 0.766205
0.788666 0.125763 0.766754
0.950684 0.127167 0.767120
0.011414 0.418121 0.771912
0.130798 0.419312 0.772217
0.429932 0.421265 0.772736
0.790833 0.423492 0.773285
0.951019 0.424866 0.773621
0.016785 0.784027 0.778931
0.137421 0.784515 0.779175
0.436523 0.785187 0.779663
0.792999 0.785889 0.780151
0.951416 0.786316 0.780457
0.020355 0.947113 0.783295
0.141602 0.947174 0.783569
0.440369 0.947296 0.783997
0.794250 0.947388 0.784424
0.951599 0.947449 0.784637
0.005615 0.004456 0.926483
0.123199 0.005066 0.926514
0.421570 0.006317 0.926605
0.787720 0.007874 0.926727
0.950531 0.008972 0.926819
0.007660 0.121460 0.928925
0.125946 0.122437 0.928986
0.424774 0.124176 0.929077
0.788910 0.126282 0.929199
0.950714 0.127655 0.929291
0.012054 0.418701 0.933136
0.131622 0.419769 0.933197
0.430725 0.421814 0.933289
0.791107 0.424011 0.933411
0.951080 0.425323 0.933472
0.017487 0.784241 0.937561
0.138245 0.784668 0.937653
0.437286 0.785370 0.937683
0.793274 0.786041 0.937805
0.951447 0.786469 0.937866
0.020996 0.947144 0.940369
0.142395 0.947205 0.940430
0.441010 0.947327 0.940491
0.794434 0.947418 0.940552
0.951599 0.947449 0.940613
