3d-lut/luts/Faded 47.CUBE
#Created by: Adobe Photoshop Export Color Lookup Plugin
#Copyright: (C) Copyright 2017 RocketStock
TITLE "Warm"
#LUT size
LUT_3D_SIZE 8
#data domain
#LUT data points
DOMAIN_MIN 0.000000 0.000000 0.000000
DOMAIN_MAX 0.903226 0.903226 0.903226
0.230469 0.054138 0.122009
0.323120 0.059692 0.123138
0.394806 0.066589 0.124481
0.454865 0.074738 0.126007
0.512207 0.083954 0.127686
0.574982 0.094238 0.129578
0.650024 0.105316 0.131592
0.743408 0.117279 0.133789
0.239685 0.149994 0.124451
0.331390 0.158539 0.125916
0.402222 0.168213 0.127625
0.462158 0.178711 0.129486
0.520386 0.190094 0.131531
0.585052 0.202118 0.133667
0.663116 0.214539 0.135956
0.760376 0.227509 0.138336
0.251617 0.251862 0.127625
0.341370 0.261780 0.129425
0.410889 0.272400 0.131439
0.470581 0.283386 0.133606
0.529724 0.294830 0.135834
0.596405 0.306305 0.138245
0.677734 0.317932 0.140717
0.778839 0.329498 0.143250
0.265381 0.345306 0.131409
0.352509 0.354736 0.133545
0.420471 0.364410 0.135834
0.479828 0.374207 0.138184
0.540009 0.384155 0.140625
0.608948 0.393982 0.143097
0.693573 0.403931 0.145721
0.798370 0.413666 0.148285
0.280396 0.424622 0.135712
0.364319 0.433472 0.138092
0.430542 0.442413 0.140533
0.489685 0.451630 0.143005
0.550995 0.460907 0.145599
0.622375 0.470245 0.148163
0.710266 0.479675 0.150787
0.818420 0.489044 0.153381
0.295929 0.499023 0.140472
0.376465 0.508575 0.142944
0.440918 0.518433 0.145508
0.499969 0.528656 0.148102
0.562469 0.539093 0.150665
0.636200 0.549835 0.153290
0.727356 0.560822 0.155853
0.838318 0.571747 0.158356
0.311401 0.584442 0.145477
0.388489 0.596893 0.147980
0.451324 0.609772 0.150635
0.510254 0.623199 0.153229
0.574097 0.636932 0.155731
0.650238 0.651001 0.158295
0.744354 0.665192 0.160706
0.857391 0.679443 0.163055
0.326294 0.699921 0.150543
0.400024 0.717255 0.153107
0.461456 0.735168 0.155670
0.520477 0.753540 0.158173
0.585663 0.771881 0.160645
0.663940 0.790253 0.162964
0.760620 0.808167 0.165222
0.874908 0.825470 0.167328
0.231903 0.055969 0.197449
0.324554 0.062103 0.198761
0.396118 0.069458 0.200226
0.456146 0.077972 0.201965
0.513611 0.087585 0.203857
0.576691 0.098236 0.205902
0.652344 0.109650 0.208191
0.746399 0.121857 0.210480
0.241730 0.153015 0.200195
0.333130 0.162079 0.201904
0.403748 0.171997 0.203827
0.463623 0.182861 0.205872
0.522034 0.194366 0.208099
0.587036 0.206604 0.210419
0.665680 0.219238 0.212891
0.763641 0.232300 0.215424
0.254028 0.255432 0.203735
0.343353 0.265564 0.205780
0.412628 0.276367 0.208038
0.472229 0.287537 0.210358
0.531586 0.299011 0.212799
0.598724 0.310638 0.215332
0.680542 0.322174 0.217926
0.782410 0.333679 0.220612
0.268158 0.348785 0.207977
0.354675 0.358215 0.210266
0.422333 0.368011 0.212708
0.481628 0.377838 0.215240
0.541992 0.387787 0.217834
0.611359 0.397644 0.220520
0.696594 0.407532 0.223206
0.802063 0.417175 0.225891
0.283325 0.427887 0.212616
0.366608 0.436707 0.215149
0.432495 0.445801 0.217804
0.491577 0.454987 0.220367
0.553131 0.464325 0.223114
0.624847 0.473663 0.225800
0.713440 0.483154 0.228546
0.822144 0.492523 0.231201
0.298828 0.502441 0.217651
0.378693 0.512177 0.220337
0.442871 0.522095 0.223022
0.501862 0.532471 0.225708
0.564667 0.543060 0.228485
0.638855 0.553833 0.231110
0.730560 0.564850 0.233734
0.841919 0.575836 0.236328
0.314209 0.588898 0.222900
0.390656 0.601532 0.225647
0.453217 0.614624 0.228333
0.512177 0.628174 0.231018
0.576294 0.642029 0.233643
0.652802 0.656189 0.236237
0.747406 0.670410 0.238678
0.860779 0.684631 0.240997
0.328979 0.706207 0.228241
0.402161 0.723816 0.230927
0.463257 0.741852 0.233551
0.522369 0.760254 0.236145
0.587738 0.778625 0.238617
0.666382 0.796875 0.240997
0.763489 0.814545 0.243256
0.877930 0.831604 0.245331
0.233551 0.058014 0.275024
0.325958 0.064636 0.276367
0.397400 0.072418 0.277893
0.457458 0.081421 0.279633
0.515137 0.091370 0.281555
0.578552 0.102325 0.283600
0.654755 0.114105 0.285767
0.749451 0.126526 0.288055
0.243866 0.156219 0.277863
0.334930 0.165588 0.279572
0.405334 0.175842 0.281464
0.465210 0.187042 0.283508
0.523712 0.198822 0.285736
0.589142 0.211182 0.287964
0.668396 0.223999 0.290375
0.767090 0.237091 0.292816
0.256561 0.259094 0.281403
0.345367 0.269440 0.283447
0.414398 0.280426 0.285675
0.473969 0.291748 0.287903
0.533447 0.303223 0.290283
0.601013 0.314880 0.292725
0.683472 0.326416 0.295227
0.786041 0.337891 0.297729
0.270905 0.352234 0.285583
0.356873 0.361816 0.287842
0.424164 0.371613 0.290192
0.483459 0.381470 0.292603
0.544006 0.391418 0.295135
0.613861 0.401215 0.297638
0.699677 0.411102 0.300201
0.805847 0.420776 0.302734
0.286194 0.431091 0.290131
0.368835 0.440002 0.292572
0.434448 0.449188 0.295044
0.493469 0.458374 0.297577
0.555237 0.467743 0.300140
0.627472 0.477112 0.302673
0.716614 0.486572 0.305176
0.825867 0.495972 0.307617
0.301697 0.505951 0.295013
0.380981 0.515808 0.297485
0.444855 0.525940 0.300079
0.503754 0.536285 0.302582
0.566833 0.546997 0.305115
0.641449 0.557800 0.307556
0.733734 0.568878 0.309967
0.845551 0.579895 0.312286
0.317017 0.593475 0.299957
0.392853 0.606323 0.302490
0.455109 0.619507 0.304993
0.514099 0.633270 0.307465
0.578461 0.647247 0.309875
0.655396 0.661377 0.312256
0.750519 0.675690 0.314484
0.864105 0.689758 0.316589
0.331604 0.712555 0.304932
0.404236 0.730408 0.307434
0.465118 0.748535 0.309784
0.524231 0.767059 0.312164
0.589813 0.785339 0.314392
0.668854 0.803436 0.316559
0.766357 0.820862 0.318573
0.880890 0.837585 0.320435
0.235291 0.060303 0.346802
0.327515 0.067352 0.348053
0.398804 0.075562 0.349457
0.458801 0.084900 0.351074
0.516632 0.095337 0.352814
0.580414 0.106506 0.354675
0.657166 0.118561 0.356628
0.752594 0.131195 0.358673
0.246063 0.159485 0.349426
0.336792 0.169250 0.351013
0.406952 0.179840 0.352753
0.466736 0.191254 0.354614
0.525482 0.203247 0.356567
0.591248 0.215851 0.358612
0.671143 0.228821 0.360718
0.770477 0.241943 0.362885
0.259155 0.262817 0.352692
0.347504 0.273499 0.354553
0.416138 0.284546 0.356476
0.475708 0.295959 0.358551
0.535370 0.307465 0.360626
0.603333 0.319092 0.362823
0.686432 0.330597 0.365021
0.789703 0.342010 0.367249
0.273682 0.355682 0.356445
0.359039 0.365387 0.358490
0.426056 0.375214 0.360565
0.485352 0.385132 0.362762
0.546082 0.395020 0.364960
0.616333 0.404907 0.367188
0.702789 0.414642 0.369415
0.809601 0.424255 0.371643
0.289062 0.434357 0.360504
0.371063 0.443329 0.362701
0.436371 0.452515 0.364899
0.495361 0.461823 0.367096
0.557373 0.471161 0.369354
0.630127 0.480652 0.371582
0.719788 0.490021 0.373779
0.829651 0.499481 0.375916
0.304626 0.509552 0.364838
0.383209 0.519440 0.367065
0.446747 0.529724 0.369293
0.505707 0.540161 0.371490
0.569000 0.550934 0.373688
0.644043 0.561829 0.375854
0.736908 0.572937 0.377960
0.849091 0.583923 0.379974
0.319763 0.598083 0.369202
0.394989 0.611115 0.371429
0.457031 0.624542 0.373627
0.515991 0.638336 0.375793
0.580627 0.652435 0.377899
0.657928 0.666595 0.379944
0.753571 0.680908 0.381836
0.867401 0.694916 0.383698
0.334290 0.719025 0.373535
0.406250 0.737061 0.375732
0.466888 0.755249 0.377838
0.526031 0.773773 0.379883
0.591858 0.791992 0.381775
0.671234 0.809875 0.383636
0.769135 0.827179 0.385406
0.883789 0.843384 0.387024
0.237091 0.062744 0.410339
0.329071 0.070251 0.411530
0.400238 0.078918 0.412842
0.460175 0.088623 0.414337
0.518188 0.099335 0.415924
0.582336 0.110809 0.417664
0.659607 0.123108 0.419464
0.755798 0.135986 0.421326
0.248352 0.162964 0.412811
0.338684 0.173035 0.414276
0.408569 0.183929 0.415894
0.468353 0.195618 0.417572
0.527283 0.207886 0.419403
0.593414 0.220551 0.421265
0.673920 0.233643 0.423248
0.773987 0.246826 0.425201
0.261719 0.266632 0.415863
0.349579 0.277466 0.417542
0.417969 0.288635 0.419312
0.477417 0.300171 0.421204
0.537292 0.311737 0.423157
0.605713 0.323364 0.425171
0.689423 0.334778 0.427185
0.793396 0.346130 0.429230
0.276520 0.359222 0.419281
0.361328 0.369019 0.421173
0.427948 0.378845 0.423065
0.487152 0.388763 0.425110
0.548126 0.398651 0.427124
0.618866 0.408508 0.429199
0.705933 0.418152 0.431213
0.813324 0.427765 0.433258
0.291962 0.437653 0.423004
0.373352 0.446686 0.425018
0.438293 0.455902 0.427063
0.497314 0.465302 0.429108
0.559509 0.474640 0.431152
0.632690 0.484100 0.433197
0.722961 0.493469 0.435211
0.833344 0.502899 0.437164
0.307495 0.513123 0.427002
0.385406 0.523132 0.429016
0.448700 0.533508 0.431061
0.507629 0.544067 0.433105
0.571167 0.554901 0.435120
0.646637 0.565857 0.437103
0.740051 0.576965 0.439056
0.852692 0.588074 0.440918
0.322571 0.602844 0.431000
0.397156 0.615967 0.433044
0.458893 0.629547 0.435059
0.517883 0.643433 0.437042
0.582733 0.657654 0.438995
0.660492 0.671844 0.440857
0.756561 0.686066 0.442657
0.870575 0.699951 0.444336
0.336823 0.725525 0.434998
0.408264 0.743683 0.436981
0.468658 0.761993 0.438904
0.527863 0.780487 0.440796
0.593964 0.798706 0.442596
0.673645 0.816284 0.444275
0.771851 0.833313 0.445892
0.886505 0.849121 0.447357
0.239044 0.065369 0.469666
0.330750 0.073273 0.470917
0.401703 0.082367 0.472290
0.461639 0.092377 0.473785
0.519775 0.103424 0.475464
0.584290 0.115204 0.477173
0.662201 0.127777 0.479034
0.759094 0.140839 0.480957
0.250732 0.166504 0.472229
0.340637 0.176941 0.473755
0.410278 0.188202 0.475403
0.470001 0.200012 0.477112
0.529053 0.212463 0.478973
0.595612 0.225250 0.480896
0.676697 0.238464 0.482910
0.777527 0.251648 0.484985
0.264435 0.270538 0.475372
0.351715 0.281555 0.477081
0.419800 0.292847 0.478912
0.479187 0.304413 0.480865
0.539307 0.316040 0.482849
0.608093 0.327545 0.484894
0.692505 0.339020 0.486938
0.797028 0.350220 0.489044
0.279358 0.362793 0.478882
0.363525 0.372589 0.480774
0.429871 0.382446 0.482758
0.489014 0.392395 0.484833
0.550201 0.402252 0.486847
0.621399 0.412048 0.488953
0.709076 0.421661 0.491058
0.817108 0.431152 0.493225
0.294922 0.440948 0.482727
0.375671 0.450073 0.484741
0.440216 0.459351 0.486786
0.499237 0.468689 0.488892
0.561676 0.478058 0.491028
0.635284 0.487518 0.493164
0.726166 0.496887 0.495209
0.837006 0.506317 0.497284
0.310333 0.516815 0.486694
0.387634 0.526886 0.488831
0.450592 0.537354 0.490936
0.509583 0.548065 0.493103
0.573334 0.558929 0.495148
0.649292 0.569977 0.497192
0.743225 0.581024 0.499237
0.856079 0.592102 0.501190
0.325317 0.607605 0.490875
0.399261 0.620880 0.493011
0.460754 0.634613 0.495087
0.519775 0.648621 0.497101
0.584869 0.662842 0.499176
0.662994 0.677002 0.501099
0.759552 0.691223 0.502991
0.873810 0.705078 0.504700
0.339417 0.732239 0.495026
0.410278 0.750366 0.497040
0.470490 0.768890 0.499115
0.529633 0.787170 0.501068
0.595947 0.805298 0.502899
0.675964 0.822601 0.504669
0.774536 0.839233 0.506317
0.889221 0.854553 0.507843
0.240997 0.068176 0.532440
0.332520 0.076447 0.533875
0.403198 0.085938 0.535522
0.463074 0.096313 0.537292
0.521454 0.107666 0.539215
0.586304 0.119781 0.541321
0.664734 0.132507 0.543457
0.762451 0.145782 0.545746
0.253143 0.170319 0.535461
0.342621 0.180969 0.537262
0.411987 0.192444 0.539185
0.471619 0.204498 0.541260
0.530884 0.217163 0.543427
0.597870 0.230042 0.545654
0.679565 0.243317 0.548004
0.781097 0.256561 0.550385
0.267090 0.274506 0.539093
0.353912 0.285706 0.541168
0.421631 0.297119 0.543335
0.480957 0.308624 0.545563
0.541290 0.320282 0.547913
0.610535 0.331726 0.550323
0.695526 0.343170 0.552795
0.800720 0.354218 0.555298
0.282196 0.366364 0.543243
0.365814 0.376190 0.545471
0.431793 0.386078 0.547821
0.490875 0.396057 0.550262
0.552338 0.405823 0.552704
0.623993 0.415619 0.555206
0.712250 0.425232 0.557739
0.820770 0.434601 0.560272
0.297760 0.444275 0.547760
0.377899 0.453430 0.550201
0.442139 0.462738 0.552612
0.501160 0.472137 0.555145
0.563812 0.481506 0.557648
0.637848 0.490967 0.560150
0.729309 0.500366 0.562653
0.840607 0.509735 0.565094
0.313171 0.520477 0.552551
0.389893 0.530731 0.555054
0.452515 0.541260 0.557556
0.511475 0.552032 0.560059
0.575470 0.562927 0.562592
0.651886 0.574005 0.565033
0.746277 0.585083 0.567444
0.859589 0.596100 0.569733
0.328003 0.612427 0.557495
0.401367 0.625885 0.559967
0.462646 0.639709 0.562531
0.521637 0.653778 0.564972
0.587006 0.668030 0.567383
0.665497 0.682312 0.569672
0.762451 0.696350 0.571899
0.876831 0.710052 0.574005
0.341919 0.738861 0.562439
0.412201 0.757080 0.564911
0.472198 0.775604 0.567291
0.531403 0.793854 0.569611
0.597870 0.811707 0.571808
0.678223 0.828766 0.573914
0.777130 0.845032 0.575928
0.891754 0.859924 0.577728
0.243103 0.071045 0.608551
0.334259 0.079803 0.610535
0.404755 0.089630 0.612701
0.464630 0.100433 0.615082
0.523071 0.112061 0.617615
0.588379 0.124390 0.620331
0.667389 0.137299 0.623199
0.765808 0.150757 0.626190
0.255646 0.174103 0.612640
0.344666 0.185089 0.614990
0.413757 0.196838 0.617554
0.473297 0.209076 0.620209
0.532745 0.221832 0.623077
0.600159 0.234863 0.626099
0.682434 0.248169 0.629181
0.784698 0.261505 0.632355
0.269897 0.278595 0.617432
0.356049 0.289795 0.620117
0.423523 0.301331 0.623016
0.482819 0.312897 0.626007
0.543304 0.324554 0.629059
0.612946 0.335907 0.632233
0.698578 0.347229 0.635498
0.804443 0.358215 0.638763
0.285095 0.369904 0.622894
0.368011 0.379822 0.625916
0.433716 0.389709 0.628998
0.492767 0.399597 0.632141
0.554474 0.409485 0.635376
0.626526 0.419128 0.638672
0.715454 0.428680 0.642029
0.824493 0.437988 0.645264
0.300659 0.447601 0.628845
0.380157 0.456848 0.632050
0.444092 0.466156 0.635284
0.503082 0.475586 0.638550
0.566010 0.485077 0.641876
0.640503 0.494415 0.645172
0.732574 0.503845 0.648468
0.844269 0.513123 0.651672
0.315979 0.524200 0.635162
0.392059 0.534576 0.638489
0.454437 0.545166 0.641754
0.513397 0.556030 0.645050
0.577637 0.566986 0.648315
0.654449 0.578064 0.651550
0.749359 0.589111 0.654694
0.862946 0.600098 0.657715
0.330658 0.617340 0.641663
0.403412 0.630890 0.644928
0.464417 0.644836 0.648224
0.523529 0.659088 0.651459
0.589050 0.673248 0.654633
0.667938 0.687469 0.657623
0.765320 0.701385 0.660522
0.879822 0.714905 0.663300
0.344391 0.745483 0.648102
0.414154 0.763855 0.651398
0.473907 0.782318 0.654480
0.533142 0.800385 0.657501
0.599854 0.818054 0.660431
0.680481 0.834900 0.663208
0.779633 0.850616 0.665741
0.894318 0.865112 0.668060
