3d-lut/luts/Faded 47.CUBE
#Created by: Adobe Photoshop Export Color Lookup Plugin
#Copyright: (C) Copyright 2017 RocketStock
TITLE "Warm"
#LUT size
LUT_3D_SIZE 32
#data domain
DOMAIN_MIN 0.0 0.0 0.0
DOMAIN_MAX 1.0 1.0 1.0
#LUT data points
0.230469 0.054138 0.122009
0.255829 0.055359 0.122253
0.279785 0.056702 0.122559
0.302216 0.058136 0.122864
0.323120 0.059692 0.123138
0.342682 0.061279 0.123444
0.361053 0.062988 0.123749
0.378357 0.064728 0.124115
0.394806 0.066589 0.124481
0.410583 0.068573 0.124817
0.425720 0.070496 0.125244
0.440430 0.072571 0.125610
0.454865 0.074738 0.126007
0.469116 0.076904 0.126404
0.483368 0.079193 0.126801
0.497681 0.081573 0.127258
0.512207 0.083954 0.127686
0.527100 0.086456 0.128143
0.542450 0.088928 0.128601
0.558380 0.091553 0.129059
0.574982 0.094238 0.129578
0.592285 0.096924 0.130035
0.610535 0.099670 0.130554
0.629791 0.102509 0.131042
0.650024 0.105316 0.131592
0.671478 0.108276 0.132141
0.694153 0.111298 0.132660
0.718079 0.114227 0.133209
0.743408 0.117279 0.133789
0.769989 0.120361 0.134308
0.797852 0.123505 0.134827
0.826630 0.126770 0.135468
0.232483 0.076416 0.122559
0.257843 0.077972 0.122833
0.281769 0.079590 0.123108
0.304169 0.081299 0.123444
0.325012 0.083038 0.123749
0.344482 0.084900 0.124115
0.362823 0.086853 0.124451
0.380096 0.088806 0.124817
0.396545 0.090881 0.125214
0.412262 0.093048 0.125610
0.427399 0.095215 0.126007
0.442108 0.097473 0.126404
0.456573 0.099884 0.126801
0.470886 0.102203 0.127228
0.485168 0.104706 0.127686
0.499512 0.107208 0.128113
0.514130 0.109802 0.128571
0.529144 0.112427 0.129059
0.544556 0.115082 0.129547
0.560608 0.117889 0.130035
0.577362 0.120697 0.130554
0.594818 0.123505 0.131042
0.613281 0.126404 0.131561
0.632690 0.129364 0.132141
0.653137 0.132324 0.132629
0.674835 0.135376 0.133209
0.697693 0.138489 0.133728
0.721893 0.141571 0.134277
0.747437 0.144745 0.134827
0.774292 0.147858 0.135406
0.802338 0.151123 0.135986
0.831299 0.154388 0.136597
0.234680 0.100250 0.123108
0.260101 0.101959 0.123444
0.283875 0.103790 0.123749
0.306213 0.105682 0.124084
0.326965 0.107635 0.124451
0.346405 0.109680 0.124817
0.364716 0.111755 0.125214
0.381927 0.113892 0.125549
0.398346 0.116150 0.126007
0.414032 0.118469 0.126373
0.429199 0.120789 0.126801
0.443909 0.123230 0.127228
0.458374 0.125763 0.127686
0.472687 0.128265 0.128113
0.487000 0.130920 0.128571
0.501434 0.133514 0.129028
0.516144 0.136230 0.129517
0.531219 0.139069 0.130035
0.546753 0.141815 0.130524
0.562927 0.144745 0.131042
0.579803 0.147675 0.131561
0.597473 0.150543 0.132080
0.616058 0.153625 0.132629
0.635681 0.156677 0.133179
0.656372 0.159668 0.133698
0.678253 0.162872 0.134277
0.701324 0.165955 0.134827
0.725800 0.169159 0.135406
0.751648 0.172394 0.135986
0.778717 0.175629 0.136597
0.806946 0.178925 0.137177
0.836151 0.182251 0.137756
0.237152 0.124908 0.123749
0.262421 0.126770 0.124084
0.286194 0.128754 0.124451
0.308441 0.130798 0.124756
0.329132 0.132843 0.125153
0.348480 0.135071 0.125549
0.366699 0.137360 0.125977
0.383881 0.139618 0.126373
0.400269 0.142029 0.126801
0.415924 0.144501 0.127167
0.431030 0.146942 0.127655
0.445770 0.149536 0.128052
0.460236 0.152161 0.128571
0.474548 0.154785 0.129028
0.488892 0.157532 0.129517
0.503448 0.160278 0.130005
0.518219 0.163086 0.130524
0.533417 0.166016 0.131042
0.549042 0.168884 0.131561
0.565338 0.171814 0.132050
0.582397 0.174866 0.132599
0.600189 0.177826 0.133148
0.618988 0.180969 0.133698
0.638824 0.184082 0.134216
0.659637 0.187164 0.134827
0.681793 0.190399 0.135406
0.705170 0.193512 0.135986
0.729797 0.196838 0.136597
0.755890 0.200073 0.137177
0.783264 0.203278 0.137726
0.811707 0.206604 0.138367
0.841064 0.209961 0.138977
0.239685 0.149994 0.124451
0.264954 0.152008 0.124756
0.288635 0.154114 0.125153
0.310760 0.156372 0.125549
0.331390 0.158539 0.125916
0.350677 0.160889 0.126373
0.368805 0.163330 0.126770
0.385895 0.165710 0.127167
0.402222 0.168213 0.127625
0.417877 0.170776 0.128052
0.432953 0.173370 0.128540
0.447693 0.176086 0.129028
0.462158 0.178711 0.129486
0.476532 0.181519 0.130005
0.490936 0.184357 0.130493
0.505493 0.187134 0.131012
0.520386 0.190094 0.131531
0.535675 0.193054 0.132050
0.551422 0.195953 0.132599
0.567841 0.199005 0.133148
0.585052 0.202118 0.133667
0.602997 0.205109 0.134216
0.622040 0.208252 0.134827
0.641998 0.211365 0.135376
0.663116 0.214539 0.135956
0.685455 0.217804 0.136566
0.709015 0.220978 0.137115
0.733978 0.224243 0.137726
0.760376 0.227509 0.138336
0.787872 0.230713 0.138947
0.816498 0.234039 0.139526
0.846069 0.237396 0.140228
0.242493 0.175476 0.125153
0.267609 0.177612 0.125519
0.291199 0.179871 0.125916
0.313171 0.182190 0.126312
0.333710 0.184540 0.126770
0.352936 0.186981 0.127167
0.371002 0.189484 0.127625
0.388000 0.191986 0.128052
0.404297 0.194611 0.128540
0.419922 0.197235 0.129028
0.434967 0.199890 0.129425
0.449677 0.202698 0.129944
0.464142 0.205414 0.130432
0.478546 0.208252 0.131012
0.493073 0.211151 0.131531
0.507660 0.214020 0.132019
0.522583 0.217010 0.132568
0.537994 0.220001 0.133087
0.553864 0.222931 0.133636
0.570435 0.226013 0.134216
0.587769 0.229095 0.134796
0.605927 0.232147 0.135376
0.625061 0.235321 0.135956
0.645294 0.238434 0.136505
0.666626 0.241638 0.137085
0.689178 0.244843 0.137695
0.713013 0.247986 0.138306
0.738220 0.251221 0.138885
0.764832 0.254425 0.139526
0.792572 0.257629 0.140137
0.821442 0.260864 0.140747
0.851135 0.264160 0.141388
0.245361 0.201050 0.125916
0.270416 0.203308 0.126312
0.293915 0.205658 0.126770
0.315796 0.208099 0.127167
0.336151 0.210480 0.127625
0.355255 0.213074 0.128021
0.373260 0.215668 0.128510
0.390228 0.218231 0.128998
0.406433 0.220917 0.129425
0.421967 0.223541 0.129944
0.437012 0.226349 0.130432
0.451782 0.229095 0.130951
0.466248 0.231903 0.131500
0.480682 0.234802 0.132019
0.495178 0.237732 0.132568
0.509888 0.240570 0.133057
0.524902 0.243591 0.133636
0.540375 0.246582 0.134216
0.556427 0.249542 0.134735
0.573090 0.252625 0.135345
0.590546 0.255646 0.135925
0.608917 0.258728 0.136475
0.628265 0.261871 0.137085
0.648682 0.264954 0.137695
0.670227 0.268097 0.138245
0.693054 0.271210 0.138885
0.717133 0.274261 0.139465
0.742615 0.277435 0.140137
0.769409 0.280640 0.140747
0.797394 0.283691 0.141357
0.826355 0.286896 0.141998
0.856140 0.289948 0.142609
0.248413 0.226624 0.126770
0.273315 0.228912 0.127167
0.296722 0.231354 0.127625
0.318481 0.233856 0.128021
0.338715 0.236359 0.128479
0.357727 0.238953 0.128998
0.375610 0.241577 0.129425
0.392517 0.244202 0.129944
0.408630 0.246918 0.130432
0.424133 0.249573 0.130951
0.439178 0.252380 0.131439
0.453918 0.255219 0.132019
0.468353 0.257965 0.132507
0.482880 0.260864 0.133057
0.497437 0.263855 0.133636
0.512146 0.266663 0.134155
0.527283 0.269623 0.134735
0.542877 0.272614 0.135315
0.558960 0.275543 0.135864
0.575836 0.278564 0.136475
0.593445 0.281494 0.137054
0.612000 0.284546 0.137695
0.631531 0.287567 0.138245
0.652100 0.290527 0.138855
0.673950 0.293610 0.139465
0.696991 0.296631 0.140106
0.721283 0.299622 0.140717
0.746979 0.302673 0.141357
0.774109 0.305695 0.141968
0.802277 0.308655 0.142609
0.831451 0.311676 0.143250
0.861359 0.314606 0.143860
0.251617 0.251862 0.127625
0.276398 0.254211 0.128021
0.299622 0.256714 0.128479
0.321228 0.259277 0.128998
0.341370 0.261780 0.129425
0.360229 0.264374 0.129944
0.377991 0.266937 0.130432
0.394806 0.269653 0.130951
0.410889 0.272400 0.131439
0.426392 0.275055 0.132019
0.441376 0.277802 0.132507
0.456055 0.280640 0.133057
0.470581 0.283386 0.133606
0.485107 0.286224 0.134155
0.499664 0.289093 0.134735
0.514465 0.291931 0.135284
0.529724 0.294830 0.135834
0.545380 0.297668 0.136444
0.561646 0.300537 0.137054
0.578674 0.303467 0.137634
0.596405 0.306305 0.138245
0.615143 0.309204 0.138855
0.634888 0.312164 0.139465
0.655670 0.315033 0.140076
0.677734 0.317932 0.140717
0.700989 0.320831 0.141327
0.725555 0.323730 0.141937
0.751556 0.326630 0.142578
0.778839 0.329498 0.143250
0.807190 0.332367 0.143860
0.836548 0.335236 0.144501
0.866608 0.337982 0.145111
0.254913 0.276611 0.128479
0.279510 0.279022 0.128937
0.302612 0.281494 0.129425
0.324097 0.284027 0.129944
0.344025 0.286499 0.130432
0.362793 0.289124 0.130951
0.380432 0.291687 0.131439
0.397217 0.294342 0.131958
0.413239 0.296997 0.132507
0.428619 0.299622 0.133057
0.443604 0.302338 0.133575
0.458282 0.305115 0.134155
0.472778 0.307800 0.134705
0.487366 0.310516 0.135284
0.502045 0.313293 0.135834
0.516907 0.316010 0.136444
0.532227 0.318817 0.137054
0.547974 0.321533 0.137604
0.564392 0.324371 0.138245
0.581512 0.327118 0.138855
0.599457 0.329895 0.139465
0.618378 0.332703 0.140045
0.638306 0.335510 0.140717
0.659332 0.338257 0.141296
0.681580 0.341003 0.141876
0.705139 0.343842 0.142578
0.729889 0.346558 0.143158
0.756134 0.349335 0.143860
0.783569 0.352020 0.144501
0.812225 0.354767 0.145111
0.841705 0.357544 0.145721
0.871826 0.360199 0.146362
0.258301 0.300537 0.129395
0.282806 0.302917 0.129913
0.305695 0.305389 0.130402
0.326935 0.307831 0.130920
0.346802 0.310303 0.131409
0.365479 0.312897 0.131958
0.382965 0.315399 0.132446
0.399628 0.317963 0.133026
0.415619 0.320587 0.133545
0.430939 0.323090 0.134094
0.445892 0.325745 0.134674
0.460571 0.328430 0.135223
0.475128 0.330994 0.135834
0.489685 0.333649 0.136444
0.504364 0.336273 0.136993
0.519348 0.338959 0.137604
0.534790 0.341644 0.138214
0.550598 0.344299 0.138824
0.567200 0.346954 0.139404
0.584503 0.349701 0.140045
0.602570 0.352295 0.140656
0.621643 0.355011 0.141296
0.641785 0.357697 0.141876
0.663025 0.360291 0.142487
0.685516 0.362976 0.143127
0.709290 0.365631 0.143860
0.734314 0.368256 0.144470
0.760834 0.370911 0.145111
0.788513 0.373444 0.145721
0.817261 0.376099 0.146362
0.846924 0.378723 0.147034
0.877136 0.381287 0.147675
0.261841 0.323486 0.130371
0.286133 0.325806 0.130920
0.308838 0.328217 0.131409
0.329956 0.330597 0.131927
0.349609 0.333069 0.132446
0.368134 0.335571 0.133026
0.385559 0.337952 0.133545
0.402161 0.340485 0.134094
0.418030 0.343048 0.134674
0.433319 0.345490 0.135223
0.448212 0.348022 0.135834
0.462891 0.350616 0.136444
0.477448 0.353119 0.136993
0.492065 0.355682 0.137604
0.506775 0.358215 0.138184
0.521881 0.360809 0.138763
0.537354 0.363373 0.139404
0.553314 0.365906 0.140045
0.570007 0.368530 0.140625
0.587463 0.371063 0.141266
0.605743 0.373627 0.141876
0.624969 0.376190 0.142487
0.645355 0.378815 0.143127
0.666809 0.381317 0.143799
0.689514 0.383881 0.144440
0.713470 0.386414 0.145050
0.738831 0.388947 0.145721
0.765533 0.391510 0.146362
0.793396 0.393951 0.147003
0.822357 0.396484 0.147675
0.852112 0.398987 0.148315
0.882477 0.401428 0.148926
0.265381 0.345306 0.131409
0.289520 0.347656 0.131927
0.312073 0.350037 0.132446
0.332947 0.352356 0.132965
0.352509 0.354736 0.133545
0.370880 0.357178 0.134064
0.388184 0.359497 0.134644
0.404663 0.362000 0.135223
0.420471 0.364410 0.135834
0.435730 0.366852 0.136353
0.450592 0.369354 0.136993
0.465302 0.371704 0.137573
0.479828 0.374207 0.138184
0.494476 0.376709 0.138763
0.509308 0.379150 0.139374
0.524414 0.381683 0.140015
0.540009 0.384155 0.140625
0.556122 0.386566 0.141235
0.572937 0.389099 0.141846
0.590485 0.391571 0.142487
0.608948 0.393982 0.143097
0.628448 0.396545 0.143768
0.648987 0.399017 0.144409
0.670593 0.401428 0.145050
0.693573 0.403931 0.145721
0.717743 0.406342 0.146332
0.743378 0.408783 0.146973
0.770294 0.411255 0.147644
0.798370 0.413666 0.148285
0.827484 0.416077 0.148926
0.857391 0.418518 0.149567
0.887817 0.420898 0.150177
0.269043 0.366302 0.132416
0.293030 0.368591 0.132965
0.315308 0.370880 0.133514
0.336029 0.373138 0.134064
0.355438 0.375488 0.134644
0.373657 0.377838 0.135223
0.390839 0.380157 0.135742
0.407227 0.382538 0.136353
0.422943 0.384918 0.136963
0.438141 0.387238 0.137573
0.453003 0.389648 0.138184
0.467651 0.392029 0.138733
0.482269 0.394409 0.139374
0.496918 0.396881 0.139984
0.511780 0.399231 0.140625
0.526978 0.401642 0.141235
0.542664 0.404053 0.141846
0.558929 0.406433 0.142487
0.575867 0.408875 0.143097
0.593628 0.411285 0.143738
0.612244 0.413696 0.144379
0.631927 0.416077 0.145050
0.652588 0.418457 0.145660
0.674500 0.420898 0.146301
0.697662 0.423309 0.146973
0.722107 0.425629 0.147614
0.747925 0.428040 0.148254
0.775146 0.430450 0.148895
0.803375 0.432770 0.149536
0.832642 0.435120 0.150177
0.862701 0.437531 0.150848
0.893127 0.439850 0.151489
0.272766 0.386414 0.133453
0.296539 0.388611 0.134064
0.318634 0.390869 0.134613
0.339142 0.393127 0.135162
0.358398 0.395416 0.135742
0.376465 0.397705 0.136353
0.393494 0.399933 0.136932
0.409790 0.402283 0.137512
0.425415 0.404572 0.138123
0.440613 0.406891 0.138733
0.455444 0.409271 0.139343
0.470123 0.411560 0.139954
0.484711 0.413910 0.140625
0.499420 0.416290 0.141235
0.514313 0.418610 0.141815
0.529633 0.420990 0.142456
0.545410 0.423370 0.143097
0.561768 0.425659 0.143707
0.578888 0.428040 0.144348
0.596802 0.430420 0.145020
0.615540 0.432739 0.145630
0.635406 0.435120 0.146271
0.656311 0.437469 0.146942
0.678436 0.439850 0.147614
0.701813 0.442200 0.148254
0.726471 0.444519 0.148865
0.752563 0.446869 0.149536
0.779968 0.449280 0.150177
0.808380 0.451569 0.150787
0.837799 0.453918 0.151489
0.867859 0.456238 0.152130
0.898468 0.458527 0.152771
0.276550 0.405762 0.134583
0.300110 0.407990 0.135162
0.321991 0.410187 0.135742
0.342285 0.412415 0.136322
0.361359 0.414673 0.136932
0.379272 0.416931 0.137482
0.396240 0.419159 0.138092
0.412445 0.421448 0.138702
0.427979 0.423676 0.139313
0.443115 0.425995 0.139893
0.457916 0.428284 0.140594
0.472534 0.430573 0.141174
0.487152 0.432892 0.141754
0.501953 0.435211 0.142456
0.516907 0.437531 0.143036
0.532318 0.439880 0.143677
0.548187 0.442200 0.144348
0.564697 0.444519 0.144989
0.581879 0.446869 0.145599
0.599915 0.449188 0.146271
0.618927 0.451538 0.146942
0.638977 0.453918 0.147552
0.660065 0.456177 0.148163
0.682404 0.458557 0.148834
0.706055 0.460907 0.149536
0.730896 0.463196 0.150146
0.757202 0.465607 0.150787
0.784821 0.467896 0.151489
0.813385 0.470215 0.152069
0.842926 0.472565 0.152771
0.873077 0.474854 0.153381
0.903809 0.477173 0.154022
0.280396 0.424622 0.135712
0.303680 0.426819 0.136292
0.325348 0.429016 0.136871
0.345459 0.431183 0.137451
0.364319 0.433472 0.138092
0.382141 0.435730 0.138702
0.398956 0.437927 0.139252
0.415070 0.440186 0.139893
0.430542 0.442413 0.140533
0.445618 0.444733 0.141174
0.460419 0.447052 0.141754
0.475067 0.449310 0.142395
0.489685 0.451630 0.143005
0.504517 0.453949 0.143677
0.519501 0.456177 0.144348
0.535004 0.458557 0.144958
0.550995 0.460907 0.145599
0.567596 0.463196 0.146271
0.584991 0.465607 0.146912
0.603210 0.467896 0.147552
0.622375 0.470245 0.148163
0.642517 0.472595 0.148804
0.663879 0.474945 0.149506
0.686432 0.477264 0.150116
0.710266 0.479675 0.150787
0.735382 0.481995 0.151398
0.761902 0.484406 0.152069
0.789703 0.486725 0.152740
0.818420 0.489044 0.153381
0.848083 0.491455 0.153992
0.878387 0.493835 0.154633
0.909027 0.496155 0.155273
0.284241 0.443146 0.136841
0.307281 0.445374 0.137451
0.328705 0.447540 0.138092
0.348663 0.449738 0.138641
0.367371 0.451996 0.139252
0.385010 0.454254 0.139862
0.401703 0.456451 0.140503
0.417725 0.458740 0.141144
0.433136 0.460999 0.141724
0.448151 0.463287 0.142395
0.462921 0.465637 0.143005
0.477539 0.467896 0.143677
0.492218 0.470276 0.144318
0.507080 0.472595 0.144928
0.522156 0.474915 0.145538
0.537750 0.477264 0.146240
0.553864 0.479675 0.146881
0.570557 0.481964 0.147522
0.588104 0.484406 0.148163
0.606415 0.486694 0.148804
0.625763 0.489105 0.149475
0.646179 0.491547 0.150085
0.667664 0.493896 0.150757
0.690460 0.496338 0.151398
0.714539 0.498749 0.152039
0.739868 0.501160 0.152679
0.766632 0.503571 0.153320
0.794586 0.506012 0.153992
0.823425 0.508362 0.154633
0.853210 0.510834 0.155273
0.883484 0.513184 0.155884
0.914276 0.515625 0.156525
0.288116 0.461517 0.138000
0.310944 0.463745 0.138641
0.332123 0.466034 0.139252
0.351868 0.468201 0.139862
0.370392 0.470520 0.140503
0.387817 0.472748 0.141113
0.404480 0.475098 0.141724
0.420410 0.477386 0.142365
0.435730 0.479675 0.143005
0.450684 0.482056 0.143646
0.465454 0.484406 0.144287
0.480072 0.486694 0.144897
0.494781 0.489105 0.145538
0.509644 0.491547 0.146210
0.524872 0.493866 0.146851
0.540466 0.496338 0.147522
0.556702 0.498749 0.148163
0.573547 0.501190 0.148804
0.591187 0.503601 0.149414
0.609680 0.506042 0.150055
0.629211 0.508514 0.150757
0.649841 0.510986 0.151398
0.671539 0.513428 0.152039
0.694519 0.515961 0.152649
0.718750 0.518463 0.153320
0.744385 0.520905 0.153931
0.771301 0.523407 0.154633
0.799469 0.525970 0.155243
0.828430 0.528412 0.155853
0.858246 0.530945 0.156525
0.888641 0.533417 0.157135
0.919495 0.535950 0.157776
0.292023 0.480072 0.139252
0.314575 0.482361 0.139862
0.335541 0.484650 0.140472
0.355072 0.486877 0.141083
0.373413 0.489258 0.141693
0.390747 0.491577 0.142334
0.407257 0.493927 0.142975
0.423035 0.496368 0.143616
0.438324 0.498718 0.144257
0.453247 0.501160 0.144897
0.467987 0.503601 0.145538
0.482635 0.506012 0.146179
0.497375 0.508484 0.146790
0.512268 0.510986 0.147522
0.527527 0.513458 0.148132
0.543243 0.515991 0.148773
0.559540 0.518433 0.149414
0.576569 0.520966 0.150024
0.594360 0.523529 0.150726
0.613037 0.526062 0.151398
0.632721 0.528656 0.152008
0.653534 0.531219 0.152649
0.675415 0.533783 0.153320
0.698608 0.536407 0.153931
0.723053 0.539032 0.154602
0.748840 0.541595 0.155212
0.776001 0.544250 0.155853
0.804230 0.546783 0.156494
0.833374 0.549469 0.157104
0.863312 0.552094 0.157776
0.893738 0.554688 0.158356
0.924561 0.557343 0.158997
0.295929 0.499023 0.140472
0.318207 0.501373 0.141083
0.338898 0.503693 0.141693
0.358276 0.506134 0.142334
0.376465 0.508575 0.142944
0.393616 0.510986 0.143585
0.410004 0.513458 0.144257
0.425751 0.515991 0.144897
0.440918 0.518433 0.145508
0.455841 0.520966 0.146149
0.470581 0.523529 0.146790
0.485199 0.526062 0.147491
0.499969 0.528656 0.148102
0.514862 0.531189 0.148712
0.530212 0.533844 0.149384
0.546082 0.536499 0.150024
0.562469 0.539093 0.150665
0.579559 0.541779 0.151367
0.597504 0.544495 0.152008
0.616333 0.547150 0.152649
0.636200 0.549835 0.153290
0.657196 0.552582 0.153931
0.679321 0.555267 0.154541
0.702667 0.558044 0.155212
0.727356 0.560822 0.155853
0.753357 0.563507 0.156464
0.780731 0.566254 0.157074
0.809052 0.569000 0.157745
0.838318 0.571747 0.158356
0.868286 0.574585 0.158997
0.898743 0.577332 0.159576
0.929596 0.580109 0.160156
0.299805 0.518585 0.141693
0.321808 0.521088 0.142334
0.342285 0.523529 0.142914
0.361450 0.526093 0.143585
0.379456 0.528687 0.144257
0.396515 0.531189 0.144867
0.412781 0.533813 0.145477
0.428375 0.536469 0.146149
0.443512 0.539093 0.146759
0.458374 0.541748 0.147430
0.473083 0.544495 0.148102
0.487732 0.547150 0.148712
0.502502 0.549927 0.149384
0.517517 0.552582 0.150024
0.532928 0.555389 0.150635
0.548859 0.558258 0.151367
0.565338 0.561005 0.151978
0.582611 0.563843 0.152618
0.600708 0.566711 0.153259
0.619659 0.569519 0.153900
0.639679 0.572418 0.154510
0.660889 0.575317 0.155182
0.683167 0.578125 0.155762
0.706726 0.581085 0.156433
0.731567 0.583923 0.157043
0.757874 0.586884 0.157715
0.785339 0.589844 0.158325
0.813782 0.592712 0.158966
0.843170 0.595703 0.159576
0.873199 0.598663 0.160126
0.903748 0.601532 0.160736
0.934540 0.604523 0.161346
0.303711 0.539185 0.142914
0.325439 0.541809 0.143524
0.345703 0.544434 0.144165
0.364655 0.547150 0.144867
0.382507 0.549927 0.145477
0.399384 0.552582 0.146118
0.415527 0.555359 0.146759
0.431061 0.558258 0.147430
0.446106 0.561005 0.148010
0.460968 0.563873 0.148712
0.475616 0.566711 0.149353
0.490265 0.569611 0.149994
0.505096 0.572540 0.150635
0.520172 0.575439 0.151276
0.535645 0.578430 0.151947
0.551666 0.581451 0.152618
0.568268 0.584381 0.153229
0.585663 0.587433 0.153870
0.603912 0.590485 0.154510
0.623016 0.593506 0.155151
0.643250 0.596588 0.155762
0.664551 0.599701 0.156433
0.687042 0.602753 0.157043
0.710785 0.605865 0.157684
0.735840 0.608948 0.158295
0.762299 0.612091 0.158905
0.789948 0.615204 0.159546
0.818542 0.618286 0.160126
0.847992 0.621429 0.160736
0.878082 0.624573 0.161346
0.908630 0.627686 0.161926
0.939453 0.630859 0.162506
0.307556 0.561005 0.144165
0.329041 0.563873 0.144806
0.349030 0.566681 0.145477
0.367828 0.569611 0.146118
0.385498 0.572510 0.146729
0.402191 0.575439 0.147369
0.418243 0.578430 0.148010
0.433716 0.581482 0.148712
0.448730 0.584473 0.149353
0.463470 0.587524 0.149963
0.478119 0.590546 0.150635
0.492828 0.593689 0.151276
0.507690 0.596893 0.151917
0.522797 0.599976 0.152557
0.538361 0.603210 0.153229
0.554474 0.606445 0.153870
0.571198 0.609619 0.154480
0.588715 0.612854 0.155121
0.607086 0.616150 0.155762
0.626343 0.619385 0.156403
0.646759 0.622711 0.157013
0.668152 0.625946 0.157654
0.690918 0.629272 0.158295
0.714874 0.632629 0.158905
0.740143 0.635925 0.159515
0.766724 0.639252 0.160126
0.794525 0.642639 0.160736
0.823181 0.645935 0.161346
0.852722 0.649261 0.161926
0.882843 0.652649 0.162506
0.913361 0.655914 0.163086
0.944153 0.659302 0.163635
0.311401 0.584442 0.145477
0.332611 0.587524 0.146088
0.352417 0.590515 0.146729
0.370972 0.593689 0.147369
0.388489 0.596893 0.147980
0.405060 0.600006 0.148651
0.420990 0.603271 0.149323
0.436371 0.606537 0.149933
0.451324 0.609772 0.150635
0.466064 0.613098 0.151245
0.480682 0.616364 0.151886
0.495361 0.619720 0.152527
0.510254 0.623199 0.153229
0.525482 0.626526 0.153839
0.541077 0.630035 0.154480
0.557251 0.633514 0.155121
0.574097 0.636932 0.155731
0.591766 0.640411 0.156403
0.610229 0.643982 0.156982
0.629700 0.647461 0.157623
0.650238 0.651001 0.158295
0.671906 0.654480 0.158875
0.694763 0.658051 0.159485
0.718872 0.661652 0.160126
0.744354 0.665192 0.160706
0.771057 0.668793 0.161285
0.799011 0.672363 0.161896
0.827789 0.675873 0.162506
0.857391 0.679443 0.163055
0.887512 0.683044 0.163635
0.917999 0.686493 0.164215
0.948822 0.690033 0.164764
0.315186 0.609741 0.146729
0.336151 0.613068 0.147339
0.355682 0.616394 0.147980
0.374054 0.619781 0.148651
0.391449 0.623230 0.149292
0.407837 0.626648 0.149933
0.423676 0.630188 0.150604
0.438965 0.633667 0.151215
0.453888 0.637268 0.151886
0.468567 0.640839 0.152527
0.483215 0.644379 0.153168
0.497925 0.648071 0.153839
0.512848 0.651794 0.154480
0.528076 0.655396 0.155090
0.543823 0.659149 0.155701
0.560059 0.662903 0.156372
0.577026 0.666565 0.156952
0.594757 0.670410 0.157623
0.613373 0.674103 0.158203
0.632996 0.677887 0.158875
0.653717 0.681732 0.159485
0.675507 0.685486 0.160095
0.698547 0.689331 0.160675
0.722870 0.693176 0.161285
0.748474 0.696899 0.161896
0.775391 0.700775 0.162476
0.803436 0.704559 0.163055
0.832306 0.708313 0.163635
0.861908 0.712097 0.164215
0.891998 0.715790 0.164764
0.922577 0.719635 0.165253
0.953308 0.723328 0.165833
0.318939 0.637268 0.147949
0.339691 0.640869 0.148621
0.358978 0.644470 0.149261
0.377136 0.648224 0.149933
0.394348 0.651978 0.150543
0.410675 0.655640 0.151215
0.426392 0.659454 0.151886
0.441559 0.663269 0.152496
0.456421 0.667145 0.153168
0.471100 0.671021 0.153839
0.485748 0.674896 0.154419
0.500458 0.678894 0.155090
0.515411 0.682892 0.155701
0.530670 0.686798 0.156342
0.546478 0.690826 0.156952
0.562866 0.694885 0.157593
0.579926 0.698822 0.158203
0.597778 0.702942 0.158844
0.616516 0.706879 0.159454
0.636261 0.711029 0.160034
0.657166 0.715088 0.160675
0.679169 0.719147 0.161255
0.702301 0.723236 0.161896
0.726807 0.727325 0.162445
0.752594 0.731323 0.163025
0.779633 0.735413 0.163605
0.807800 0.739471 0.164185
0.836700 0.743439 0.164734
0.866333 0.747437 0.165253
0.896484 0.751373 0.165833
0.926971 0.755341 0.166351
0.957703 0.759277 0.166901
0.322632 0.667206 0.149231
0.343140 0.671173 0.149933
0.362213 0.675079 0.150543
0.380219 0.679169 0.151184
0.397217 0.683136 0.151794
0.413422 0.687256 0.152496
0.429016 0.691406 0.153137
0.444122 0.695526 0.153809
0.458923 0.699677 0.154388
0.473602 0.703949 0.155060
0.488190 0.708130 0.155670
0.502991 0.712433 0.156311
0.517944 0.716736 0.156952
0.533325 0.720947 0.157593
0.549164 0.725311 0.158203
0.565582 0.729584 0.158844
0.582794 0.733917 0.159454
