3d-lut/luts/Faded 47.CUBE
#Created by: Adobe Photoshop Export Color Lookup Plugin
#Copyright: (C) Copyright 2017 RocketStock
TITLE "Warm"
#LUT size
LUT_3D_SIZE 5
#data domain
#LUT data points
DOMAIN_MIN 0.000000 0.000000 0.000000
DOMAIN_MAX 0.903226 0.903226 0.903226
0.230469 0.054138 0.122009
0.378357 0.064728 0.124115
0.483368 0.079193 0.126801
0.592285 0.096924 0.130035
0.743408 0.117279 0.133789
0.248413 0.226624 0.126770
0.392517 0.244202 0.129944
0.497437 0.263855 0.133636
0.612000 0.284546 0.137695
0.774109 0.305695 0.141968
0.272766 0.386414 0.133453
0.409790 0.402283 0.137512
0.514313 0.418610 0.141815
0.635406 0.435120 0.146271
0.808380 0.451569 0.150787
0.299805 0.518585 0.141693
0.428375 0.536469 0.146149
0.532928 0.555389 0.150635
0.660889 0.575317 0.155182
0.843170 0.595703 0.159576
0.326294 0.699921 0.150543
0.446655 0.730621 0.155029
0.551849 0.762726 0.159424
0.686218 0.794739 0.163574
0.874908 0.825470 0.167328
0.233124 0.057526 0.255829
0.380646 0.069611 0.258301
0.485718 0.085388 0.261444
0.595612 0.104095 0.265045
0.748749 0.125366 0.269043
0.252563 0.232727 0.261322
0.395569 0.251190 0.264923
0.500366 0.271271 0.268890
0.616119 0.292328 0.273193
0.780273 0.313354 0.277679
0.277710 0.392151 0.268799
0.413269 0.408264 0.273041
0.517731 0.424652 0.277496
0.640106 0.441223 0.282074
0.815002 0.457520 0.286652
0.304901 0.525024 0.277374
0.431854 0.543274 0.281921
0.536499 0.562653 0.286469
0.665649 0.582703 0.290924
0.849426 0.603241 0.295105
0.330994 0.711029 0.286316
0.449921 0.742249 0.290771
0.555237 0.774567 0.295013
0.690704 0.806274 0.298920
0.880157 0.835999 0.302399
0.236145 0.061493 0.379395
0.383118 0.074982 0.381683
0.488129 0.091888 0.384338
0.599152 0.111633 0.387421
0.754211 0.133575 0.390778
0.256989 0.239258 0.384277
0.398743 0.258423 0.387299
0.503448 0.278931 0.390686
0.620392 0.300079 0.394226
0.786591 0.321014 0.397888
0.282776 0.397980 0.390594
0.416687 0.414215 0.394073
0.521149 0.430725 0.397766
0.644745 0.447174 0.401459
0.821472 0.463440 0.405151
0.309906 0.531616 0.397675
0.435303 0.550262 0.401337
0.540039 0.569946 0.405029
0.670441 0.590210 0.408569
0.855530 0.610748 0.411926
0.335571 0.722290 0.404877
0.453156 0.754120 0.408478
0.558594 0.786224 0.411774
0.695099 0.817474 0.414886
0.885162 0.846283 0.417633
0.239502 0.066010 0.484711
0.385742 0.080841 0.487000
0.490753 0.098877 0.489777
0.602783 0.119476 0.492859
0.759918 0.142090 0.496307
0.261505 0.246063 0.489685
0.401917 0.265778 0.492737
0.506622 0.286652 0.496185
0.624695 0.307770 0.499817
0.793060 0.328552 0.503571
0.287842 0.403931 0.496063
0.420166 0.420258 0.499695
0.524628 0.436737 0.503418
0.649506 0.453186 0.507202
0.827972 0.469299 0.511017
0.314850 0.538269 0.503296
0.438751 0.557373 0.507111
0.543549 0.577301 0.510895
0.675201 0.597748 0.514587
0.861542 0.618225 0.518097
0.339996 0.733826 0.510773
0.456299 0.765961 0.514465
0.561890 0.797943 0.517944
0.699341 0.828369 0.521179
0.889893 0.855988 0.524048
0.243103 0.071045 0.608551
0.388519 0.087097 0.612152
0.493530 0.106140 0.616302
0.606567 0.127533 0.621033
0.765808 0.150757 0.626190
0.266235 0.253143 0.616150
0.405243 0.273346 0.620850
0.509888 0.294434 0.626038
0.629181 0.315460 0.631439
0.799469 0.335907 0.637146
0.292877 0.409821 0.625854
0.423615 0.426331 0.631287
0.528137 0.442810 0.636993
0.654327 0.459167 0.642731
0.834473 0.475159 0.648499
0.319733 0.545166 0.636810
0.442108 0.564606 0.642548
0.547058 0.584747 0.648285
0.679901 0.605255 0.653870
0.867310 0.625671 0.659180
0.344391 0.745483 0.648102
0.459351 0.777679 0.653717
0.565125 0.809387 0.659027
0.703400 0.838867 0.663849
0.894318 0.865112 0.668060
