3d-lut/luts/Folger 50.CUBE
#Created by: Adobe Photoshop Export Color Lookup Plugin
#Copyright: (C) Copyright 2017 RocketStock
TITLE "Brown Contrast"
#LUT size
LUT_3D_SIZE 8
#data domain
#LUT data points
DOMAIN_MIN 0.000000 0.000000 0.000000
DOMAIN_MAX 0.903226 0.903226 0.903226
0.001556 0.001404 0.007690
0.037720 0.007751 0.013855
0.089111 0.016510 0.022278
0.155182 0.026611 0.031616
0.236359 0.038055 0.042023
0.333160 0.050934 0.053528
0.445770 0.065277 0.066101
0.569183 0.080841 0.079620
0.012238 0.040588 0.016174
0.049652 0.046356 0.019897
0.106049 0.059052 0.029083
0.177399 0.073090 0.039246
0.264252 0.088623 0.050446
0.366699 0.105682 0.062744
0.484711 0.124207 0.076111
0.606903 0.144196 0.090698
0.028534 0.098480 0.028137
0.070190 0.104889 0.031128
0.125153 0.114258 0.035980
0.202148 0.132812 0.047211
0.294891 0.152954 0.059509
0.403168 0.174591 0.072968
0.526581 0.197754 0.087646
0.644287 0.222534 0.103546
0.048096 0.173248 0.041229
0.096039 0.182404 0.045013
0.155182 0.192230 0.049164
0.230469 0.207397 0.056610
0.328888 0.232330 0.070190
0.442657 0.258667 0.084930
0.567413 0.286499 0.100983
0.679626 0.315735 0.118317
0.072113 0.266937 0.056641
0.126434 0.278992 0.061340
0.192017 0.291656 0.066467
0.268799 0.305023 0.072021
0.365021 0.326782 0.082550
0.483643 0.357697 0.098694
0.605591 0.390045 0.116211
0.711884 0.423462 0.135101
0.100220 0.380066 0.074615
0.160980 0.395142 0.080383
0.232666 0.410706 0.086609
0.315552 0.426910 0.093384
0.408997 0.443420 0.100647
0.523773 0.471313 0.114410
0.639679 0.507660 0.133514
0.741150 0.544891 0.154999
0.132141 0.512848 0.095490
0.198853 0.530060 0.102478
0.276306 0.547058 0.109955
0.364227 0.563965 0.118103
0.462372 0.580566 0.126801
0.566925 0.597931 0.136841
0.683472 0.639313 0.164703
0.789459 0.687958 0.203674
0.166931 0.643311 0.119629
0.238922 0.658417 0.127930
0.321259 0.673248 0.136932
0.414124 0.688354 0.147003
0.532074 0.716461 0.168518
0.645416 0.747009 0.195892
0.745056 0.777893 0.228027
0.834717 0.812744 0.269745
0.007660 0.007324 0.044556
0.040710 0.009796 0.046967
0.091705 0.017853 0.056427
0.158783 0.028259 0.068237
0.241089 0.039978 0.081177
0.339081 0.053223 0.095306
0.452911 0.067871 0.110565
0.576996 0.084106 0.127075
0.014954 0.043518 0.050110
0.058868 0.054871 0.060364
0.118164 0.068359 0.072449
0.193176 0.083740 0.086029
0.283844 0.100586 0.100769
0.389679 0.118561 0.116241
0.510986 0.138000 0.132874
0.630280 0.158966 0.150787
0.030884 0.101196 0.064087
0.081665 0.117218 0.075928
0.139648 0.127380 0.082458
0.219910 0.146820 0.096802
0.315918 0.167938 0.112396
0.427612 0.190613 0.129211
0.552155 0.214691 0.147217
0.666687 0.240326 0.166626
0.052673 0.179352 0.082184
0.109161 0.198090 0.093872
0.171051 0.208435 0.099274
0.249481 0.224487 0.108887
0.351166 0.250397 0.125824
0.468079 0.277588 0.144012
0.591858 0.306396 0.163605
0.700775 0.336517 0.184570
0.079285 0.277618 0.103241
0.141205 0.298126 0.114563
0.209503 0.311401 0.121094
0.289001 0.325165 0.128082
0.388336 0.347961 0.141266
0.509827 0.379730 0.161011
0.628632 0.412872 0.182190
0.731659 0.447144 0.204803
0.110321 0.396149 0.127411
0.177246 0.417694 0.138306
0.251617 0.433777 0.146057
0.336945 0.450500 0.154419
0.433044 0.467621 0.163422
0.548676 0.496216 0.180145
0.661285 0.532379 0.203064
0.763550 0.574219 0.232849
0.145172 0.533905 0.154755
0.216461 0.554169 0.165405
0.296417 0.570801 0.174591
0.386719 0.587341 0.184479
0.487061 0.603363 0.195007
0.595459 0.625580 0.211212
0.708496 0.666931 0.246063
0.810516 0.714752 0.293335
0.182617 0.663757 0.185547
0.257812 0.679260 0.196259
0.342255 0.693604 0.207062
0.442841 0.712952 0.223267
0.562286 0.741425 0.250763
0.672455 0.771637 0.284485
0.768402 0.801575 0.323029
0.853424 0.834381 0.371063
0.014313 0.013733 0.092499
0.049744 0.016541 0.095673
0.095276 0.019836 0.099182
0.162598 0.029968 0.112732
0.246033 0.042023 0.128265
0.345276 0.055573 0.145020
0.460388 0.070587 0.163025
0.584351 0.087097 0.182404
0.022644 0.052551 0.099884
0.069397 0.064575 0.112640
0.121826 0.070709 0.117920
0.197937 0.086426 0.134125
0.289764 0.103638 0.151611
0.397583 0.122467 0.170349
0.520905 0.142822 0.190460
0.639984 0.164795 0.211914
0.033905 0.104736 0.108765
0.086670 0.122131 0.123962
0.154785 0.141052 0.140350
0.238403 0.161499 0.157959
0.337616 0.183533 0.176788
0.452637 0.207092 0.196991
0.577087 0.232178 0.218475
0.688416 0.258759 0.241394
0.055786 0.183197 0.129730
0.116730 0.206512 0.147369
0.187561 0.225220 0.160828
0.269257 0.242218 0.172760
0.374084 0.269043 0.193146
0.494202 0.297302 0.214874
0.615631 0.326965 0.238037
0.721344 0.358032 0.262695
0.083130 0.282654 0.154816
0.151947 0.311554 0.174469
0.227661 0.331665 0.187286
0.309784 0.345947 0.195740
0.412201 0.369598 0.211761
0.535492 0.402313 0.235107
0.651001 0.436371 0.260040
0.750671 0.471527 0.286377
0.114655 0.402313 0.183136
0.191315 0.436920 0.204987
0.271301 0.457611 0.217255
0.359100 0.474670 0.227264
0.457520 0.492249 0.237976
0.572906 0.521271 0.257782
0.682098 0.556549 0.284546
0.785248 0.603241 0.324738
0.149933 0.540619 0.214905
0.233582 0.576202 0.239014
0.317078 0.593903 0.251038
0.409851 0.610046 0.262787
0.512268 0.625763 0.275269
0.623199 0.653046 0.299652
0.732880 0.694214 0.342133
0.830627 0.740479 0.397552
0.187531 0.669464 0.250275
0.276978 0.699554 0.276428
0.363800 0.713440 0.289124
0.472687 0.737152 0.313568
0.591827 0.765747 0.347504
0.698517 0.795349 0.387878
0.790649 0.824097 0.432678
0.871094 0.854675 0.486694
0.021545 0.020630 0.151581
0.059326 0.023773 0.155579
0.107422 0.027405 0.159973
0.166534 0.031769 0.165100
0.251190 0.044159 0.183289
0.351532 0.058014 0.202759
0.467896 0.073364 0.223572
0.591675 0.090210 0.245697
0.030975 0.062134 0.160919
0.080566 0.074860 0.176208
0.134796 0.080750 0.181641
0.202881 0.089233 0.190216
0.295898 0.106812 0.210449
0.404846 0.126007 0.232056
0.529083 0.146759 0.255157
0.647034 0.168976 0.279480
0.043365 0.117218 0.171906
0.099335 0.135498 0.190216
0.167328 0.152222 0.206207
0.245117 0.166199 0.218811
0.346405 0.189240 0.241180
0.463684 0.213928 0.265045
0.588470 0.239990 0.290222
0.698975 0.267670 0.317078
0.059082 0.187134 0.185333
0.121033 0.210815 0.205780
0.198853 0.236237 0.227631
0.289703 0.260651 0.248352
0.397675 0.288300 0.272125
0.520691 0.317596 0.297516
0.638702 0.348083 0.324249
0.741089 0.379974 0.352600
0.087006 0.287750 0.214447
0.156891 0.316986 0.237030
0.242584 0.347992 0.261200
0.331177 0.367340 0.275146
0.436646 0.391907 0.293976
0.560638 0.425659 0.321106
0.672668 0.460388 0.349731
0.769104 0.496368 0.380005
0.119232 0.408661 0.247162
0.196716 0.443390 0.271973
0.289581 0.479675 0.298340
0.381714 0.499573 0.311859
0.482574 0.517273 0.324402
0.596313 0.545685 0.347351
0.704742 0.582977 0.380829
0.806183 0.631805 0.430939
0.154724 0.547272 0.283295
0.239136 0.582581 0.310516
0.338226 0.616364 0.339203
0.433319 0.632141 0.352936
0.539490 0.649841 0.369812
0.650360 0.680054 0.402466
0.756256 0.720581 0.452423
0.849823 0.765442 0.516205
0.192413 0.675110 0.323273
0.282562 0.704926 0.352905
0.387665 0.734253 0.385040
0.503784 0.760956 0.418335
0.620453 0.789368 0.458984
0.723633 0.818085 0.505890
0.811951 0.845673 0.554474
0.887756 0.873840 0.605072
0.029358 0.028046 0.221893
0.069550 0.031555 0.226715
0.120239 0.035583 0.231995
0.181671 0.040100 0.237793
0.256470 0.046356 0.246307
0.357971 0.060516 0.268494
0.475616 0.076202 0.292145
0.599030 0.093353 0.317169
0.039917 0.072327 0.233307
0.092377 0.085663 0.251068
0.149261 0.092010 0.257538
0.217407 0.099030 0.264648
0.302185 0.110077 0.277466
0.412231 0.129578 0.301941
0.537048 0.150665 0.327942
0.654083 0.173248 0.355377
0.053497 0.130249 0.246490
0.112640 0.149536 0.268005
0.183594 0.166809 0.286346
0.258484 0.176514 0.294861
0.353424 0.193542 0.312286
0.471710 0.218567 0.339172
0.596008 0.244995 0.367462
0.705383 0.272888 0.397369
0.070160 0.202789 0.262024
0.134857 0.226898 0.285187
0.214996 0.252441 0.309601
0.304077 0.273224 0.328674
0.409210 0.297211 0.351044
0.533752 0.327545 0.380310
0.650604 0.359100 0.410980
0.751617 0.392029 0.443237
0.090973 0.292908 0.282227
0.161926 0.322601 0.307892
0.248566 0.353882 0.334991
0.350647 0.386597 0.363586
0.461700 0.414856 0.388062
0.584869 0.449402 0.418945
0.693573 0.485016 0.451385
0.786682 0.521332 0.485535
0.123688 0.414948 0.319305
0.202118 0.450012 0.347168
0.295837 0.486542 0.376709
0.404236 0.523590 0.407593
0.508087 0.541779 0.422760
0.618958 0.569458 0.448853
0.728546 0.611298 0.492828
0.826508 0.660126 0.549561
0.159576 0.553986 0.360046
0.244690 0.588867 0.390350
0.344330 0.622345 0.422241
0.457336 0.653687 0.455109
0.568726 0.675934 0.480408
0.676788 0.706573 0.519501
0.778748 0.746063 0.572266
0.868011 0.789276 0.631470
0.197235 0.680695 0.404663
0.287872 0.710144 0.437378
0.399200 0.744110 0.479645
0.534607 0.783966 0.536011
0.648560 0.812286 0.579163
0.747772 0.839844 0.622955
0.832123 0.865906 0.665802
0.903320 0.891754 0.708984
0.037689 0.035950 0.303314
0.080414 0.039825 0.308990
0.133759 0.044250 0.315277
0.197845 0.049194 0.322113
0.273193 0.054718 0.329651
0.364594 0.063110 0.342346
0.483429 0.079132 0.368927
0.606354 0.096619 0.396790
0.049469 0.083099 0.316986
0.104828 0.097107 0.337250
0.164551 0.103943 0.344940
0.235352 0.111328 0.353149
0.317627 0.119415 0.362091
0.419739 0.133270 0.379913
0.544983 0.154663 0.408905
0.661041 0.177490 0.439240
0.064270 0.143890 0.332489
0.126678 0.164093 0.357208
0.200439 0.182007 0.378021
0.278107 0.192230 0.387787
0.367126 0.203033 0.398376
0.479828 0.223328 0.421509
0.603638 0.250153 0.452911
0.711731 0.278198 0.485840
0.082184 0.219513 0.350647
0.150055 0.244507 0.377136
0.233490 0.271088 0.405029
0.325317 0.292389 0.426361
0.420471 0.305939 0.438599
0.541595 0.333313 0.467194
0.657288 0.365143 0.500977
0.757111 0.398193 0.535309
0.102814 0.310516 0.371521
0.176117 0.340302 0.399872
0.264709 0.371521 0.429626
0.368683 0.404358 0.461060
0.476807 0.428345 0.483398
0.597992 0.462524 0.516571
0.704987 0.498932 0.550598
0.796326 0.535095 0.583893
0.128235 0.421265 0.399628
0.207550 0.456665 0.430756
0.302032 0.493378 0.463348
0.411224 0.530426 0.497589
0.533142 0.565582 0.532013
0.640991 0.592651 0.558960
0.751648 0.639252 0.607269
0.845825 0.687531 0.659363
0.164398 0.560577 0.445038
0.250183 0.595123 0.478516
0.350372 0.628235 0.513519
0.464233 0.659576 0.548004
0.597534 0.701782 0.596039
0.702545 0.732483 0.633148
0.800262 0.770599 0.680359
0.885345 0.812256 0.732697
0.202057 0.686249 0.494446
0.293060 0.715240 0.529480
0.410675 0.753937 0.578247
0.546814 0.793793 0.631165
0.673065 0.832336 0.684448
0.770874 0.860382 0.725494
0.851166 0.884918 0.762451
0.917877 0.908386 0.798340
0.046661 0.044403 0.395935
0.091827 0.048645 0.402527
0.147736 0.053467 0.409851
0.214691 0.058838 0.417786
0.292877 0.064819 0.426453
0.382446 0.071320 0.435852
0.491425 0.082153 0.453644
0.613831 0.099976 0.484711
0.059784 0.094452 0.412109
0.117950 0.109039 0.434814
0.180420 0.116333 0.443604
0.253998 0.124268 0.453156
0.339081 0.132843 0.463440
0.435303 0.141876 0.474335
0.552887 0.158722 0.498016
0.667938 0.181885 0.530579
0.075745 0.158112 0.429962
0.141388 0.179321 0.457977
0.218109 0.197876 0.481201
0.298431 0.208527 0.492340
0.390167 0.219879 0.504333
0.493011 0.231720 0.516907
0.610901 0.255188 0.544647
0.717957 0.283569 0.576660
0.094879 0.236908 0.450867
0.166046 0.262817 0.480743
0.252655 0.290344 0.511993
0.347229 0.312134 0.534637
0.445038 0.326202 0.547424
0.551208 0.340851 0.560852
0.663879 0.371185 0.590942
0.762421 0.404358 0.622253
0.116669 0.330872 0.474670
0.193176 0.361694 0.506500
0.284912 0.393860 0.538544
0.391907 0.427612 0.570160
0.502563 0.452026 0.591339
0.604828 0.469299 0.605316
0.710449 0.505615 0.636292
0.804138 0.546631 0.671082
0.140381 0.440125 0.501495
0.221741 0.475616 0.534332
0.317902 0.512115 0.566559
0.428589 0.548004 0.598267
0.550690 0.582306 0.629272
0.657135 0.609955 0.654663
0.766296 0.657562 0.700256
0.857605 0.705109 0.747040
0.169159 0.567047 0.536987
0.255676 0.601349 0.570160
0.356323 0.634064 0.602448
0.474670 0.668701 0.637695
0.609100 0.712830 0.684296
0.726288 0.756653 0.732147
0.820801 0.794189 0.774414
0.901550 0.833893 0.819183
0.206726 0.691620 0.585144
0.301178 0.723236 0.620575
0.422211 0.763824 0.667999
0.559021 0.803619 0.716705
0.683411 0.841583 0.764496
0.788422 0.876282 0.809265
0.869110 0.902588 0.844330
0.931427 0.923828 0.873169
0.056244 0.053375 0.499817
0.104034 0.058014 0.507324
0.162598 0.063293 0.515564
0.232239 0.069092 0.524292
0.313171 0.075470 0.533661
0.405548 0.082458 0.543549
0.509247 0.089905 0.553986
0.621094 0.103394 0.574951
0.070648 0.106262 0.518219
0.131775 0.121552 0.541992
0.196899 0.129395 0.551208
0.273224 0.137787 0.560852
0.361115 0.146820 0.571106
0.460297 0.156403 0.581818
0.566467 0.166595 0.593140
0.674927 0.186371 0.617523
0.087982 0.173065 0.537689
0.156738 0.195129 0.565948
0.236389 0.214294 0.588043
0.319427 0.225464 0.598541
0.413971 0.237274 0.609528
0.519073 0.249634 0.620972
0.620758 0.262573 0.632935
0.723999 0.288940 0.659668
0.108276 0.254822 0.559204
0.182678 0.281708 0.588135
0.272552 0.310211 0.616577
0.369904 0.332550 0.636871
0.470337 0.347168 0.648560
0.575745 0.362213 0.660583
0.670685 0.377747 0.673126
0.767517 0.410492 0.700958
0.131195 0.351898 0.582611
0.210876 0.383636 0.611938
0.305756 0.416870 0.640686
0.415710 0.451416 0.669037
0.528168 0.476471 0.687897
0.627502 0.493988 0.700409
0.715790 0.512268 0.713776
0.812195 0.558960 0.749817
0.155945 0.464325 0.607666
0.240326 0.500732 0.637115
0.339355 0.536896 0.665955
0.452911 0.571777 0.694275
0.574493 0.605103 0.721802
0.682312 0.637115 0.748657
0.775604 0.669891 0.777435
0.864899 0.716858 0.818909
0.181366 0.584259 0.633942
0.269501 0.617371 0.663361
0.371735 0.649170 0.692200
0.497742 0.688171 0.728455
0.630157 0.732269 0.770935
0.744843 0.775818 0.813690
0.835480 0.811584 0.849518
0.909943 0.846008 0.883759
0.211334 0.696899 0.667542
0.310913 0.732880 0.704590
0.433960 0.773804 0.748535
0.570984 0.813446 0.792419
0.693573 0.850769 0.834442
0.796722 0.884552 0.872833
0.880249 0.914001 0.906403
0.944000 0.938080 0.933777
