3d-lut/luts/Folger 50.CUBE
#Created by: Adobe Photoshop Export Color Lookup Plugin
#Copyright: (C) Copyright 2017 RocketStock
TITLE "Brown Contrast"
#LUT size
LUT_3D_SIZE 5
#data domain
#LUT data points
DOMAIN_MIN 0.000000 0.000000 0.000000
DOMAIN_MAX 0.903226 0.903226 0.903226
0.001556 0.001404 0.007690
0.074921 0.014221 0.020081
0.193848 0.032166 0.036713
0.359772 0.054352 0.056549
0.569183 0.080841 0.079620
0.024048 0.082367 0.024994
0.103516 0.094971 0.031555
0.239349 0.125854 0.050964
0.422882 0.161377 0.073730
0.635010 0.201477 0.100159
0.059540 0.217682 0.048615
0.156433 0.236664 0.056274
0.294250 0.263824 0.068848
0.494537 0.313721 0.095642
0.696228 0.367889 0.126465
0.107910 0.411499 0.079559
0.224091 0.439423 0.090454
0.373566 0.468964 0.102966
0.563232 0.511078 0.123413
0.753235 0.581543 0.165192
0.166931 0.643311 0.119629
0.299744 0.669525 0.134613
0.471558 0.702026 0.157013
0.671692 0.754639 0.203430
0.834717 0.812744 0.269745
0.012604 0.012115 0.079529
0.080139 0.017151 0.084930
0.201294 0.035370 0.108185
0.370819 0.058563 0.136047
0.582520 0.086365 0.167786
0.028595 0.087524 0.092499
0.127045 0.116302 0.117706
0.273041 0.150238 0.147034
0.466858 0.188690 0.179901
0.674286 0.231720 0.216797
0.067963 0.229187 0.128693
0.184906 0.268219 0.154846
0.331879 0.297729 0.173492
0.540100 0.350403 0.211151
0.731659 0.407257 0.253174
0.122101 0.433868 0.175781
0.256989 0.481537 0.203705
0.414246 0.512390 0.221344
0.604065 0.553802 0.249481
0.791565 0.631989 0.315765
0.186340 0.668091 0.233368
0.335938 0.705078 0.264404
0.525818 0.745300 0.305084
0.716766 0.796875 0.371063
0.866699 0.849640 0.456329
0.025360 0.024261 0.185333
0.100403 0.030426 0.193298
0.209198 0.038757 0.203827
0.382507 0.062988 0.240021
0.595337 0.091766 0.280396
0.044800 0.108154 0.204529
0.150452 0.137329 0.236115
0.284760 0.157654 0.255371
0.483917 0.198364 0.298401
0.689728 0.243652 0.345856
0.074280 0.237152 0.231293
0.201019 0.284943 0.272461
0.371429 0.333527 0.314056
0.583435 0.388977 0.362701
0.764862 0.448395 0.416321
0.130096 0.445251 0.291412
0.279633 0.509491 0.339630
0.456604 0.555115 0.376038
0.644623 0.596588 0.414062
0.827393 0.680725 0.510254
0.194824 0.677887 0.362885
0.363007 0.729645 0.419434
0.578613 0.786652 0.497284
0.758911 0.836029 0.577881
0.895691 0.882965 0.658813
0.039886 0.038025 0.325409
0.122711 0.045349 0.336182
0.238617 0.054291 0.348785
0.394684 0.067657 0.368744
0.608307 0.097473 0.418152
0.063049 0.130615 0.351501
0.177856 0.162079 0.391479
0.314453 0.179077 0.408752
0.498260 0.206268 0.440033
0.701172 0.252533 0.496918
0.095490 0.267731 0.385132
0.230621 0.317108 0.435455
0.403870 0.362518 0.480774
0.601685 0.405579 0.523346
0.778656 0.466644 0.581665
0.138153 0.456848 0.432281
0.290283 0.521545 0.490143
0.486786 0.583344 0.550293
0.689545 0.644989 0.613098
0.860626 0.727295 0.702332
0.203186 0.687561 0.517822
0.381805 0.746338 0.588745
0.615112 0.815735 0.679565
0.797729 0.871582 0.757935
0.921448 0.912445 0.818481
0.056244 0.053375 0.499817
0.146881 0.061890 0.513367
0.271240 0.072235 0.528931
0.430328 0.084229 0.546082
0.621094 0.103394 0.574951
0.083344 0.154907 0.532593
0.207428 0.188690 0.576141
0.352600 0.207245 0.594421
0.531219 0.227570 0.614044
0.712219 0.261475 0.649170
0.119476 0.301453 0.570709
0.264496 0.353790 0.621399
0.446442 0.401306 0.662140
0.626251 0.429901 0.683655
0.786957 0.478027 0.721130
0.162292 0.494751 0.614136
0.321381 0.557831 0.665375
0.523499 0.616455 0.714508
0.723846 0.683197 0.772949
0.877014 0.752289 0.836029
0.211334 0.696899 0.667542
0.401398 0.763580 0.737396
0.634735 0.832550 0.813843
0.819336 0.892242 0.881653
0.944000 0.938080 0.933777
