3d-lut/luts/Folger 50.CUBE
#Created by: Adobe Photoshop Export Color Lookup Plugin
#Copyright: (C) Copyright 2017 RocketStock
TITLE "Brown Contrast"
#LUT size
LUT_3D_SIZE 32
#data domain
DOMAIN_MIN 0.0 0.0 0.0
DOMAIN_MAX 1.0 1.0 1.0
#LUT data points
0.001556 0.001404 0.007690
0.008392 0.001953 0.008148
0.017303 0.003815 0.009979
0.027069 0.005737 0.011902
0.037720 0.007751 0.013855
0.049194 0.009827 0.015869
0.061615 0.011993 0.017944
0.074921 0.014221 0.020081
0.089111 0.016510 0.022278
0.104218 0.018921 0.024506
0.120270 0.021393 0.026825
0.137238 0.023956 0.029205
0.155182 0.026611 0.031616
0.173981 0.029327 0.034149
0.193848 0.032166 0.036713
0.214661 0.035065 0.039337
0.236359 0.038055 0.042023
0.259094 0.041138 0.044830
0.282745 0.044312 0.047607
0.307434 0.047577 0.050507
0.333160 0.050934 0.053528
0.359772 0.054352 0.056549
0.387451 0.057922 0.059662
0.416138 0.061584 0.062836
0.445770 0.065277 0.066101
0.476471 0.069092 0.069427
0.507996 0.072998 0.072815
0.538940 0.076904 0.076141
0.569183 0.080841 0.079620
0.598267 0.084930 0.083099
0.626648 0.089111 0.086670
0.654083 0.093414 0.090332
0.002899 0.008698 0.008636
0.011292 0.010712 0.010437
0.020477 0.012787 0.012299
0.030609 0.014954 0.014282
0.041595 0.017151 0.016266
0.053436 0.019440 0.018341
0.066162 0.021820 0.020416
0.079773 0.024261 0.022552
0.094299 0.026794 0.024811
0.109802 0.029449 0.027100
0.126160 0.032104 0.029388
0.143463 0.034882 0.031799
0.161682 0.037750 0.034241
0.180847 0.040680 0.036743
0.200958 0.043732 0.039337
0.222015 0.046814 0.041962
0.244080 0.050018 0.044647
0.267059 0.053284 0.047424
0.291016 0.056641 0.050232
0.315979 0.060089 0.053131
0.341919 0.063721 0.056091
0.368744 0.067261 0.059082
0.396667 0.071045 0.062195
0.425568 0.074860 0.065369
0.455292 0.078735 0.068573
0.486206 0.082794 0.071869
0.517853 0.086884 0.075256
0.548584 0.091034 0.078674
0.578522 0.095337 0.082214
0.607483 0.099670 0.085754
0.635620 0.104156 0.089447
0.662781 0.108734 0.093170
0.005737 0.018280 0.010986
0.014221 0.020233 0.012634
0.022461 0.021210 0.013336
0.032837 0.023621 0.015350
0.044006 0.026062 0.017395
0.056152 0.028625 0.019470
0.069244 0.031250 0.021667
0.083099 0.033905 0.023865
0.097961 0.036713 0.026154
0.113770 0.039581 0.028503
0.130432 0.042542 0.030884
0.148071 0.045563 0.033325
0.166687 0.048676 0.035828
0.186188 0.051849 0.038422
0.206665 0.055176 0.041046
0.228088 0.058533 0.043732
0.250549 0.061981 0.046509
0.273895 0.065582 0.049316
0.298218 0.069153 0.052246
0.323547 0.072937 0.055176
0.349854 0.076782 0.058197
0.377136 0.080627 0.061279
0.405396 0.084747 0.064453
0.434692 0.088806 0.067688
0.464905 0.092957 0.070984
0.496124 0.097260 0.074371
0.527557 0.101593 0.077789
0.558289 0.106110 0.081329
0.587982 0.110657 0.084930
0.616608 0.115295 0.088531
0.644501 0.120087 0.092316
0.671539 0.124939 0.096130
0.008850 0.028900 0.013519
0.017517 0.030884 0.015045
0.025848 0.031769 0.015564
0.035248 0.033112 0.016510
0.046753 0.035797 0.018616
0.059143 0.038605 0.020782
0.072510 0.041504 0.022980
0.086700 0.044403 0.025238
0.101868 0.047455 0.027588
0.118011 0.050598 0.029968
0.134979 0.053772 0.032410
0.152985 0.057068 0.034943
0.171936 0.060455 0.037506
0.191803 0.063934 0.040161
0.212616 0.067474 0.042816
0.234436 0.071136 0.045593
0.257233 0.074860 0.048431
0.281006 0.078735 0.051331
0.305695 0.082642 0.054291
0.331421 0.086609 0.057312
0.358124 0.090790 0.060455
0.385803 0.094910 0.063568
0.414459 0.099182 0.066833
0.444122 0.103638 0.070099
0.474731 0.108093 0.073517
0.506378 0.112701 0.076935
0.537537 0.117371 0.080444
0.567932 0.122070 0.084076
0.597504 0.127014 0.087769
0.625885 0.131897 0.091461
0.653503 0.136963 0.095306
0.680176 0.142090 0.099213
0.012238 0.040588 0.016174
0.021057 0.042542 0.017548
0.029694 0.043579 0.018158
0.039032 0.044617 0.018738
0.049652 0.046356 0.019897
0.062378 0.049408 0.022095
0.076019 0.052551 0.024384
0.090546 0.055725 0.026703
0.106049 0.059052 0.029083
0.122528 0.062439 0.031555
0.139832 0.065887 0.034058
0.158203 0.069489 0.036652
0.177399 0.073090 0.039246
0.197723 0.076874 0.041962
0.218933 0.080750 0.044739
0.241028 0.084656 0.047546
0.264252 0.088623 0.050446
0.288391 0.092773 0.053436
0.313477 0.096954 0.056488
0.339569 0.101288 0.059570
0.366699 0.105682 0.062744
0.394684 0.110168 0.065948
0.423767 0.114746 0.069305
0.453705 0.119415 0.072632
0.484711 0.124207 0.076111
0.516571 0.129028 0.079651
0.547577 0.133942 0.083252
0.577728 0.139038 0.086914
0.606903 0.144196 0.090698
0.635071 0.149414 0.094482
0.662415 0.154755 0.098419
0.688812 0.160187 0.102417
0.015900 0.053345 0.018951
0.024902 0.055298 0.020203
0.033875 0.056458 0.020813
0.043549 0.057617 0.021454
0.053833 0.058807 0.022095
0.065826 0.061066 0.023529
0.079773 0.064484 0.025848
0.094635 0.067932 0.028229
0.110474 0.071503 0.030701
0.127289 0.075165 0.033203
0.144928 0.078918 0.035767
0.163635 0.082794 0.038422
0.183258 0.086670 0.041107
0.203857 0.090698 0.043884
0.225494 0.094849 0.046753
0.247955 0.099030 0.049622
0.271576 0.103363 0.052582
0.296082 0.107788 0.055603
0.321503 0.112244 0.058716
0.347992 0.116852 0.061890
0.375458 0.121552 0.065155
0.403839 0.126312 0.068451
0.433319 0.131165 0.071838
0.463684 0.136078 0.075287
0.495087 0.141205 0.078827
0.526825 0.146332 0.082458
0.557495 0.151550 0.086121
0.587433 0.156860 0.089874
0.616364 0.162354 0.093750
0.644226 0.167847 0.097626
0.671265 0.173431 0.101624
0.697418 0.179260 0.105743
0.019836 0.067291 0.021881
0.028931 0.069092 0.022980
0.038330 0.070404 0.023621
0.048340 0.071716 0.024292
0.058990 0.073059 0.024963
0.070374 0.074463 0.025696
0.083771 0.077271 0.027405
0.098938 0.080994 0.029846
0.115112 0.084869 0.032379
0.132202 0.088776 0.034912
0.150299 0.092834 0.037567
0.169342 0.096954 0.040283
0.189331 0.101166 0.043060
0.210297 0.105438 0.045898
0.232300 0.109894 0.048798
0.255127 0.114319 0.051727
0.279083 0.118958 0.054810
0.304016 0.123657 0.057892
0.329803 0.128387 0.061066
0.356689 0.133331 0.064331
0.384430 0.138245 0.067657
0.413269 0.143341 0.071045
0.443115 0.148560 0.074524
0.473785 0.153687 0.078033
0.505554 0.159119 0.081665
0.537140 0.164581 0.085388
0.567505 0.170105 0.089111
0.597107 0.175720 0.092957
0.625732 0.181458 0.096893
0.653351 0.187256 0.100891
0.680054 0.193207 0.104950
0.705719 0.199158 0.109100
0.024048 0.082367 0.024994
0.033264 0.084015 0.025818
0.042999 0.085419 0.026520
0.053406 0.086945 0.027252
0.064423 0.088409 0.027954
0.076172 0.089966 0.028717
0.088593 0.091614 0.029510
0.103516 0.094971 0.031555
0.120026 0.099091 0.034149
0.137451 0.103271 0.036743
0.155914 0.107635 0.039490
0.175293 0.112030 0.042236
0.195618 0.116547 0.045074
0.216949 0.121124 0.047974
0.239349 0.125854 0.050964
0.262604 0.130615 0.053986
0.286865 0.135498 0.057129
0.312164 0.140564 0.060303
0.338318 0.145508 0.063568
0.365570 0.150665 0.066864
0.393677 0.155975 0.070251
0.422882 0.161377 0.073730
0.453094 0.166809 0.077301
0.484161 0.172363 0.080902
0.516083 0.178009 0.084625
0.547272 0.183777 0.088379
0.577454 0.189484 0.092224
0.606750 0.195496 0.096161
0.635010 0.201477 0.100159
0.662323 0.207550 0.104218
0.688721 0.213745 0.108429
0.714050 0.220001 0.112640
0.028534 0.098480 0.028137
0.037903 0.100006 0.028839
0.047974 0.101624 0.029572
0.058746 0.103271 0.030334
0.070190 0.104889 0.031128
0.082306 0.106628 0.031891
0.095062 0.108337 0.032715
0.108582 0.110138 0.033539
0.125153 0.114258 0.035980
0.142914 0.118713 0.038666
0.161713 0.123352 0.041443
0.181519 0.128113 0.044281
0.202148 0.132812 0.047211
0.223907 0.137726 0.050171
0.246613 0.142761 0.053223
0.270203 0.147766 0.056335
0.294891 0.152954 0.059509
0.320557 0.158234 0.062775
0.347046 0.163574 0.066101
0.374664 0.169037 0.069519
0.403168 0.174591 0.072968
0.432739 0.180267 0.076538
0.463318 0.186066 0.080170
0.494690 0.191895 0.083893
0.526581 0.197754 0.087646
0.557465 0.203827 0.091522
0.587280 0.209900 0.095428
0.616241 0.216125 0.099487
0.644287 0.222534 0.103546
0.671265 0.228882 0.107727
0.697327 0.235413 0.112000
0.722321 0.241852 0.116302
0.033020 0.115448 0.031219
0.042755 0.117126 0.031952
0.053253 0.118927 0.032776
0.064423 0.120728 0.033569
0.076202 0.122528 0.034363
0.088745 0.124390 0.035217
0.101898 0.126312 0.036072
0.115875 0.128296 0.036957
0.130493 0.130310 0.037933
0.148621 0.135071 0.040680
0.167786 0.140015 0.043518
0.187927 0.145050 0.046448
0.208923 0.150055 0.049377
0.231018 0.155273 0.052429
0.254120 0.160553 0.055573
0.278076 0.165863 0.058746
0.303101 0.171387 0.062042
0.329041 0.176910 0.065338
0.355988 0.182556 0.068756
0.383972 0.188354 0.072266
0.412811 0.194214 0.075806
0.442749 0.200226 0.079468
0.473694 0.206207 0.083191
0.505341 0.212341 0.086914
0.536957 0.218597 0.090790
0.567535 0.224915 0.094788
0.597015 0.231293 0.098755
0.625671 0.237823 0.102875
0.653290 0.244385 0.107025
0.679962 0.251068 0.111298
0.705719 0.257812 0.115692
0.730408 0.264679 0.120087
0.037781 0.133575 0.034424
0.047913 0.135406 0.035217
0.058807 0.137360 0.036072
0.070282 0.139252 0.036896
0.082550 0.141296 0.037781
0.095459 0.143372 0.038666
0.109039 0.145386 0.039581
0.123352 0.147552 0.040527
0.138397 0.149750 0.041504
0.154510 0.152344 0.042725
0.174042 0.157562 0.045685
0.194550 0.162872 0.048645
0.215942 0.168243 0.051697
0.238373 0.173706 0.054840
0.261719 0.179230 0.058044
0.286133 0.184967 0.061279
0.311523 0.190735 0.064667
0.337799 0.196564 0.068054
0.365112 0.202515 0.071533
0.393463 0.208618 0.075134
0.422668 0.214752 0.078735
0.452911 0.221008 0.082458
0.484161 0.227417 0.086273
0.515991 0.233765 0.090118
0.547180 0.240326 0.094086
0.577484 0.246887 0.098114
0.606628 0.253510 0.102203
0.634979 0.260345 0.106445
0.662201 0.267273 0.110687
0.688599 0.274200 0.115051
0.713989 0.281219 0.119507
0.738312 0.288330 0.124023
0.042816 0.152832 0.037781
0.053345 0.154877 0.038605
0.064636 0.156982 0.039490
0.076508 0.159058 0.040375
0.089111 0.161255 0.041321
0.102448 0.163483 0.042297
0.116455 0.165710 0.043213
0.131226 0.168060 0.044220
0.146637 0.170441 0.045288
0.162720 0.172760 0.046295
0.180542 0.176117 0.047943
0.201385 0.181732 0.050995
0.223114 0.187378 0.054138
0.245911 0.193115 0.057312
0.269623 0.198975 0.060577
0.294373 0.204987 0.063904
0.320099 0.211029 0.067352
0.346741 0.217163 0.070801
0.374420 0.223419 0.074402
0.403076 0.229828 0.078094
0.432587 0.236237 0.081787
0.463165 0.242737 0.085571
0.494751 0.249451 0.089478
0.526459 0.256104 0.093414
0.557373 0.262878 0.097473
0.587189 0.269714 0.101562
0.616150 0.276764 0.105804
0.644104 0.283875 0.110077
0.670990 0.290985 0.114441
0.697052 0.298248 0.118896
0.722076 0.305573 0.123444
0.746002 0.312927 0.128052
0.048096 0.173248 0.041229
0.059052 0.175446 0.042145
0.070679 0.177734 0.043060
0.083038 0.180023 0.044006
0.096039 0.182404 0.045013
0.109833 0.184814 0.046051
0.124176 0.187225 0.047058
0.139282 0.189667 0.048065
0.155182 0.192230 0.049164
0.171661 0.194763 0.050232
0.188965 0.197388 0.051392
0.208282 0.201416 0.053375
0.230469 0.207397 0.056610
0.253632 0.213470 0.059906
0.277710 0.219666 0.063232
0.302765 0.225891 0.066650
0.328888 0.232330 0.070190
0.355804 0.238739 0.073730
0.383820 0.245331 0.077393
0.412872 0.251953 0.081177
0.442657 0.258667 0.084930
0.473572 0.265472 0.088867
0.505402 0.272430 0.092804
0.536835 0.279358 0.096802
0.567413 0.286499 0.100983
0.596832 0.293549 0.105164
0.625458 0.300873 0.109467
0.653107 0.308258 0.113892
0.679626 0.315735 0.118317
0.705261 0.323273 0.122864
0.729980 0.330902 0.127533
0.753571 0.338531 0.132233
0.053650 0.194855 0.044830
0.065063 0.197266 0.045837
0.077087 0.199738 0.046844
0.089813 0.202209 0.047821
0.103241 0.204742 0.048859
0.117371 0.207306 0.049927
0.132172 0.209900 0.050995
0.147736 0.212555 0.052124
0.164001 0.215271 0.053253
0.180908 0.217957 0.054382
0.198578 0.220795 0.055603
0.216858 0.223602 0.056763
0.238007 0.228424 0.059235
0.261505 0.234833 0.062561
0.285858 0.241272 0.066010
0.311340 0.247833 0.069519
0.337799 0.254486 0.073090
0.365051 0.261230 0.076782
0.393372 0.268036 0.080475
0.422699 0.275085 0.084351
0.452881 0.281952 0.088196
0.484070 0.289093 0.092163
0.515839 0.296356 0.096222
0.546997 0.303619 0.100372
0.577271 0.311005 0.104584
0.606354 0.318420 0.108917
0.634552 0.326019 0.113281
0.661804 0.333557 0.117798
0.688019 0.341248 0.122314
0.713318 0.349091 0.126984
0.737610 0.357117 0.131744
0.760864 0.364899 0.136505
0.059540 0.217682 0.048615
0.071289 0.220276 0.049683
0.083771 0.222870 0.050690
0.096863 0.225525 0.051758
0.110687 0.228271 0.052856
0.125275 0.231079 0.054016
0.140503 0.233826 0.055115
0.156433 0.236664 0.056274
0.173035 0.239502 0.057465
0.190399 0.242432 0.058685
0.208527 0.245392 0.059967
0.227203 0.248352 0.061218
0.246704 0.251434 0.062500
0.269531 0.257111 0.065369
0.294250 0.263824 0.068848
0.320007 0.270721 0.072449
0.346771 0.277649 0.076141
0.374359 0.284637 0.079865
0.403046 0.291809 0.083740
0.432648 0.299103 0.087616
0.463074 0.306366 0.091583
0.494537 0.313721 0.095642
0.526245 0.321198 0.099792
0.557037 0.328796 0.104034
0.586884 0.336395 0.108337
0.615662 0.344086 0.112732
0.643524 0.351929 0.117218
0.670410 0.359894 0.121826
0.696228 0.367889 0.126465
0.721130 0.375916 0.131195
0.745056 0.384033 0.136047
0.767944 0.392151 0.140930
0.065674 0.241699 0.052551
0.077820 0.244476 0.053619
0.090668 0.247284 0.054749
0.104187 0.250092 0.055847
0.118408 0.253021 0.057037
0.133392 0.255981 0.058197
0.149017 0.258911 0.059387
0.165405 0.261932 0.060638
0.182373 0.264954 0.061859
0.200134 0.268066 0.063141
0.218689 0.271240 0.064484
0.237732 0.274384 0.065796
0.257629 0.277588 0.067169
0.278198 0.280853 0.068604
0.302673 0.287323 0.071838
0.328796 0.294464 0.075531
0.355865 0.301788 0.079285
0.383759 0.309021 0.083099
0.412689 0.316498 0.087006
0.442505 0.323944 0.090973
0.473328 0.331543 0.095062
0.505066 0.339203 0.099243
0.536407 0.346985 0.103455
0.566925 0.354828 0.107788
0.596344 0.362762 0.112244
0.624725 0.370697 0.116730
0.652222 0.378784 0.121277
0.678772 0.387085 0.126007
0.704163 0.395142 0.130707
0.728760 0.403564 0.135559
0.752167 0.411835 0.140472
0.774811 0.420288 0.145508
0.072113 0.266937 0.056641
0.084656 0.269928 0.057770
0.097870 0.272919 0.058960
0.111786 0.275879 0.060120
0.126434 0.278992 0.061340
0.141815 0.282104 0.062592
0.157806 0.285217 0.063843
0.174561 0.288452 0.065155
0.192017 0.291656 0.066467
0.210236 0.294983 0.067810
0.229034 0.298340 0.069183
0.248505 0.301605 0.070587
0.268799 0.305023 0.072021
0.289825 0.308533 0.073517
0.311401 0.311920 0.075012
0.337677 0.319275 0.078674
0.365021 0.326782 0.082550
0.393250 0.334320 0.086426
0.422424 0.342102 0.090454
0.452667 0.349976 0.094574
0.483643 0.357697 0.098694
0.515442 0.365662 0.102966
0.546417 0.373627 0.107269
0.576447 0.381775 0.111725
0.605591 0.390045 0.116211
0.633545 0.398193 0.120758
0.660645 0.406647 0.125488
0.686798 0.415070 0.130280
0.711884 0.423462 0.135101
0.736053 0.432068 0.140045
0.759247 0.440674 0.145142
0.781372 0.449310 0.150208
0.078735 0.293396 0.060883
0.091705 0.296539 0.062073
0.105347 0.299713 0.063324
0.119629 0.302917 0.064545
0.134735 0.306213 0.065826
0.150482 0.309479 0.067139
0.166901 0.312775 0.068481
0.184052 0.316223 0.069855
0.201782 0.319611 0.071198
0.220367 0.323090 0.072632
0.239716 0.326569 0.074097
0.259613 0.330078 0.075562
0.280182 0.333649 0.077057
0.301575 0.337311 0.078613
0.323486 0.340851 0.080170
0.346619 0.344940 0.082001
0.374298 0.352814 0.085938
0.402740 0.360687 0.089905
0.432251 0.368622 0.094025
0.462524 0.376678 0.098145
0.493896 0.384766 0.102448
0.525574 0.393127 0.106812
0.556122 0.401276 0.111206
0.585815 0.409637 0.115723
0.614563 0.418213 0.120392
0.642151 0.426605 0.125031
0.668854 0.435211 0.129822
0.694672 0.443970 0.134705
0.719299 0.452545 0.139618
0.743134 0.461517 0.144684
0.765808 0.470184 0.149780
0.787750 0.479309 0.155060
0.085663 0.321045 0.065277
0.099030 0.324371 0.066528
0.113068 0.327759 0.067841
0.127747 0.331116 0.069153
0.143219 0.334564 0.070526
0.159302 0.338043 0.071838
0.176147 0.341553 0.073273
0.193787 0.345215 0.074738
0.211945 0.348755 0.076141
0.230927 0.352386 0.077667
0.250488 0.356049 0.079193
0.270813 0.359772 0.080719
0.291809 0.363556 0.082336
0.313507 0.367340 0.083923
0.335785 0.371063 0.085541
0.358978 0.374969 0.087250
0.383514 0.379639 0.089417
0.412231 0.387787 0.093475
0.441956 0.395966 0.097687
0.472565 0.404358 0.101929
0.504120 0.412781 0.106293
0.535400 0.421265 0.110748
0.565582 0.429810 0.115265
0.594910 0.438507 0.119873
0.623169 0.447083 0.124603
0.650452 0.455933 0.129364
0.676788 0.464661 0.134216
0.702209 0.473724 0.139252
0.726471 0.482666 0.144287
0.749878 0.491669 0.149445
0.772247 0.500671 0.154663
0.793762 0.509796 0.160034
0.092804 0.349976 0.069855
0.106537 0.353485 0.071167
0.121063 0.357056 0.072571
0.136169 0.360596 0.073944
0.151978 0.364258 0.075348
0.168457 0.367889 0.076782
0.185669 0.371582 0.078217
0.203674 0.375366 0.079773
0.222260 0.379089 0.081268
0.241577 0.382935 0.082886
0.261566 0.386810 0.084473
0.282166 0.390625 0.086060
0.303558 0.394562 0.087738
0.325653 0.398529 0.089447
0.348328 0.402527 0.091125
0.371704 0.406555 0.092926
0.395752 0.410522 0.094696
0.421722 0.415894 0.097198
0.451660 0.424377 0.101471
0.482422 0.432861 0.105835
0.514099 0.441650 0.110291
0.544983 0.450409 0.114838
0.574799 0.459167 0.119446
0.603668 0.467957 0.124146
0.631622 0.476990 0.128998
0.658447 0.485962 0.133850
0.684418 0.495087 0.138855
0.709320 0.504150 0.143890
0.733307 0.513153 0.149078
0.756378 0.522217 0.154358
0.779633 0.532837 0.160736
0.803314 0.545410 0.168732
0.100220 0.380066 0.074615
0.114410 0.383759 0.076019
0.129150 0.387451 0.077423
0.144714 0.391296 0.078918
0.160980 0.395142 0.080383
0.177856 0.398926 0.081909
0.195404 0.402832 0.083466
0.213745 0.406799 0.085022
0.232666 0.410706 0.086609
0.252411 0.414673 0.088257
0.272827 0.418762 0.089935
0.293762 0.422760 0.091644
0.315552 0.426910 0.093384
0.337799 0.430939 0.095123
0.360870 0.435089 0.096954
0.384644 0.439331 0.098816
0.408997 0.443420 0.100647
0.434113 0.447693 0.102570
0.461334 0.453552 0.105438
0.492279 0.462372 0.109833
0.523773 0.471313 0.114410
0.554260 0.480316 0.119049
0.583649 0.489319 0.123718
0.612213 0.498505 0.128601
0.639679 0.507660 0.133514
0.666168 0.516571 0.138458
0.691742 0.525604 0.143585
0.716278 0.534454 0.148712
0.741150 0.544891 0.154999
0.766602 0.557373 0.162903
0.790833 0.569824 0.171051
0.814148 0.582733 0.179871
0.107910 0.411499 0.079559
0.122437 0.415375 0.081024
0.137604 0.419220 0.082489
0.153503 0.423218 0.084045
0.170197 0.427246 0.085632
0.187408 0.431213 0.087189
0.205414 0.435272 0.088806
0.224091 0.439423 0.090454
0.243347 0.443481 0.092102
0.263428 0.447632 0.093872
0.284149 0.451874 0.095642
0.305420 0.456116 0.097382
0.327545 0.460388 0.099213
0.350220 0.464600 0.101074
0.373566 0.468964 0.102966
0.397675 0.473328 0.104889
0.422302 0.477600 0.106842
0.447540 0.481964 0.108826
0.473572 0.486450 0.110901
0.502014 0.492767 0.113953
0.533142 0.501984 0.118622
0.563232 0.511078 0.123413
0.592224 0.520020 0.128204
0.620361 0.528961 0.133118
0.647400 0.537720 0.138092
0.673615 0.546600 0.143219
0.700012 0.556763 0.149353
0.727081 0.568939 0.156952
0.753235 0.581543 0.165192
0.778290 0.594055 0.173859
0.802155 0.606628 0.182831
0.825012 0.619446 0.192352
0.115784 0.444122 0.084656
0.130646 0.448151 0.086212
0.146271 0.452209 0.087799
0.162506 0.456390 0.089386
0.179504 0.460571 0.091034
0.197083 0.464691 0.092651
0.215546 0.468964 0.094391
0.234528 0.473297 0.096130
0.254150 0.477509 0.097870
0.274597 0.481934 0.099670
0.295593 0.486145 0.101471
0.317291 0.490601 0.103394
0.339691 0.495087 0.105316
0.362640 0.499420 0.107178
0.386414 0.503937 0.109192
0.410614 0.508392 0.111206
0.435577 0.512756 0.113251
0.461243 0.517181 0.115326
0.487518 0.521606 0.117493
0.514038 0.525848 0.119598
0.542175 0.532440 0.123016
0.571930 0.541260 0.127899
0.600464 0.549866 0.132751
0.628235 0.558594 0.137817
0.656036 0.568298 0.143707
0.685028 0.580566 0.151306
0.712860 0.592987 0.159363
0.739563 0.605103 0.167755
0.765289 0.617737 0.176727
0.790009 0.630280 0.186157
0.813354 0.642639 0.195831
0.835785 0.655182 0.206146
0.123840 0.477875 0.089966
0.139160 0.482147 0.091583
0.154999 0.486359 0.093231
0.171722 0.490753 0.094940
0.189148 0.495148 0.096649
0.207031 0.499420 0.098358
0.225800 0.503815 0.100128
0.245239 0.508301 0.101990
0.265167 0.512634 0.103821
0.285858 0.517090 0.105743
0.307251 0.521332 0.107605
0.329285 0.525696 0.109558
0.351929 0.530090 0.111603
0.375244 0.534363 0.113586
0.399170 0.538727 0.115631
0.423767 0.543030 0.117798
0.448944 0.547241 0.119904
0.474854 0.551514 0.122101
0.501373 0.555756 0.124329
0.527496 0.559937 0.126587
0.553253 0.564148 0.128876
0.580078 0.570282 0.132416
0.609528 0.579895 0.138214
0.640198 0.592010 0.145691
0.669708 0.604065 0.153534
0.698334 0.616272 0.161926
0.725861 0.628815 0.170746
0.752106 0.640900 0.179871
0.777466 0.653320 0.189575
0.801636 0.665710 0.199738
0.824493 0.677765 0.210114
0.846375 0.690125 0.221069
0.132141 0.512848 0.095490
0.147766 0.517181 0.097198
0.164032 0.521423 0.098938
0.181122 0.525696 0.100677
0.198853 0.530060 0.102478
0.217102 0.534241 0.104279
0.236206 0.538574 0.106171
0.255981 0.542908 0.108063
0.276306 0.547058 0.109955
0.297272 0.551331 0.111969
0.318848 0.555481 0.113922
0.341309 0.559784 0.115997
0.364227 0.563965 0.118103
0.387787 0.568085 0.120178
0.412018 0.572327 0.122406
0.436829 0.576447 0.124573
0.462372 0.580566 0.126801
0.488373 0.584717 0.129089
0.514954 0.588776 0.131409
0.540680 0.592712 0.133728
0.566925 0.597931 0.136841
0.594818 0.605408 0.141479
0.624054 0.615234 0.147919
0.654419 0.627380 0.156158
0.683472 0.639313 0.164703
0.711700 0.651581 0.173828
0.738831 0.663818 0.183441
0.764618 0.675720 0.193237
0.789459 0.687958 0.203674
0.813080 0.700073 0.214478
0.835449 0.711731 0.225525
0.856750 0.723724 0.237122
0.140594 0.547089 0.101227
0.156647 0.551331 0.102997
0.173248 0.555481 0.104767
0.190643 0.559692 0.106628
0.208740 0.563934 0.108521
0.227295 0.567932 0.110413
0.246796 0.572144 0.112366
0.266693 0.576233 0.114319
0.287445 0.580353 0.116333
0.308807 0.584534 0.118439
0.330719 0.588501 0.120514
0.353394 0.592651 0.122650
0.376587 0.596741 0.124878
0.400421 0.600677 0.127045
0.424866 0.604736 0.129303
0.449951 0.608704 0.131592
0.475677 0.612610 0.133881
0.501892 0.616577 0.136292
0.528961 0.621368 0.139252
0.558136 0.628815 0.144073
0.586578 0.636505 0.149231
0.614136 0.644287 0.154663
0.641022 0.652405 0.160583
0.668671 0.662140 0.167877
0.697327 0.673950 0.177124
0.725067 0.685944 0.187012
0.751678 0.697906 0.197296
0.776947 0.709625 0.207764
0.801270 0.721497 0.218842
0.824188 0.732819 0.230072
0.846069 0.744415 0.241913
0.866760 0.755676 0.254059
0.149261 0.580353 0.107117
0.165619 0.584412 0.108978
0.182556 0.588409 0.110870
0.200317 0.592499 0.112793
0.218689 0.596588 0.114777
0.237701 0.600494 0.116760
0.257416 0.604553 0.118805
0.277740 0.608490 0.120850
0.298706 0.612488 0.122986
0.320312 0.616486 0.125153
0.342529 0.620361 0.127319
0.365448 0.624329 0.129547
0.388916 0.628235 0.131836
0.412903 0.632050 0.134094
0.437683 0.635956 0.136475
0.463013 0.639832 0.138916
0.489838 0.644409 0.141815
0.519928 0.651581 0.146637
0.549286 0.658844 0.151733
0.578094 0.666565 0.157318
0.606232 0.674469 0.163269
0.633484 0.682312 0.169403
0.660004 0.690491 0.176056
0.685638 0.698730 0.183044
0.711121 0.707581 0.190796
0.738312 0.719269 0.201324
0.764374 0.730896 0.212280
0.789124 0.742157 0.223358
0.812775 0.753479 0.235016
0.835114 0.764465 0.246796
0.856384 0.775360 0.259094
0.876434 0.786102 0.271759
0.158051 0.612427 0.113251
0.174744 0.616364 0.115234
0.192047 0.620239 0.117157
0.210052 0.624207 0.119232
0.228729 0.628021 0.121216
0.248077 0.631927 0.123291
0.268097 0.635864 0.125488
0.288605 0.639618 0.127594
0.309937 0.643433 0.129822
0.331879 0.647308 0.132080
0.354279 0.651031 0.134338
0.377380 0.654816 0.136658
0.401184 0.658600 0.139069
0.425385 0.662262 0.141449
0.451233 0.666687 0.144379
0.480347 0.673492 0.149139
