3d-lut/luts/Fusion 88.CUBE
#Created by: Adobe Photoshop Export Color Lookup Plugin
#Copyright: (C) Copyright 2017 RocketStock
TITLE "Cool Blue"
#LUT size
LUT_3D_SIZE 5
#data domain
#LUT data points
DOMAIN_MIN 0.000000 0.000000 0.000000
DOMAIN_MAX 0.903226 0.903226 0.903226
0.000000 0.000000 0.000000
0.125275 0.028534 0.035004
0.290436 0.071320 0.085205
0.476440 0.130798 0.151947
0.657898 0.187225 0.212280
0.038940 0.171478 0.074219
0.153809 0.198425 0.114716
0.312988 0.237122 0.159576
0.499512 0.282013 0.209930
0.678314 0.326630 0.257843
0.099121 0.398743 0.164978
0.208466 0.419556 0.199463
0.351898 0.444458 0.222870
0.529541 0.477203 0.255310
0.714294 0.522156 0.305359
0.172302 0.621063 0.241455
0.270935 0.640808 0.273529
0.417267 0.665771 0.299591
0.596008 0.692902 0.330292
0.769196 0.725006 0.368378
0.238861 0.812561 0.312378
0.345490 0.832977 0.351562
0.501038 0.855804 0.381561
0.679108 0.877777 0.407349
0.842987 0.900055 0.427124
0.026764 0.026764 0.127991
0.133301 0.044403 0.165344
0.294800 0.079956 0.220001
0.481506 0.137970 0.281738
0.661896 0.192566 0.333923
0.040375 0.185303 0.214172
0.166107 0.213898 0.254730
0.313782 0.248444 0.294067
0.498657 0.297546 0.345276
0.679474 0.345154 0.391815
0.104095 0.408691 0.307281
0.214539 0.427979 0.333618
0.362152 0.448029 0.362610
0.530579 0.484192 0.398224
0.717529 0.538666 0.454163
0.176300 0.629639 0.376099
0.277893 0.649628 0.405121
0.438873 0.669403 0.446198
0.607727 0.696625 0.480560
0.775482 0.732147 0.520264
0.244293 0.820709 0.447388
0.355804 0.841309 0.485870
0.529968 0.860840 0.532867
0.698364 0.882538 0.557831
0.857239 0.905884 0.575104
0.040100 0.040100 0.295288
0.150543 0.072418 0.343658
0.306335 0.106140 0.399536
0.486511 0.145081 0.450867
0.665649 0.197937 0.494720
0.075623 0.208710 0.399078
0.195770 0.246521 0.442383
0.340515 0.279022 0.471375
0.503052 0.305573 0.498688
0.684875 0.353668 0.543762
0.121552 0.421692 0.481628
0.228241 0.444031 0.502441
0.378693 0.467285 0.519928
0.544647 0.501709 0.550812
0.725250 0.556519 0.606354
0.180573 0.638306 0.540222
0.285828 0.658813 0.565033
0.450104 0.679169 0.595001
0.626648 0.707428 0.632904
0.786163 0.743744 0.670166
0.250122 0.828888 0.608307
0.366699 0.849579 0.641327
0.543335 0.868622 0.675049
0.722198 0.889587 0.705505
0.872894 0.912994 0.719116
0.091370 0.093201 0.483887
0.181152 0.122955 0.537262
0.326935 0.151428 0.590637
0.500214 0.177765 0.630432
0.669403 0.203339 0.658844
0.127075 0.240265 0.589874
0.226593 0.277191 0.626587
0.367401 0.311066 0.651093
0.528687 0.336304 0.673615
0.691620 0.363190 0.695892
0.162537 0.441925 0.657532
0.257385 0.468781 0.676849
0.410309 0.500580 0.692871
0.579681 0.537445 0.715729
0.736847 0.569153 0.743958
0.196472 0.649811 0.702972
0.302429 0.673157 0.724030
0.470184 0.697540 0.745636
0.648529 0.726837 0.770630
0.801666 0.758453 0.797150
0.256500 0.837219 0.760010
0.378113 0.857666 0.784515
0.556946 0.876190 0.805359
0.739410 0.898041 0.824524
0.889526 0.921967 0.839294
0.141357 0.145721 0.667877
0.215973 0.170471 0.716034
0.349670 0.194000 0.758545
0.516022 0.214844 0.787018
0.681610 0.235199 0.808624
0.172516 0.273163 0.757843
0.256592 0.306549 0.784821
0.391174 0.340149 0.804413
0.550323 0.364716 0.823090
0.713959 0.391754 0.843018
0.199707 0.462646 0.807739
0.285492 0.491272 0.824677
0.438049 0.528534 0.841095
0.612396 0.570435 0.862640
0.770172 0.602356 0.887573
0.229919 0.666687 0.846375
0.331848 0.694153 0.867188
0.501556 0.725739 0.888550
0.684509 0.760254 0.909332
0.835632 0.789490 0.926422
0.272430 0.848083 0.893188
0.396606 0.869781 0.912872
0.578094 0.890411 0.927002
0.761688 0.912598 0.936523
0.907471 0.933533 0.943970
