3d-lut/luts/Fusion 88.CUBE
#Created by: Adobe Photoshop Export Color Lookup Plugin
#Copyright: (C) Copyright 2017 RocketStock
TITLE "Cool Blue"
#LUT size
LUT_3D_SIZE 32
#data domain
DOMAIN_MIN 0.0 0.0 0.0
DOMAIN_MAX 1.0 1.0 1.0
#LUT data points
0.000000 0.000000 0.000000
0.000000 0.000000 0.000000
0.017792 0.003662 0.003662
0.038788 0.007751 0.007751
0.060181 0.012177 0.012177
0.081573 0.017151 0.017151
0.103333 0.022430 0.025269
0.125275 0.028534 0.035004
0.147430 0.036713 0.044464
0.169983 0.043732 0.052551
0.192902 0.049011 0.059082
0.216370 0.053314 0.064545
0.240417 0.057312 0.069611
0.265076 0.062775 0.075928
0.290436 0.071320 0.085205
0.316223 0.079956 0.094727
0.342438 0.088348 0.104156
0.368927 0.096802 0.113831
0.395660 0.105225 0.123322
0.422577 0.113800 0.132996
0.449524 0.122314 0.142548
0.476440 0.130798 0.151947
0.503326 0.139252 0.161285
0.530060 0.147644 0.170471
0.556427 0.155792 0.179352
0.582581 0.163971 0.188110
0.608337 0.171997 0.196564
0.633392 0.179657 0.204498
0.657898 0.187225 0.212280
0.681610 0.194489 0.219757
0.704712 0.201599 0.227112
0.727142 0.208649 0.234222
0.001251 0.005676 0.001251
0.001831 0.008423 0.001831
0.020477 0.013245 0.004364
0.041504 0.019775 0.008484
0.062836 0.027039 0.015778
0.084229 0.035370 0.025360
0.105682 0.044159 0.035797
0.127441 0.052246 0.046173
0.149567 0.059570 0.055420
0.171967 0.065613 0.063324
0.194885 0.070679 0.069763
0.218262 0.074982 0.075470
0.242462 0.079102 0.081238
0.267365 0.084656 0.088257
0.292908 0.092407 0.097504
0.318848 0.100250 0.106750
0.345184 0.108368 0.116272
0.371826 0.116486 0.125702
0.398682 0.124603 0.135010
0.425629 0.132904 0.144440
0.452698 0.141083 0.153717
0.479675 0.149292 0.162781
0.506592 0.157410 0.171783
0.533325 0.165466 0.180511
0.559753 0.173370 0.188965
0.585785 0.181091 0.197113
0.611298 0.188660 0.204987
0.636200 0.196014 0.212616
0.660583 0.203339 0.220184
0.684204 0.210419 0.227417
0.707214 0.217438 0.234528
0.729584 0.224274 0.241486
0.006531 0.031067 0.006531
0.008698 0.034241 0.007172
0.026154 0.037445 0.010468
0.044434 0.041565 0.016296
0.065613 0.048950 0.025299
0.086914 0.056610 0.035797
0.108429 0.064362 0.046570
0.130188 0.071686 0.056274
0.152283 0.078522 0.064819
0.174744 0.084808 0.072449
0.197662 0.090210 0.079163
0.221130 0.095276 0.085571
0.245239 0.100403 0.092133
0.270081 0.106659 0.099945
0.295654 0.114594 0.109558
0.321594 0.122345 0.118896
0.347961 0.130432 0.128418
0.374634 0.138580 0.137939
0.401489 0.146515 0.147125
0.428589 0.154388 0.156158
0.455719 0.162292 0.165070
0.482758 0.170074 0.173676
0.509705 0.177795 0.182159
0.536407 0.185394 0.190308
0.562683 0.192780 0.198151
0.588562 0.200104 0.205963
0.613922 0.207367 0.213501
0.638794 0.214539 0.220978
0.663086 0.221649 0.228271
0.686615 0.228516 0.235352
0.709534 0.235321 0.242249
0.731873 0.242004 0.249023
0.012115 0.057434 0.014465
0.016663 0.060791 0.019623
0.034607 0.064148 0.024933
0.051788 0.067841 0.030731
0.069214 0.071716 0.036835
0.089935 0.078400 0.046661
0.111450 0.085815 0.056519
0.133148 0.093018 0.065674
0.155182 0.099884 0.074310
0.177704 0.106354 0.082214
0.200500 0.112152 0.089294
0.224030 0.117676 0.096069
0.248260 0.123230 0.103058
0.273254 0.129822 0.111298
0.298889 0.137390 0.120575
0.324951 0.144928 0.129761
0.351471 0.152649 0.139008
0.378204 0.160370 0.148102
0.405121 0.167999 0.157013
0.432190 0.175690 0.165771
0.459290 0.183319 0.174377
0.486176 0.190674 0.182465
0.512970 0.197998 0.190491
0.539459 0.205353 0.198364
0.565613 0.212555 0.206055
0.591400 0.219727 0.213654
0.616669 0.226746 0.221069
0.641449 0.233765 0.228363
0.665649 0.240662 0.235504
0.689178 0.247406 0.242401
0.712067 0.254059 0.249207
0.734375 0.260651 0.255890
0.018799 0.084656 0.029633
0.025940 0.088043 0.035583
0.044647 0.091553 0.042084
0.060699 0.095490 0.048126
0.077301 0.099396 0.053558
0.095032 0.103516 0.059235
0.114594 0.108887 0.066498
0.136200 0.115997 0.075653
0.158203 0.122925 0.084412
0.180603 0.129547 0.092468
0.203522 0.135590 0.099823
0.227081 0.141449 0.106842
0.251373 0.147308 0.113983
0.276550 0.154114 0.122437
0.302246 0.161407 0.131470
0.328430 0.168640 0.140289
0.355042 0.176025 0.149109
0.381897 0.183289 0.157745
0.408844 0.190552 0.166077
0.435852 0.197662 0.174164
0.462860 0.204712 0.182068
0.489655 0.211670 0.189789
0.516327 0.218719 0.197510
0.542664 0.225647 0.205017
0.568787 0.232605 0.212555
0.594452 0.239532 0.219910
0.619690 0.246307 0.227051
0.644440 0.253143 0.234192
0.668579 0.259827 0.241089
0.692078 0.266357 0.247894
0.714935 0.272888 0.254547
0.737274 0.279327 0.261108
0.026154 0.112701 0.046631
0.036407 0.116211 0.052368
0.054474 0.119659 0.058228
0.069672 0.123535 0.063812
0.085724 0.127594 0.069244
0.102875 0.131836 0.074829
0.120941 0.136108 0.080566
0.139648 0.140350 0.086243
0.161469 0.147156 0.094940
0.183807 0.153839 0.102966
0.206696 0.160065 0.110443
0.230225 0.166199 0.117615
0.254608 0.172302 0.124756
0.279907 0.179169 0.133209
0.305817 0.186218 0.141815
0.332031 0.193176 0.150146
0.358734 0.200165 0.158447
0.385559 0.207001 0.166321
0.412415 0.213654 0.173981
0.439362 0.220490 0.181702
0.466248 0.227264 0.189331
0.492950 0.233948 0.196777
0.519562 0.240723 0.204224
0.545868 0.247437 0.211517
0.571899 0.254150 0.218750
0.597595 0.260834 0.225952
0.622803 0.267426 0.232910
0.647461 0.274017 0.239868
0.671631 0.280548 0.246674
0.695129 0.286957 0.253296
0.718018 0.293335 0.259888
0.740356 0.299683 0.266357
0.033264 0.141663 0.061401
0.046082 0.145172 0.066772
0.063049 0.148651 0.072662
0.078033 0.152283 0.078583
0.093842 0.156403 0.084076
0.110657 0.160645 0.089722
0.128387 0.164948 0.095459
0.146851 0.169159 0.100983
0.166016 0.173401 0.106628
0.187134 0.178894 0.113403
0.209961 0.185333 0.120819
0.233551 0.191620 0.127960
0.258057 0.197876 0.135071
0.283478 0.204742 0.143219
0.309479 0.211578 0.151337
0.335724 0.218109 0.158966
0.362335 0.224701 0.166565
0.389038 0.231293 0.174133
0.415833 0.237762 0.181488
0.442688 0.244324 0.188904
0.469513 0.250854 0.196198
0.496246 0.257416 0.203491
0.522797 0.264008 0.210693
0.549103 0.270477 0.217773
0.575134 0.277008 0.224823
0.600800 0.283539 0.231842
0.625977 0.289978 0.238678
0.650726 0.296448 0.245483
0.674896 0.302856 0.252228
0.698364 0.309143 0.258759
0.721283 0.315460 0.265289
0.743652 0.321655 0.271667
0.038940 0.171478 0.074219
0.053925 0.174957 0.079865
0.070068 0.178528 0.085968
0.085114 0.182068 0.092163
0.101227 0.185760 0.098206
0.117859 0.190002 0.103699
0.135437 0.194336 0.109314
0.153809 0.198425 0.114716
0.172913 0.202667 0.120117
0.192688 0.206757 0.125336
0.213470 0.211151 0.130798
0.237122 0.217590 0.137665
0.261658 0.223938 0.144592
0.287140 0.230591 0.152161
0.312988 0.237122 0.159576
0.339233 0.243530 0.166901
0.365723 0.250000 0.174255
0.392426 0.256470 0.181458
0.419128 0.262787 0.188660
0.446014 0.269287 0.195831
0.472809 0.275574 0.202850
0.499512 0.282013 0.209930
0.526062 0.288422 0.216949
0.552399 0.294769 0.223907
0.578430 0.301208 0.230804
0.604187 0.307617 0.237701
0.629333 0.313904 0.244415
0.654144 0.320312 0.251160
0.678314 0.326630 0.257843
0.701843 0.332855 0.264374
0.724884 0.339081 0.270874
0.747314 0.345245 0.277252
0.042114 0.202179 0.085968
0.059662 0.205627 0.092041
0.075348 0.209229 0.098297
0.090942 0.212769 0.104584
0.107727 0.216095 0.111053
0.124603 0.220123 0.116943
0.142151 0.224274 0.122162
0.160522 0.228455 0.127502
0.179688 0.232635 0.132690
0.199493 0.236603 0.137543
0.220032 0.240570 0.142365
0.241180 0.244293 0.146790
0.265259 0.250183 0.152924
0.290619 0.256744 0.160156
0.316437 0.263306 0.167389
0.342621 0.269714 0.174408
0.369080 0.276123 0.181519
0.395752 0.282532 0.188599
0.422485 0.288788 0.195496
0.449341 0.295105 0.202454
0.476135 0.301392 0.209320
0.502899 0.307709 0.216309
0.529480 0.314056 0.223145
0.555817 0.320343 0.229950
0.581970 0.326630 0.236786
0.607727 0.332947 0.243561
0.633057 0.339203 0.250275
0.657837 0.345490 0.256958
0.682129 0.351746 0.263611
0.705719 0.357910 0.270111
0.728821 0.364136 0.276672
0.751343 0.370270 0.283081
0.044495 0.233765 0.097290
0.064178 0.237274 0.103668
0.079987 0.240936 0.110138
0.096222 0.244415 0.116699
0.113617 0.247681 0.123199
0.131622 0.251099 0.129852
0.149139 0.255249 0.134979
0.167572 0.259430 0.140106
0.186859 0.263458 0.145050
0.206665 0.267181 0.149475
0.227173 0.270966 0.153809
0.248322 0.274658 0.158051
0.270050 0.278320 0.162109
0.294037 0.283630 0.167786
0.319855 0.290161 0.174774
0.345947 0.296570 0.181610
0.372437 0.302979 0.188538
0.399048 0.309265 0.195282
0.425873 0.315582 0.202087
0.452789 0.321899 0.208984
0.479614 0.328094 0.215698
0.506439 0.334351 0.222504
0.533112 0.340637 0.229309
0.559570 0.346832 0.235992
0.585785 0.353088 0.242798
0.611603 0.359344 0.249542
0.637024 0.365540 0.256195
0.661896 0.371796 0.262909
0.686218 0.377960 0.269531
0.709961 0.384247 0.276154
0.733185 0.390442 0.282745
0.755829 0.396637 0.289246
0.051331 0.266174 0.109680
0.070618 0.269775 0.116455
0.086639 0.273499 0.123108
0.103241 0.276978 0.129700
0.121124 0.280273 0.136414
0.139679 0.283417 0.143158
0.157562 0.287140 0.148499
0.175751 0.291046 0.153046
0.194702 0.294830 0.157379
0.214203 0.298431 0.161499
0.234589 0.302155 0.165527
0.255615 0.305847 0.169525
0.277283 0.309387 0.173370
0.299561 0.313049 0.177216
0.323212 0.317474 0.181732
0.349396 0.324005 0.188568
0.375885 0.330475 0.195282
0.402557 0.336761 0.201904
0.429413 0.343048 0.208649
0.456421 0.349365 0.215332
0.483337 0.355560 0.222015
0.510254 0.361847 0.228729
0.537048 0.368073 0.235504
0.563568 0.374207 0.242188
0.589935 0.380493 0.248932
0.615875 0.386719 0.255676
0.641357 0.392914 0.262390
0.666412 0.399139 0.269135
0.690796 0.405334 0.275818
0.714722 0.411621 0.282532
0.738007 0.417847 0.289215
0.760803 0.424103 0.295868
0.063629 0.299194 0.124481
0.080994 0.302856 0.130951
0.096069 0.306610 0.137268
0.112335 0.310028 0.143463
0.129791 0.313202 0.149750
0.148071 0.316040 0.155823
0.166077 0.319092 0.161072
0.183868 0.322815 0.165222
0.202423 0.326477 0.169220
0.221832 0.330109 0.173065
0.241974 0.333801 0.176971
0.262909 0.337433 0.180756
0.284485 0.340973 0.184326
0.306763 0.344574 0.187988
0.329529 0.348145 0.191498
0.352966 0.351929 0.195282
0.379517 0.358459 0.201874
0.406250 0.364807 0.208435
0.433197 0.371155 0.215088
0.460297 0.377441 0.221741
0.487335 0.383667 0.228363
0.514404 0.389923 0.235077
0.541321 0.396210 0.241791
0.568024 0.402374 0.248505
0.594513 0.408600 0.255280
0.620544 0.414825 0.261993
0.646240 0.421082 0.268890
0.671417 0.427368 0.275726
0.695923 0.433563 0.282471
0.719910 0.439880 0.289276
0.743378 0.446198 0.296143
0.766296 0.452454 0.302917
0.075836 0.332428 0.138824
0.091522 0.336212 0.144928
0.105713 0.339844 0.150726
0.121429 0.342957 0.156250
0.138428 0.345856 0.161865
0.156342 0.348541 0.167572
0.174561 0.351227 0.173065
0.191986 0.354858 0.176941
0.210297 0.358551 0.180725
0.229401 0.362122 0.184387
0.249420 0.365723 0.188049
0.270233 0.369293 0.191559
0.291809 0.372925 0.195099
0.314056 0.376556 0.198639
0.336823 0.380035 0.201996
0.360138 0.383667 0.205505
0.383850 0.387329 0.208954
0.410217 0.393219 0.214935
0.437347 0.399658 0.221588
0.464539 0.406036 0.228210
0.491791 0.412292 0.234833
0.518951 0.418610 0.241547
0.546051 0.424896 0.248322
0.572876 0.431152 0.255066
0.599518 0.437439 0.261932
0.625702 0.443634 0.268768
0.651581 0.449951 0.275726
0.676910 0.456329 0.282684
0.701508 0.462585 0.289551
0.725677 0.468933 0.296570
0.749237 0.475372 0.303589
0.772247 0.481659 0.310608
0.087708 0.365875 0.152557
0.101776 0.369415 0.157867
0.115295 0.372681 0.162994
0.130463 0.375641 0.168091
0.147034 0.378448 0.173431
0.164581 0.381226 0.178925
0.182800 0.383636 0.184418
0.200165 0.387146 0.188385
0.218231 0.390778 0.191956
0.237183 0.394318 0.195404
0.256989 0.397919 0.198853
0.277679 0.401459 0.202301
0.299194 0.405029 0.205719
0.321442 0.408630 0.209137
0.344208 0.412170 0.212463
0.367615 0.415833 0.215820
0.391449 0.419495 0.219269
0.415558 0.423096 0.222656
0.441772 0.428558 0.228119
0.469208 0.435028 0.234833
0.496552 0.441345 0.241455
0.523987 0.447723 0.248260
0.551208 0.454010 0.255066
0.578339 0.460419 0.261993
0.605164 0.466766 0.268951
0.631500 0.473022 0.275940
0.657501 0.479462 0.283020
0.682953 0.485870 0.290161
0.707672 0.492157 0.297180
0.731934 0.498596 0.304382
0.755524 0.505035 0.311584
0.778595 0.511414 0.318695
0.099121 0.398743 0.164978
0.111938 0.402161 0.169861
0.124786 0.405365 0.174652
0.139496 0.408295 0.179504
0.155640 0.411133 0.184631
0.172882 0.413849 0.189911
0.190979 0.416290 0.195312
0.208466 0.419556 0.199463
0.226196 0.423035 0.202820
0.244965 0.426575 0.206238
0.264709 0.430237 0.209595
0.285339 0.433685 0.212891
0.306793 0.437347 0.216217
0.329041 0.440887 0.219543
0.351898 0.444458 0.222870
0.375336 0.448090 0.226227
0.399292 0.451782 0.229614
0.423584 0.455414 0.233002
0.448181 0.459198 0.236572
0.474335 0.464264 0.241577
0.501923 0.470734 0.248383
0.529541 0.477203 0.255310
0.557007 0.483551 0.262177
0.584290 0.490021 0.269287
0.611359 0.496460 0.276428
0.637939 0.502869 0.283539
0.664001 0.509308 0.290802
0.689514 0.515778 0.298126
0.714294 0.522156 0.305359
0.738556 0.528625 0.312683
0.762238 0.535065 0.319977
0.785278 0.541443 0.327209
0.110199 0.431519 0.176849
0.121887 0.434845 0.181366
0.134369 0.437988 0.185974
0.148651 0.440887 0.190643
0.164368 0.443726 0.195557
0.181305 0.446442 0.200653
0.199188 0.448914 0.205933
0.216888 0.451935 0.210388
0.234406 0.455353 0.213623
0.253021 0.458923 0.216888
0.272614 0.462494 0.220154
0.293152 0.466034 0.223389
0.314667 0.469574 0.226654
0.336945 0.473236 0.229980
0.359833 0.476776 0.233246
0.383423 0.480469 0.236633
0.407501 0.484161 0.240082
0.431915 0.487823 0.243530
0.456726 0.491638 0.247131
0.481720 0.495392 0.250732
0.507843 0.500244 0.255585
0.535706 0.506836 0.262695
0.563416 0.513306 0.269775
0.590973 0.519867 0.277039
0.618164 0.526428 0.284363
0.644806 0.532867 0.291687
0.671021 0.539398 0.299164
0.696533 0.545959 0.306610
0.721252 0.552338 0.313904
0.745544 0.558777 0.321350
0.769135 0.565094 0.328613
0.792297 0.571564 0.335938
0.120972 0.464081 0.188354
0.131958 0.467316 0.192596
0.144043 0.470520 0.196991
0.157806 0.473389 0.201477
0.173187 0.476196 0.206268
0.189850 0.478882 0.211243
0.207550 0.481354 0.216400
0.225433 0.484161 0.221130
0.242798 0.487671 0.224274
0.261261 0.491180 0.227478
0.280792 0.494751 0.230682
0.301331 0.498230 0.233856
0.322815 0.501831 0.237152
0.345184 0.505463 0.240448
0.368195 0.509064 0.243774
0.391876 0.512756 0.247223
0.416168 0.516510 0.250763
0.440704 0.520203 0.254303
0.465729 0.524048 0.257935
0.491058 0.527985 0.261780
0.516388 0.531891 0.265625
0.542542 0.536652 0.270569
0.570435 0.543243 0.277863
0.598175 0.549866 0.285309
0.625427 0.556488 0.292816
0.652191 0.562988 0.300323
0.678375 0.569550 0.307861
0.703827 0.576080 0.315430
0.728638 0.582428 0.322815
0.752838 0.588867 0.330261
0.776520 0.595276 0.337677
0.799622 0.601562 0.344940
0.131622 0.496338 0.199432
0.141907 0.499573 0.203552
0.153564 0.502655 0.207733
0.167084 0.505554 0.212097
0.182129 0.508362 0.216766
0.198547 0.511047 0.221649
0.216064 0.513550 0.226746
0.234161 0.516235 0.231750
0.251343 0.519653 0.234833
0.269745 0.523254 0.238007
0.289246 0.526794 0.241211
0.309784 0.530273 0.244354
0.331360 0.533905 0.247711
0.353790 0.537506 0.251068
0.376984 0.541138 0.254456
0.400818 0.544891 0.257965
0.425262 0.548645 0.261597
0.450073 0.552429 0.265259
0.475342 0.556366 0.269104
0.500763 0.560211 0.273041
0.526367 0.564240 0.277161
0.552002 0.568359 0.281403
0.578033 0.573029 0.286377
0.605835 0.579712 0.294067
0.633148 0.586395 0.301666
0.659912 0.592896 0.309265
0.686066 0.599487 0.316895
0.711578 0.605957 0.324432
0.736267 0.612274 0.331909
0.760468 0.618652 0.339386
0.784058 0.624908 0.346649
0.807159 0.631195 0.354004
0.142059 0.528290 0.210266
0.151794 0.531433 0.214172
0.163269 0.534515 0.218262
0.176453 0.537415 0.222534
0.191223 0.540161 0.227112
0.207367 0.542816 0.231873
0.224792 0.545441 0.237030
0.243103 0.548035 0.242310
0.260193 0.551453 0.245300
0.278564 0.554993 0.248566
0.298096 0.558502 0.251770
0.318695 0.562042 0.255005
0.340332 0.565643 0.258362
0.362915 0.569336 0.261841
0.386200 0.572937 0.265289
0.410309 0.576752 0.268951
0.434967 0.580597 0.272766
0.460022 0.584412 0.276581
0.485474 0.588348 0.280640
0.511047 0.592285 0.284729
0.536804 0.596344 0.289032
0.562561 0.600464 0.293457
0.588043 0.604553 0.297821
0.613892 0.609314 0.303101
0.641266 0.615936 0.310822
0.668030 0.622437 0.318451
0.694122 0.628967 0.326111
0.719543 0.635376 0.333710
0.744202 0.641632 0.341095
0.768341 0.647919 0.348511
0.791840 0.654053 0.355743
0.814941 0.660217 0.363007
0.152283 0.559753 0.220856
0.161743 0.562866 0.224640
0.172882 0.565918 0.228668
0.185883 0.568787 0.232819
0.200409 0.571564 0.237366
0.216400 0.574219 0.242096
0.233704 0.576935 0.247223
0.252197 0.579498 0.252716
0.269348 0.582825 0.255920
0.287689 0.586334 0.259155
0.307281 0.589905 0.262451
0.327972 0.593445 0.265747
0.349762 0.597076 0.269226
0.372528 0.600800 0.272827
0.396027 0.604431 0.276428
0.420349 0.608276 0.280273
0.445129 0.612061 0.284149
0.470459 0.615967 0.288269
0.496063 0.619995 0.292480
0.521729 0.623901 0.296753
0.547607 0.627960 0.301147
0.573395 0.632080 0.305695
0.598969 0.636108 0.310150
0.624268 0.640228 0.314758
0.649750 0.644958 0.320160
0.676392 0.651428 0.327789
0.702423 0.657867 0.335419
0.727631 0.664062 0.342865
0.752350 0.670319 0.350311
0.776428 0.676483 0.357666
0.799866 0.682495 0.364777
0.822906 0.688477 0.371918
0.162445 0.590698 0.231232
0.171570 0.593811 0.234955
0.182526 0.596741 0.238800
0.195312 0.599670 0.243042
0.209778 0.602478 0.247559
0.225616 0.605133 0.252319
0.242889 0.607819 0.257538
0.261383 0.610413 0.263062
0.278778 0.613770 0.266541
0.297180 0.617249 0.269867
0.316925 0.620819 0.273254
0.337769 0.624359 0.276672
0.359741 0.628021 0.280304
0.382629 0.631653 0.283966
0.406433 0.635468 0.287872
0.430908 0.639282 0.291901
0.455841 0.643066 0.295929
0.481293 0.647034 0.300232
0.507019 0.650970 0.304565
0.532837 0.654877 0.308929
0.558746 0.658905 0.313446
0.584595 0.662933 0.318024
0.610138 0.666901 0.322510
0.635406 0.670929 0.327148
0.660278 0.674988 0.331818
0.685059 0.679565 0.337189
0.710968 0.685913 0.344757
0.736115 0.692047 0.352081
0.760712 0.698120 0.359436
0.784698 0.704163 0.366638
0.808044 0.709991 0.373627
0.831024 0.715790 0.380524
0.172302 0.621063 0.241455
0.181335 0.624146 0.245148
0.192200 0.627045 0.248962
0.204865 0.629944 0.253204
0.219238 0.632782 0.257782
0.235077 0.635437 0.262573
0.252319 0.638123 0.267853
0.270935 0.640808 0.273529
0.288544 0.644043 0.277283
0.307098 0.647614 0.280701
0.326965 0.651184 0.284241
0.348022 0.654694 0.287872
0.370209 0.658386 0.291656
0.393280 0.662048 0.295502
0.417267 0.665771 0.299591
0.441895 0.669647 0.303772
0.466949 0.673370 0.307922
0.492493 0.677277 0.312317
0.518341 0.681183 0.316772
0.544189 0.684998 0.321167
0.570160 0.688904 0.325684
0.596008 0.692902 0.330292
0.621490 0.696747 0.334808
0.646729 0.700653 0.339417
0.671356 0.704468 0.343903
0.695465 0.708374 0.348419
0.719727 0.713074 0.353943
0.744781 0.719025 0.361176
0.769196 0.725006 0.368378
0.793121 0.730865 0.375366
0.816406 0.736511 0.382111
0.839264 0.742157 0.388794
0.182068 0.650757 0.251556
0.191040 0.653748 0.255188
0.201843 0.656647 0.259125
0.214508 0.659546 0.263367
0.228821 0.662384 0.268005
0.244659 0.665039 0.272949
0.262024 0.667816 0.278320
0.280731 0.670471 0.284119
0.298676 0.673706 0.288208
0.317413 0.677216 0.291809
0.337402 0.680695 0.295410
0.358704 0.684296 0.299286
0.381104 0.687988 0.303253
0.404327 0.691589 0.307251
0.428406 0.695343 0.311432
0.453186 0.699066 0.315765
0.478394 0.702789 0.320007
0.504059 0.706635 0.324432
0.529938 0.710419 0.328888
0.555847 0.714172 0.333313
0.581818 0.718018 0.337860
0.607635 0.721832 0.342438
0.633026 0.725586 0.346893
0.658173 0.729340 0.351379
0.682648 0.733063 0.355774
0.706604 0.736816 0.360168
0.729919 0.740540 0.364532
0.753571 0.745178 0.369965
0.777924 0.750977 0.376953
0.801697 0.756653 0.383728
0.824829 0.762146 0.390228
0.847626 0.767609 0.396606
0.191742 0.679596 0.261536
0.200714 0.682587 0.265259
0.211517 0.685394 0.269226
0.224182 0.688293 0.273621
0.238556 0.691132 0.278320
0.254486 0.693878 0.283386
0.271973 0.696625 0.288971
0.290894 0.699371 0.294952
0.309204 0.702545 0.299316
0.328125 0.706085 0.303070
0.348297 0.709534 0.306915
0.369751 0.713104 0.310883
0.392303 0.716736 0.315002
0.415710 0.720306 0.319092
0.439941 0.723999 0.323364
0.464813 0.727661 0.327728
0.490112 0.731323 0.332062
0.515839 0.735046 0.336456
0.541779 0.738770 0.340973
0.567657 0.742401 0.345337
0.593628 0.746155 0.349854
0.619232 0.749756 0.354218
0.644745 0.753479 0.358704
0.669708 0.757111 0.363068
0.694000 0.760681 0.367279
0.717773 0.764313 0.371521
0.740936 0.767883 0.375671
0.763397 0.771332 0.379608
0.786682 0.776062 0.385101
0.810333 0.781586 0.391602
0.833374 0.786896 0.397766
0.856049 0.792206 0.403839
0.201233 0.707550 0.271484
0.210297 0.710541 0.275330
0.221222 0.713379 0.279388
0.233948 0.716248 0.283875
0.248474 0.719116 0.288788
0.264526 0.721863 0.294006
0.282257 0.724670 0.299744
0.301361 0.727448 0.306000
0.319977 0.730621 0.310669
0.339111 0.734100 0.314606
0.359467 0.737549 0.318512
0.381134 0.741119 0.322632
0.403839 0.744690 0.326813
0.427338 0.748199 0.330994
0.451721 0.751831 0.335327
0.476715 0.755463 0.339691
0.502075 0.759003 0.343994
0.527863 0.762634 0.348450
0.553802 0.766266 0.352875
0.579681 0.769775 0.357208
0.605591 0.773407 0.361572
0.631165 0.776917 0.365845
0.656464 0.780457 0.370148
0.681305 0.783997 0.374359
0.705383 0.787445 0.378387
0.728943 0.790863 0.382355
0.751923 0.794281 0.386230
0.774200 0.797577 0.389862
0.796082 0.800873 0.393463
0.819031 0.805664 0.398895
0.841949 0.810852 0.404755
0.864594 0.816010 0.410461
0.210663 0.734772 0.281464
0.219879 0.737701 0.285400
0.230927 0.740570 0.289642
0.243866 0.743500 0.294342
0.258545 0.746399 0.299438
0.274811 0.749176 0.304871
0.292694 0.752045 0.310822
0.311981 0.754761 0.317169
0.331024 0.757996 0.322205
0.350342 0.761444 0.326172
0.370911 0.764862 0.330231
0.392731 0.768372 0.334442
0.415649 0.771881 0.338654
0.439270 0.775330 0.342865
0.463776 0.778870 0.347198
0.488861 0.782410 0.351532
0.514282 0.785858 0.355835
0.540070 0.789429 0.360168
0.565887 0.792847 0.364410
0.591888 0.796356 0.368744
0.617706 0.799835 0.372955
0.643127 0.803223 0.377045
0.668274 0.806641 0.381134
0.692932 0.810028 0.385071
0.716736 0.813293 0.388885
0.740082 0.816620 0.392609
0.762878 0.819855 0.396179
0.784973 0.822968 0.399475
0.806671 0.826141 0.402710
0.827881 0.829193 0.405701
0.851257 0.834473 0.411316
0.874542 0.839905 0.416962
0.220062 0.761292 0.291595
0.229492 0.764221 0.295715
0.240753 0.767120 0.300079
0.253906 0.770050 0.304993
0.268799 0.772949 0.310303
0.285278 0.775787 0.315948
0.303406 0.778687 0.322083
0.322968 0.781494 0.328552
0.342285 0.784668 0.333771
0.361847 0.788086 0.337891
0.382599 0.791412 0.341949
0.404602 0.794891 0.346161
0.427643 0.798309 0.350433
0.451416 0.801727 0.354614
0.475983 0.805176 0.358887
0.501160 0.808624 0.363220
0.526642 0.812042 0.367401
0.552460 0.815460 0.371613
0.578247 0.818787 0.375732
0.604156 0.822174 0.379822
0.629852 0.825531 0.383881
0.655151 0.828766 0.387756
0.680115 0.832062 0.391602
0.704498 0.835297 0.395294
0.728119 0.838409 0.398712
0.751251 0.841583 0.402130
0.773773 0.844635 0.405334
0.795746 0.847626 0.408325
0.817841 0.850952 0.411377
0.839630 0.854218 0.414215
0.861786 0.858063 0.417572
0.885284 0.863495 0.422882
0.229431 0.787170 0.301849
0.239166 0.790161 0.306213
0.250641 0.793060 0.310822
0.264038 0.796051 0.315887
0.279114 0.798950 0.321259
0.295898 0.801849 0.327148
0.314270 0.804749 0.333466
0.334137 0.807587 0.340088
0.353760 0.810699 0.345398
0.373535 0.814056 0.349548
0.394501 0.817383 0.353607
0.416687 0.820740 0.357849
0.439850 0.824158 0.362061
0.463745 0.827454 0.366211
0.488434 0.830811 0.370392
0.513519 0.834076 0.374481
