3d-lut/luts/Fusion 88.CUBE
#Created by: Adobe Photoshop Export Color Lookup Plugin
#Copyright: (C) Copyright 2017 RocketStock
TITLE "Cool Blue"
#LUT size
LUT_3D_SIZE 8
#data domain
#LUT data points
DOMAIN_MIN 0.000000 0.000000 0.000000
DOMAIN_MAX 0.903226 0.903226 0.903226
0.000000 0.000000 0.000000
0.060181 0.012177 0.012177
0.147430 0.036713 0.044464
0.240417 0.057312 0.069611
0.342438 0.088348 0.104156
0.449524 0.122314 0.142548
0.556427 0.155792 0.179352
0.657898 0.187225 0.212280
0.018799 0.084656 0.029633
0.077301 0.099396 0.053558
0.158203 0.122925 0.084412
0.251373 0.147308 0.113983
0.355042 0.176025 0.149109
0.462860 0.204712 0.182068
0.568787 0.232605 0.212555
0.668579 0.259827 0.241089
0.042114 0.202179 0.085968
0.107727 0.216095 0.111053
0.179688 0.232635 0.132690
0.265259 0.250183 0.152924
0.369080 0.276123 0.181519
0.476135 0.301392 0.209320
0.581970 0.326630 0.236786
0.682129 0.351746 0.263611
0.075836 0.332428 0.138824
0.138428 0.345856 0.161865
0.210297 0.358551 0.180725
0.291809 0.372925 0.195099
0.383850 0.387329 0.208954
0.491791 0.412292 0.234833
0.599518 0.437439 0.261932
0.701508 0.462585 0.289551
0.120972 0.464081 0.188354
0.173187 0.476196 0.206268
0.242798 0.487671 0.224274
0.322815 0.501831 0.237152
0.416168 0.516510 0.250763
0.516388 0.531891 0.265625
0.625427 0.556488 0.292816
0.728638 0.582428 0.322815
0.162445 0.590698 0.231232
0.209778 0.602478 0.247559
0.278778 0.613770 0.266541
0.359741 0.628021 0.280304
0.455841 0.643066 0.295929
0.558746 0.658905 0.313446
0.660278 0.674988 0.331818
0.760712 0.698120 0.359436
0.201233 0.707550 0.271484
0.248474 0.719116 0.288788
0.319977 0.730621 0.310669
0.403839 0.744690 0.326813
0.502075 0.759003 0.343994
0.605591 0.773407 0.361572
0.705383 0.787445 0.378387
0.796082 0.800873 0.393463
0.238861 0.812561 0.312378
0.289612 0.824341 0.332428
0.365417 0.836121 0.356934
0.452240 0.849335 0.373474
0.551727 0.862274 0.389465
0.654236 0.874817 0.404114
0.751190 0.886871 0.416565
0.842987 0.900055 0.427124
0.011353 0.011353 0.058075
0.065460 0.016663 0.080292
0.149414 0.042267 0.109924
0.242676 0.062500 0.139252
0.345093 0.092926 0.173889
0.452393 0.126495 0.210358
0.559265 0.159546 0.244720
0.660187 0.190247 0.274841
0.023132 0.092285 0.102631
0.085052 0.108887 0.126556
0.159882 0.129364 0.154327
0.251282 0.155670 0.188263
0.355499 0.184692 0.222656
0.463623 0.212860 0.253204
0.569763 0.240509 0.281464
0.669800 0.267578 0.308167
0.042542 0.208984 0.161346
0.110260 0.222595 0.184418
0.184692 0.236877 0.206696
0.266846 0.255219 0.228699
0.367004 0.282684 0.257690
0.473816 0.310730 0.286316
0.580505 0.338013 0.313690
0.681793 0.364746 0.340332
0.079437 0.339111 0.217285
0.141205 0.351440 0.236267
0.215973 0.361542 0.254089
0.296173 0.373932 0.271393
0.383209 0.388397 0.285492
0.490326 0.416382 0.312683
0.599243 0.444763 0.341034
0.702637 0.472595 0.369598
0.123535 0.469574 0.262695
0.175812 0.481415 0.278809
0.248505 0.491455 0.296387
0.331451 0.502289 0.314911
0.420624 0.517212 0.329498
0.517609 0.532928 0.345612
0.626801 0.560760 0.374786
0.730835 0.589752 0.406128
0.164642 0.595703 0.302826
0.212738 0.607483 0.318542
0.284821 0.618042 0.337708
0.372314 0.629303 0.360107
0.465027 0.644745 0.377655
0.564728 0.660675 0.396454
0.663239 0.676880 0.415771
0.763824 0.702576 0.444397
0.203674 0.712219 0.342010
0.252258 0.723938 0.359741
0.326965 0.735199 0.382660
0.419312 0.746765 0.409210
0.514343 0.761169 0.427826
0.614777 0.775604 0.446198
0.711578 0.789551 0.463104
0.799744 0.802795 0.477753
0.241882 0.817169 0.384003
0.294312 0.829163 0.404968
0.373322 0.840607 0.430237
0.469635 0.852081 0.457489
0.565979 0.864960 0.473999
0.665344 0.877411 0.488464
0.760742 0.889954 0.500549
0.850983 0.903290 0.510254
0.030518 0.030518 0.150360
0.080963 0.034302 0.170776
0.155884 0.051392 0.195648
0.244904 0.067505 0.225525
0.347778 0.097443 0.260742
0.455200 0.130737 0.296021
0.562073 0.163177 0.327789
0.662445 0.193329 0.355347
0.036041 0.107635 0.195709
0.098663 0.125275 0.220276
0.172699 0.145142 0.246857
0.256714 0.163879 0.274719
0.358154 0.189545 0.306183
0.465973 0.217255 0.335693
0.571991 0.244659 0.362549
0.672028 0.271606 0.387634
0.044281 0.217682 0.253937
0.117310 0.233917 0.277527
0.195374 0.250183 0.296753
0.278046 0.268951 0.315704
0.369110 0.289215 0.337555
0.475006 0.317749 0.366608
0.581818 0.345886 0.394409
0.683624 0.373505 0.421204
0.082855 0.345184 0.308563
0.143890 0.356995 0.324402
0.218689 0.366821 0.337311
0.301025 0.378845 0.351532
0.391815 0.398407 0.371765
0.492188 0.423920 0.397064
0.600067 0.454651 0.427521
0.704102 0.485199 0.458435
0.126038 0.474884 0.351288
0.178436 0.486603 0.365662
0.251587 0.496582 0.379730
0.336945 0.506653 0.395477
0.428864 0.520660 0.414734
0.522003 0.536987 0.431763
0.629486 0.566864 0.462799
0.733643 0.598602 0.496002
0.166901 0.600647 0.389221
0.215820 0.612427 0.404053
0.289062 0.623291 0.421082
0.379303 0.634064 0.441803
0.476929 0.647308 0.465729
0.572601 0.663574 0.484863
0.667603 0.679932 0.504120
0.767639 0.707947 0.533783
0.206268 0.716888 0.427338
0.256256 0.728851 0.445099
0.332336 0.740265 0.466522
0.427460 0.751526 0.491486
0.529083 0.763824 0.517578
0.625458 0.778229 0.535461
0.718750 0.792175 0.551636
0.803986 0.805206 0.564972
0.245087 0.821808 0.469666
0.299072 0.833893 0.490479
0.379669 0.845306 0.513763
0.479065 0.856415 0.539520
0.582184 0.867889 0.563507
0.677734 0.880127 0.576813
0.771362 0.893311 0.587982
0.859436 0.906799 0.596680
0.031586 0.031586 0.244598
0.085907 0.041260 0.268707
0.164276 0.063812 0.297302
0.253113 0.084229 0.328766
0.351166 0.103851 0.360138
0.458069 0.134888 0.393036
0.564606 0.166565 0.421783
0.664581 0.196381 0.447021
0.043152 0.117859 0.297363
0.112427 0.141174 0.325653
0.188751 0.164673 0.354065
0.272552 0.183472 0.382050
0.365875 0.199982 0.404144
0.468292 0.221619 0.427673
0.574310 0.248901 0.453308
0.674377 0.275665 0.476929
0.069183 0.230621 0.359711
0.134918 0.250153 0.384857
0.212189 0.268860 0.402496
0.295410 0.288452 0.417267
0.381165 0.303192 0.433228
0.477661 0.322327 0.452667
0.584808 0.350708 0.480408
0.687012 0.378571 0.506927
0.097992 0.354095 0.410583
0.155701 0.367798 0.425812
0.230286 0.380371 0.437286
0.313965 0.393921 0.447845
0.404724 0.412750 0.463196
0.497589 0.431885 0.481445
0.604279 0.462677 0.511993
0.708160 0.494232 0.543945
0.128479 0.480133 0.447723
0.181122 0.491791 0.460175
0.254822 0.501770 0.470886
0.341003 0.511993 0.482178
0.435211 0.526642 0.498444
0.535553 0.550201 0.523529
0.636688 0.576965 0.551697
0.738586 0.609650 0.585449
0.169312 0.605652 0.483490
0.219086 0.617462 0.497192
0.293457 0.628540 0.511963
0.384918 0.639618 0.529175
0.484436 0.652832 0.549805
0.583893 0.670013 0.573212
0.675507 0.686462 0.591644
0.773285 0.715149 0.621063
0.209015 0.721680 0.520233
0.260498 0.733795 0.537537
0.338104 0.745453 0.557007
0.434204 0.756683 0.578156
0.537689 0.768707 0.600830
0.637787 0.782410 0.622650
0.727325 0.796173 0.637268
0.810577 0.809692 0.649475
0.248413 0.826538 0.561890
0.304077 0.838623 0.581482
0.386200 0.850006 0.602142
0.486572 0.860992 0.623749
0.592346 0.871918 0.645264
0.691925 0.883911 0.662659
0.782990 0.897430 0.672516
0.868317 0.910767 0.680054
0.054413 0.054413 0.348114
0.104950 0.071991 0.375458
0.178070 0.091522 0.406799
0.264404 0.109741 0.439209
0.361267 0.128021 0.470093
0.463196 0.145416 0.496338
0.567047 0.169983 0.519836
0.666718 0.199432 0.542694
0.072235 0.137390 0.406433
0.132355 0.161316 0.436798
0.205811 0.185455 0.465210
0.287445 0.203369 0.491394
0.379578 0.218964 0.511475
0.476562 0.233826 0.528534
0.576660 0.253113 0.546997
0.676880 0.279816 0.569275
0.097656 0.246033 0.469299
0.154694 0.266357 0.493652
0.228851 0.286346 0.510040
0.312866 0.308014 0.523163
0.398438 0.322662 0.538147
0.490936 0.337372 0.552185
0.588013 0.355591 0.569122
0.690674 0.383759 0.595367
0.122437 0.366089 0.516083
0.174225 0.381409 0.531128
0.246552 0.396667 0.542480
0.331451 0.413208 0.552155
0.423279 0.432678 0.563110
0.513916 0.449188 0.577545
0.609253 0.468506 0.596069
0.713318 0.500427 0.628021
0.143799 0.488708 0.549042
0.193909 0.501556 0.560730
0.266785 0.513794 0.570526
0.354492 0.526642 0.580322
0.450378 0.542419 0.593109
0.550049 0.564575 0.613251
0.644867 0.586029 0.634583
0.744934 0.617981 0.666534
0.171753 0.610657 0.579315
0.222565 0.622620 0.591492
0.298248 0.633881 0.603943
0.390808 0.645172 0.617493
0.491028 0.658630 0.633545
0.591858 0.676422 0.653503
0.689789 0.699493 0.677673
0.781952 0.724884 0.702728
0.211945 0.726624 0.614410
0.264923 0.738861 0.630402
0.343933 0.750580 0.647156
0.441071 0.761810 0.664215
0.545044 0.773804 0.681915
0.646362 0.787476 0.700012
0.737762 0.802490 0.716492
0.820007 0.816772 0.727600
0.251862 0.831268 0.653870
0.309265 0.843323 0.671417
0.392883 0.854614 0.688812
0.494110 0.865479 0.705994
0.600189 0.876282 0.722443
0.703369 0.888580 0.738312
0.794952 0.902283 0.749420
0.877533 0.915314 0.755951
0.083954 0.085236 0.456665
0.127777 0.102722 0.485870
0.194763 0.119995 0.517883
0.277527 0.136536 0.549316
0.372284 0.153198 0.577972
0.472687 0.168457 0.600708
0.572449 0.182526 0.618774
0.668884 0.202545 0.636353
0.101929 0.159821 0.517303
0.154541 0.183136 0.547455
0.223816 0.207031 0.574341
0.302185 0.223328 0.596985
0.392303 0.238037 0.614777
0.488373 0.252289 0.630035
0.585083 0.266479 0.643860
0.679474 0.283997 0.658813
0.126099 0.263092 0.577057
0.175659 0.282776 0.598602
0.245605 0.303345 0.613739
0.329285 0.326416 0.625580
0.414093 0.340942 0.639252
0.506592 0.355560 0.652008
0.601318 0.370850 0.664917
0.694580 0.389160 0.680603
0.147278 0.378906 0.618073
0.193695 0.394867 0.631958
0.262878 0.411682 0.642853
0.347839 0.430603 0.652069
0.441742 0.452393 0.661499
0.533478 0.469482 0.674805
0.626984 0.486511 0.689819
0.718597 0.506683 0.708221
0.166168 0.499420 0.647614
0.212585 0.513611 0.658813
0.283386 0.528168 0.668610
0.371948 0.544250 0.678345
0.470337 0.562866 0.689911
0.570587 0.585114 0.705353
0.663086 0.604187 0.722229
0.751099 0.624329 0.740784
0.186035 0.618652 0.673767
0.235657 0.631714 0.685242
0.311218 0.644928 0.696808
0.405121 0.658783 0.708984
0.507080 0.674164 0.722290
0.608704 0.692169 0.737946
0.704834 0.713409 0.756683
0.789917 0.732391 0.773590
0.215057 0.731537 0.703735
0.269531 0.743896 0.717712
0.350006 0.755646 0.731323
0.448181 0.766907 0.744232
0.552490 0.778809 0.757233
0.653595 0.792358 0.770691
0.746521 0.808502 0.785309
0.832397 0.826569 0.798950
0.255554 0.836060 0.739838
0.314575 0.847992 0.754730
0.399841 0.859253 0.768860
0.501770 0.869843 0.781799
0.608093 0.880524 0.793854
0.712524 0.893341 0.805725
0.806488 0.907715 0.817108
0.887054 0.920532 0.823425
0.113434 0.116608 0.565063
0.152161 0.132660 0.594360
0.213165 0.147858 0.624969
0.291901 0.162933 0.653687
0.383942 0.177704 0.678436
0.482269 0.191040 0.697266
0.580658 0.203705 0.712616
0.674377 0.216187 0.726013
0.130859 0.183502 0.624542
0.177338 0.205475 0.652222
0.242004 0.228271 0.675751
0.316650 0.242889 0.694336
0.404480 0.256714 0.709625
0.499237 0.270172 0.722778
0.595459 0.283844 0.734894
0.687775 0.297760 0.746490
0.152802 0.280731 0.677643
0.196350 0.299255 0.695496
0.262177 0.319763 0.708893
0.344543 0.343628 0.719391
0.428192 0.357880 0.731323
0.520508 0.372406 0.742767
0.615570 0.387756 0.754669
0.707336 0.404083 0.767426
0.170746 0.392059 0.711853
0.212769 0.408142 0.724091
0.278778 0.425842 0.734039
0.363037 0.446320 0.742828
0.458527 0.470154 0.751740
0.551270 0.488007 0.764160
0.645569 0.505524 0.778381
0.735321 0.523773 0.793427
0.187531 0.510376 0.737488
0.230774 0.525269 0.747742
0.299469 0.541382 0.757294
0.388306 0.559875 0.767151
0.488647 0.581207 0.778412
0.590942 0.605286 0.791962
0.683655 0.624481 0.807068
0.769287 0.642151 0.821716
0.205963 0.628387 0.761047
0.253662 0.642731 0.772186
0.328033 0.658020 0.783783
0.422577 0.674591 0.795776
0.526428 0.692566 0.808167
0.629639 0.712067 0.821533
0.724762 0.732147 0.835571
0.805664 0.747040 0.846985
0.228424 0.739227 0.787567
0.282745 0.752533 0.800537
0.363525 0.765778 0.813049
0.462677 0.778839 0.824524
0.568237 0.792389 0.835419
0.669891 0.806427 0.845734
0.762146 0.821503 0.855927
0.846985 0.838409 0.866180
0.259399 0.840820 0.818146
0.320099 0.852661 0.830811
0.406799 0.863770 0.842102
0.509460 0.874115 0.851654
0.617096 0.885132 0.860291
0.721893 0.898163 0.868774
0.815094 0.912384 0.877258
0.896881 0.926361 0.885010
0.141357 0.145721 0.667877
0.176178 0.160400 0.695312
0.231903 0.173859 0.722778
0.306519 0.187408 0.747711
0.395630 0.200287 0.768066
0.491699 0.212006 0.783600
0.588715 0.223541 0.796814
0.681610 0.235199 0.808624
0.157806 0.206543 0.722321
0.198975 0.226868 0.746460
0.259552 0.248260 0.766083
0.330627 0.261475 0.781433
0.416107 0.274414 0.794556
0.509583 0.287323 0.806183
0.605194 0.300476 0.817108
0.697418 0.314209 0.827820
0.176941 0.297943 0.767456
0.215790 0.315186 0.782196
0.277924 0.335388 0.794098
0.358704 0.359558 0.803772
0.441406 0.373779 0.814514
0.533325 0.388275 0.825104
0.628540 0.403748 0.836334
0.720703 0.420349 0.848694
0.192230 0.405121 0.796051
0.230896 0.421112 0.806915
0.294067 0.439301 0.816315
0.377472 0.460968 0.825104
0.474121 0.486603 0.834259
0.567749 0.505188 0.846283
0.662384 0.523041 0.859985
0.752289 0.541443 0.874207
0.207428 0.521332 0.818604
0.248291 0.536682 0.828339
0.315186 0.553955 0.837982
0.404022 0.574371 0.848297
0.505829 0.598083 0.859985
0.610046 0.624176 0.872986
0.703308 0.643707 0.887115
0.788788 0.661133 0.900513
0.224915 0.638214 0.840485
0.271118 0.653473 0.851562
0.344421 0.670349 0.863342
0.439331 0.689056 0.875580
0.544525 0.709320 0.887909
0.649506 0.730621 0.900391
0.745392 0.751495 0.912292
0.825867 0.765839 0.922150
0.246765 0.748383 0.865814
0.300018 0.762695 0.878510
0.380280 0.777588 0.890808
0.480164 0.793030 0.902374
0.587067 0.808807 0.912811
0.690063 0.824493 0.921967
0.784058 0.840576 0.929901
0.867554 0.855988 0.936371
0.272430 0.848083 0.893188
0.333344 0.860626 0.904999
0.420441 0.872772 0.915253
0.523529 0.884369 0.923462
0.633148 0.896759 0.930145
0.737793 0.909485 0.935394
0.828400 0.921814 0.939728
0.907471 0.933533 0.943970
