3d-lut/luts/Hyla 68.CUBE
#Created by: Adobe Photoshop Export Color Lookup Plugin
#Copyright: (C) Copyright 2017 RocketStock
TITLE "Untitled"
#LUT size
LUT_3D_SIZE 32
#data domain
DOMAIN_MIN 0.0 0.0 0.0
DOMAIN_MAX 1.0 1.0 1.0
#LUT data points
0.002533 0.072266 0.001617
0.019012 0.068329 0.001617
0.035553 0.064362 0.001617
0.052246 0.060364 0.001617
0.069336 0.056274 0.001617
0.086884 0.052094 0.001617
0.105103 0.047729 0.001617
0.124084 0.043182 0.001617
0.144043 0.038391 0.001617
0.165192 0.033356 0.001617
0.187683 0.027954 0.001617
0.211761 0.022217 0.001617
0.237732 0.015991 0.001617
0.265778 0.009277 0.001617
0.295624 0.002136 0.001617
0.327087 0.000000 0.001617
0.359985 0.000000 0.001617
0.393799 0.000000 0.001617
0.428314 0.000000 0.001617
0.463165 0.000000 0.001617
0.497925 0.000000 0.001617
0.532593 0.000000 0.001617
0.567200 0.000000 0.001617
0.601227 0.000000 0.001617
0.634552 0.000000 0.001617
0.666687 0.000000 0.001617
0.697418 0.000000 0.001617
0.726624 0.000000 0.001617
0.754486 0.000000 0.001617
0.781067 0.000000 0.001617
0.806488 0.000000 0.001617
0.830872 0.000000 0.001617
0.003021 0.089539 0.001617
0.019501 0.085602 0.001617
0.036041 0.081635 0.001617
0.052734 0.077637 0.001617
0.069824 0.073547 0.001617
0.087372 0.069366 0.001617
0.105591 0.065002 0.001617
0.124573 0.060455 0.001617
0.144531 0.055695 0.001617
0.165680 0.050629 0.001617
0.188171 0.045227 0.001617
0.212250 0.039490 0.001617
0.238220 0.033264 0.001617
0.266266 0.026550 0.001617
0.296112 0.019409 0.001617
0.327576 0.011902 0.001617
0.360474 0.004028 0.001617
0.394287 0.000000 0.001617
0.428802 0.000000 0.001617
0.463654 0.000000 0.001617
0.498413 0.000000 0.001617
0.533081 0.000000 0.001617
0.567688 0.000000 0.001617
0.601715 0.000000 0.001617
0.635040 0.000000 0.001617
0.667175 0.000000 0.001617
0.697906 0.000000 0.001617
0.727112 0.000000 0.001617
0.754974 0.000000 0.001617
0.781555 0.000000 0.001617
0.806976 0.000000 0.001617
0.831360 0.000000 0.001617
0.003510 0.107422 0.001617
0.019989 0.103455 0.001617
0.036530 0.099518 0.001617
0.053223 0.095520 0.001617
0.070312 0.091431 0.001617
0.087860 0.087219 0.001617
0.106079 0.082886 0.001617
0.125061 0.078339 0.001617
0.145020 0.073547 0.001617
0.166168 0.068481 0.001617
0.188660 0.063110 0.001617
0.212738 0.057343 0.001617
0.238708 0.051147 0.001617
0.266754 0.044434 0.001617
0.296600 0.037292 0.001617
0.328064 0.029755 0.001617
0.360962 0.021881 0.001617
0.394775 0.013794 0.001617
0.429291 0.005554 0.001617
0.464142 0.000000 0.001617
0.498901 0.000000 0.001617
0.533569 0.000000 0.001617
0.568176 0.000000 0.001617
0.602203 0.000000 0.001617
0.635529 0.000000 0.001617
0.667664 0.000000 0.001617
0.698395 0.000000 0.001617
0.727600 0.000000 0.001617
0.755463 0.000000 0.001617
0.782043 0.000000 0.001617
0.807465 0.000000 0.001617
0.831848 0.000000 0.001617
0.004059 0.125854 0.001617
0.020538 0.121918 0.001617
0.037079 0.117950 0.001617
0.053772 0.113953 0.001617
0.070862 0.109863 0.001617
0.088409 0.105682 0.001617
0.106628 0.101318 0.001617
0.125610 0.096771 0.001617
0.145569 0.091980 0.001617
0.166718 0.086945 0.001617
0.189209 0.081543 0.001617
0.213287 0.075806 0.001617
0.239258 0.069580 0.001617
0.267303 0.062866 0.001617
0.297150 0.055725 0.001617
0.328613 0.048187 0.001617
0.361511 0.040314 0.001617
0.395325 0.032227 0.001617
0.429840 0.023987 0.001617
0.464691 0.015656 0.001617
0.499451 0.007324 0.001617
0.534119 0.000000 0.001617
0.568726 0.000000 0.001617
0.602753 0.000000 0.001617
0.636078 0.000000 0.001617
0.668213 0.000000 0.001617
0.698944 0.000000 0.001617
0.728149 0.000000 0.001617
0.756012 0.000000 0.001617
0.782593 0.000000 0.001617
0.808014 0.000000 0.001617
0.832397 0.000000 0.001617
0.004608 0.145264 0.001617
0.021088 0.141327 0.001617
0.037628 0.137360 0.001617
0.054321 0.133362 0.001617
0.071411 0.129272 0.001617
0.088959 0.125092 0.001617
0.107178 0.120728 0.001617
0.126160 0.116180 0.001617
0.146118 0.111420 0.001617
0.167267 0.106354 0.001617
0.189758 0.100952 0.001617
0.213837 0.095215 0.001617
0.239807 0.088989 0.001617
0.267853 0.082275 0.001617
0.297699 0.075134 0.001617
0.329163 0.067596 0.001617
0.362061 0.059753 0.001617
0.395874 0.051636 0.001617
0.430389 0.043396 0.001617
0.465240 0.035065 0.001617
0.500000 0.026733 0.001617
0.534668 0.018433 0.001617
0.569275 0.010162 0.001617
0.603302 0.002014 0.001617
0.636627 0.000000 0.001617
0.668762 0.000000 0.001617
0.699493 0.000000 0.001617
0.728699 0.000000 0.001617
0.756561 0.000000 0.001617
0.783142 0.000000 0.001617
0.808563 0.000000 0.001617
0.832947 0.000000 0.001617
0.005188 0.165680 0.001617
0.021667 0.161743 0.001617
0.038208 0.157776 0.001617
0.054901 0.153778 0.001617
0.071991 0.149689 0.001617
0.089539 0.145508 0.001617
0.107758 0.141144 0.001617
0.126740 0.136597 0.001617
0.146698 0.131836 0.001617
0.167847 0.126770 0.001617
0.190338 0.121368 0.001617
0.214417 0.115631 0.001617
0.240387 0.109406 0.001617
0.268433 0.102692 0.001617
0.298279 0.095551 0.001617
0.329742 0.088043 0.001617
0.362640 0.080170 0.001617
0.396454 0.072083 0.001617
0.430969 0.063812 0.001617
0.465820 0.055481 0.001617
0.500580 0.047150 0.001617
0.535248 0.038849 0.001617
0.569855 0.030579 0.001617
0.603882 0.022430 0.001617
0.637207 0.014465 0.001617
0.669342 0.006775 0.001617
0.700073 0.000000 0.001617
0.729279 0.000000 0.001617
0.757141 0.000000 0.001617
0.783722 0.000000 0.001617
0.809143 0.000000 0.001617
0.833527 0.000000 0.001617
0.005798 0.187256 0.001617
0.022278 0.183319 0.001617
0.038818 0.179352 0.001617
0.055511 0.175354 0.001617
0.072601 0.171265 0.001617
0.090149 0.167084 0.001617
0.108368 0.162720 0.001617
0.127350 0.158173 0.001617
0.147308 0.153412 0.001617
0.168457 0.148346 0.001617
0.190948 0.142975 0.001617
0.215027 0.137207 0.001617
0.240997 0.130981 0.001617
0.269043 0.124268 0.001617
0.298889 0.117126 0.001617
0.330353 0.109619 0.001617
0.363251 0.101746 0.001617
0.397064 0.093658 0.001617
0.431580 0.085388 0.001617
0.466431 0.077057 0.001617
0.501190 0.068726 0.001617
0.535858 0.060425 0.001617
0.570465 0.052155 0.001617
0.604492 0.044006 0.001617
0.637817 0.036041 0.001617
0.669952 0.028351 0.001617
0.700684 0.020996 0.001617
0.729889 0.014008 0.001617
0.757751 0.007355 0.001617
0.784332 0.000977 0.001617
0.809753 0.000000 0.001617
0.835541 0.000000 0.001831
0.006439 0.210236 0.001617
0.022919 0.206268 0.001617
0.039459 0.202332 0.001617
0.056152 0.198334 0.001617
0.073242 0.194244 0.001617
0.090790 0.190033 0.001617
0.109009 0.185669 0.001617
0.127991 0.181152 0.001617
0.147949 0.176361 0.001617
0.169098 0.171295 0.001617
0.191589 0.165924 0.001617
0.215668 0.160156 0.001617
0.241638 0.153961 0.001617
0.269684 0.147247 0.001617
0.299530 0.140106 0.001617
0.330994 0.132568 0.001617
0.363892 0.124695 0.001617
0.397705 0.116608 0.001617
0.432220 0.108337 0.001617
0.467072 0.100006 0.001617
0.501831 0.091705 0.001617
0.536499 0.083405 0.001617
0.571106 0.075134 0.001617
0.605133 0.066986 0.001617
0.638458 0.059021 0.001617
0.670593 0.051331 0.001617
0.701324 0.043976 0.001617
0.730530 0.036987 0.001617
0.758392 0.030304 0.001617
0.786438 0.024628 0.001831
0.814697 0.019958 0.002228
0.841797 0.015778 0.002625
0.007141 0.234924 0.001617
0.023621 0.230957 0.001617
0.040161 0.227020 0.001617
0.056854 0.223022 0.001617
0.073944 0.218933 0.001617
0.091492 0.214722 0.001617
0.109711 0.210358 0.001617
0.128693 0.205841 0.001617
0.148651 0.201050 0.001617
0.169800 0.195984 0.001617
0.192291 0.190613 0.001617
0.216370 0.184845 0.001617
0.242340 0.178650 0.001617
0.270386 0.171936 0.001617
0.300232 0.164795 0.001617
0.331696 0.157257 0.001617
0.364594 0.149384 0.001617
0.398407 0.141296 0.001617
0.432922 0.133026 0.001617
0.467773 0.124695 0.001617
0.502533 0.116394 0.001617
0.537201 0.108093 0.001617
0.571808 0.099823 0.001617
0.605835 0.091675 0.001617
0.639160 0.083710 0.001617
0.671295 0.076019 0.001617
0.702026 0.068665 0.001617
0.732758 0.062347 0.001801
0.763641 0.057251 0.002197
0.793213 0.052582 0.002625
0.821655 0.048492 0.003113
0.849030 0.044830 0.003601
0.007904 0.261536 0.001617
0.024384 0.257599 0.001617
0.040924 0.253662 0.001617
0.057617 0.249664 0.001617
0.074707 0.245575 0.001617
0.092255 0.241364 0.001617
0.110474 0.237000 0.001617
0.129456 0.232452 0.001617
0.149414 0.227692 0.001617
0.170563 0.222626 0.001617
0.193054 0.217255 0.001617
0.217133 0.211487 0.001617
0.243103 0.205261 0.001617
0.271149 0.198578 0.001617
0.300995 0.191437 0.001617
0.332458 0.183899 0.001617
0.365356 0.176025 0.001617
0.399170 0.167938 0.001617
0.433685 0.159668 0.001617
0.468536 0.151337 0.001617
0.503296 0.143036 0.001617
0.537964 0.134735 0.001617
0.572571 0.126434 0.001617
0.606598 0.118317 0.001617
0.639923 0.110321 0.001617
0.673676 0.103302 0.001801
0.707611 0.097565 0.002197
0.740173 0.092468 0.002625
0.771179 0.087891 0.003113
0.800995 0.083893 0.003571
0.829651 0.080444 0.004120
0.857117 0.077423 0.004608
0.008728 0.290222 0.001617
0.025208 0.286285 0.001617
0.041748 0.282318 0.001617
0.058441 0.278320 0.001617
0.075531 0.274231 0.001617
0.093079 0.270050 0.001617
0.111298 0.265686 0.001617
0.130280 0.261139 0.001617
0.150238 0.256378 0.001617
0.171387 0.251312 0.001617
0.193878 0.245941 0.001617
0.217957 0.240173 0.001617
0.243927 0.233948 0.001617
0.271973 0.227234 0.001617
0.301819 0.220093 0.001617
0.333282 0.212585 0.001617
0.366180 0.204712 0.001617
0.399994 0.196625 0.001617
0.434509 0.188354 0.001617
0.469360 0.180023 0.001617
0.504120 0.171692 0.001617
0.538788 0.163422 0.001617
0.573395 0.155121 0.001617
0.608978 0.147614 0.001770
0.645935 0.141388 0.002167
0.681793 0.135590 0.002625
0.715973 0.130493 0.003113
0.748688 0.126038 0.003571
0.779816 0.122070 0.004059
0.809723 0.118774 0.004608
0.838440 0.116028 0.005157
0.865936 0.113647 0.005707
0.009583 0.320709 0.001617
0.026062 0.316742 0.001617
0.042603 0.312805 0.001617
0.059296 0.308807 0.001617
0.076385 0.304718 0.001617
0.093933 0.300507 0.001617
0.112152 0.296143 0.001617
0.131134 0.291626 0.001617
0.151093 0.286835 0.001617
0.172241 0.281769 0.001617
0.194733 0.276398 0.001617
0.218811 0.270630 0.001617
0.244781 0.264435 0.001617
0.272827 0.257721 0.001617
0.302673 0.250580 0.001617
0.334137 0.243042 0.001617
0.367035 0.235168 0.001617
0.400848 0.227081 0.001617
0.435364 0.218811 0.001617
0.470215 0.210480 0.001617
0.504974 0.202179 0.001617
0.541107 0.194580 0.001770
0.579590 0.188110 0.002167
0.617615 0.181885 0.002594
0.655060 0.176270 0.003082
0.691010 0.171112 0.003540
0.725372 0.166626 0.004059
0.758148 0.162842 0.004578
0.789337 0.159546 0.005157
0.819275 0.156921 0.005707
0.847870 0.154785 0.006287
0.875397 0.153046 0.006897
0.010498 0.352814 0.001617
0.026978 0.348846 0.001617
0.043518 0.344910 0.001617
0.060211 0.340912 0.001617
0.077301 0.336823 0.001617
0.094849 0.332611 0.001617
0.113068 0.328247 0.001617
0.132050 0.323730 0.001617
0.152008 0.318939 0.001617
0.173157 0.313873 0.001617
0.195648 0.308502 0.001617
0.219727 0.302734 0.001617
0.245697 0.296539 0.001617
0.273743 0.289825 0.001617
0.303589 0.282684 0.001617
0.335052 0.275146 0.001617
0.367950 0.267273 0.001617
0.401764 0.259186 0.001617
0.436279 0.250916 0.001617
0.472504 0.243317 0.001770
0.511200 0.236786 0.002136
0.550140 0.230591 0.002594
0.589142 0.224670 0.003082
0.627625 0.219055 0.003540
0.665344 0.213989 0.004059
0.701355 0.209473 0.004547
0.735748 0.205627 0.005157
0.768494 0.202484 0.005707
0.799561 0.199768 0.006256
0.829407 0.197815 0.006866
0.858002 0.196228 0.007507
0.885437 0.195038 0.008148
0.011444 0.386230 0.001617
0.027924 0.382294 0.001617
0.044464 0.378326 0.001617
0.061157 0.374329 0.001617
0.078247 0.370239 0.001617
0.095795 0.366028 0.001617
0.114014 0.361694 0.001617
0.132996 0.357147 0.001617
0.152954 0.352356 0.001617
0.174103 0.347290 0.001617
0.196594 0.341919 0.001617
0.220673 0.336151 0.001617
0.246643 0.329956 0.001617
0.274689 0.323242 0.001617
0.304535 0.316101 0.001617
0.335999 0.308563 0.001617
0.368896 0.300690 0.001617
0.403900 0.293182 0.001770
0.442444 0.286896 0.002136
0.481598 0.280731 0.002563
0.520782 0.274811 0.003052
0.560516 0.269073 0.003510
0.599915 0.263550 0.004028
0.638885 0.258606 0.004486
0.676636 0.254089 0.005096
0.712646 0.250061 0.005676
0.746887 0.246918 0.006256
0.779510 0.244263 0.006805
0.810455 0.242157 0.007477
0.840149 0.240692 0.008118
0.868622 0.239563 0.008789
0.895935 0.238831 0.009521
0.012421 0.420532 0.001617
0.028900 0.416595 0.001617
0.045441 0.412628 0.001617
0.062134 0.408630 0.001617
0.079224 0.404541 0.001617
0.096771 0.400330 0.001617
0.114990 0.395996 0.001617
0.133972 0.391449 0.001617
0.153931 0.386658 0.001617
0.175079 0.381592 0.001617
0.197571 0.376221 0.001617
0.221649 0.370453 0.001617
0.247620 0.364258 0.001617
0.275665 0.357544 0.001617
0.305511 0.350403 0.001617
0.338013 0.343445 0.001740
0.374756 0.337708 0.002136
0.412842 0.331787 0.002533
0.452118 0.325989 0.003052
0.492035 0.320251 0.003510
0.531891 0.314697 0.004028
0.572144 0.309448 0.004486
0.612000 0.304382 0.005066
0.651093 0.299896 0.005646
0.688873 0.295837 0.006256
0.724609 0.292419 0.006775
0.758728 0.289734 0.007477
0.791077 0.287628 0.008118
0.821838 0.285858 0.008759
0.851318 0.284851 0.009521
0.879639 0.284119 0.010193
0.906769 0.283722 0.010834
0.013428 0.455444 0.001617
0.029907 0.451508 0.001617
0.046448 0.447540 0.001617
0.063141 0.443573 0.001617
0.080231 0.439484 0.001617
0.097778 0.435272 0.001617
0.115997 0.430908 0.001617
0.134979 0.426361 0.001617
0.154938 0.421600 0.001617
0.176086 0.416534 0.001617
0.198578 0.411163 0.001617
0.222656 0.405396 0.001617
0.248627 0.399170 0.001617
0.277496 0.393127 0.001740
0.310791 0.388031 0.002106
0.346466 0.382843 0.002533
0.384155 0.377380 0.002991
0.423157 0.371857 0.003448
0.463287 0.366333 0.003967
0.503571 0.360992 0.004486
0.544189 0.355896 0.005005
0.584839 0.351013 0.005646
0.624939 0.346344 0.006195
0.664154 0.342194 0.006775
0.701721 0.338623 0.007446
0.737244 0.335632 0.008087
0.771027 0.333313 0.008728
0.803162 0.331573 0.009460
0.833588 0.330200 0.010162
0.862854 0.329437 0.010834
0.890808 0.328888 0.011566
0.917816 0.328918 0.012360
0.014435 0.490692 0.001617
0.030914 0.486755 0.001617
0.047455 0.482788 0.001617
0.064148 0.478790 0.001617
0.081238 0.474701 0.001617
0.098785 0.470520 0.001617
0.117004 0.466156 0.001617
0.135986 0.461609 0.001617
0.155945 0.456848 0.001617
0.177094 0.451782 0.001617
0.199585 0.446411 0.001617
0.224274 0.441162 0.001709
0.253357 0.437225 0.002106
0.285217 0.432861 0.002533
0.319611 0.428192 0.002991
0.356354 0.423218 0.003448
0.395020 0.418060 0.003967
0.434814 0.412811 0.004456
0.475555 0.407593 0.005005
0.516541 0.402618 0.005646
0.557587 0.397705 0.006195
0.598602 0.393158 0.006744
0.638824 0.388824 0.007446
0.677887 0.385101 0.008087
0.715179 0.381927 0.008698
0.750275 0.379364 0.009399
0.783752 0.377411 0.010132
0.815460 0.376038 0.010803
0.845612 0.374969 0.011536
0.874603 0.374481 0.012329
0.902435 0.374298 0.013092
0.929108 0.374329 0.013855
0.015442 0.525818 0.001617
0.031921 0.521881 0.001617
0.048462 0.517914 0.001617
0.065155 0.513916 0.001617
0.082245 0.509827 0.001617
0.099792 0.505646 0.001617
0.118011 0.501282 0.001617
0.136993 0.496735 0.001617
0.156952 0.491943 0.001617
0.178589 0.487335 0.001678
0.203735 0.484283 0.002075
0.231079 0.480927 0.002502
0.261200 0.477386 0.002930
0.294281 0.473267 0.003418
0.329681 0.468811 0.003906
0.367554 0.464172 0.004425
0.407043 0.459259 0.005005
0.447632 0.454285 0.005585
0.488983 0.449371 0.006195
0.530273 0.444519 0.006714
0.571899 0.440063 0.007416
0.613129 0.435791 0.008057
0.653381 0.431671 0.008698
0.692108 0.428375 0.009399
0.729004 0.425568 0.010132
0.763702 0.423279 0.010803
0.796661 0.421570 0.011536
0.828064 0.420349 0.012329
0.857849 0.419525 0.013031
0.886536 0.419067 0.013855
0.913849 0.418884 0.014557
0.940430 0.419067 0.015381
0.016418 0.560974 0.001617
0.032898 0.557037 0.001617
0.049438 0.553070 0.001617
0.066132 0.549072 0.001617
0.083221 0.544983 0.001617
0.100769 0.540771 0.001617
0.118988 0.536438 0.001617
0.138336 0.532288 0.001678
0.160614 0.529846 0.002075
0.184692 0.527374 0.002472
0.210693 0.524780 0.002930
0.239075 0.521637 0.003418
0.270386 0.518250 0.003906
0.304565 0.514404 0.004425
0.341095 0.510071 0.004974
0.379883 0.505585 0.005585
0.420288 0.500885 0.006165
0.461548 0.495941 0.006714
0.503387 0.491333 0.007385
0.545074 0.486725 0.008057
0.586945 0.482330 0.008667
0.628357 0.478241 0.009399
0.668365 0.474426 0.010071
0.706787 0.471222 0.010773
0.743073 0.468597 0.011505
0.777313 0.466400 0.012238
0.809784 0.464874 0.013031
0.840790 0.463684 0.013794
0.870148 0.462769 0.014557
0.898438 0.462372 0.015381
0.925476 0.462097 0.016205
0.951782 0.462097 0.017029
0.017426 0.595917 0.001617
0.033905 0.591980 0.001617
0.050446 0.588013 0.001617
0.067139 0.584045 0.001617
0.084229 0.579956 0.001617
0.102020 0.576019 0.001648
0.122345 0.574066 0.002075
0.143890 0.572205 0.002472
0.166870 0.570160 0.002899
0.191742 0.567871 0.003387
0.218689 0.565460 0.003906
0.248138 0.562561 0.004395
0.280640 0.559265 0.004974
0.316010 0.555450 0.005524
0.353577 0.551178 0.006165
0.393311 0.546722 0.006714
0.434326 0.541992 0.007385
0.476379 0.537323 0.008026
0.518616 0.532684 0.008667
0.560669 0.528046 0.009338
0.602783 0.523712 0.010071
0.644043 0.519623 0.010773
0.683746 0.515839 0.011505
0.721588 0.512726 0.012238
0.757324 0.510223 0.013000
0.790924 0.508026 0.013763
0.822998 0.506378 0.014557
0.853302 0.505005 0.015350
0.882385 0.504120 0.016174
0.910278 0.503479 0.016998
0.937042 0.502869 0.017792
0.962952 0.502563 0.018646
0.018402 0.630371 0.001617
0.034882 0.626434 0.001617
0.051422 0.622498 0.001617
0.068268 0.618713 0.001648
0.087341 0.616974 0.002075
0.107178 0.615295 0.002472
0.128082 0.613800 0.002899
0.150269 0.612061 0.003387
0.174011 0.610260 0.003906
0.199707 0.608185 0.004395
0.227722 0.605804 0.004944
0.258301 0.602905 0.005524
0.292023 0.599548 0.006134
0.328369 0.595551 0.006653
0.367188 0.591309 0.007324
0.407806 0.586761 0.007996
0.449554 0.581909 0.008606
0.492065 0.577057 0.009338
0.534515 0.572479 0.010040
0.576935 0.567688 0.010712
0.619019 0.563263 0.011475
0.660034 0.559113 0.012238
0.699188 0.555237 0.012970
0.736450 0.552063 0.013763
0.771576 0.549469 0.014526
0.804596 0.547089 0.015320
0.836121 0.545349 0.016174
0.865967 0.543762 0.016968
0.894562 0.542603 0.017761
0.922058 0.541718 0.018616
0.948456 0.540863 0.019440
0.974091 0.540283 0.020325
0.019348 0.663910 0.001617
0.035950 0.660126 0.001648
0.054321 0.658386 0.002045
0.073181 0.656921 0.002472
0.092712 0.655548 0.002869
0.113007 0.654175 0.003357
0.134521 0.652740 0.003876
0.157410 0.651184 0.004395
0.181915 0.649353 0.004913
0.208557 0.647400 0.005493
0.237579 0.644897 0.006134
0.269409 0.641815 0.006653
0.304413 0.638275 0.007294
0.341888 0.634155 0.007935
0.381683 0.629578 0.008606
0.423126 0.624817 0.009277
0.465454 0.619781 0.009979
0.508270 0.614807 0.010712
0.551025 0.609863 0.011444
0.593536 0.604980 0.012177
0.635559 0.600311 0.012939
0.676208 0.596069 0.013733
0.714722 0.592224 0.014465
0.751190 0.588898 0.015289
0.785492 0.586029 0.016113
0.818085 0.583679 0.016937
0.849030 0.581696 0.017731
0.878326 0.579987 0.018585
0.906525 0.578583 0.019409
0.933624 0.577423 0.020325
0.959595 0.576294 0.021118
0.984985 0.575409 0.022034
0.022156 0.698456 0.002045
0.040649 0.696930 0.002472
0.059418 0.695435 0.002869
0.078735 0.694214 0.003357
0.098724 0.692993 0.003876
0.119568 0.691681 0.004364
0.141663 0.690338 0.004913
0.165314 0.688782 0.005493
0.190643 0.686920 0.006104
0.218201 0.684753 0.006622
0.248322 0.681976 0.007263
0.281586 0.678741 0.007935
0.317810 0.674805 0.008575
0.356384 0.670349 0.009277
0.397095 0.665558 0.009979
0.439240 0.660522 0.010681
0.481934 0.655243 0.011444
0.525055 0.650055 0.012146
0.568024 0.644897 0.012909
0.610474 0.639801 0.013672
0.652252 0.635040 0.014465
0.692383 0.630646 0.015289
0.730133 0.626709 0.016083
0.765869 0.623322 0.016907
0.799438 0.620361 0.017731
0.831421 0.617920 0.018555
0.861755 0.615723 0.019409
0.890503 0.613770 0.020233
0.918274 0.612213 0.021118
0.944916 0.610779 0.022034
0.970581 0.609436 0.022827
0.995605 0.608276 0.023712
0.027191 0.733704 0.002869
0.046021 0.732361 0.003357
0.065125 0.731110 0.003845
0.084839 0.729950 0.004333
0.105347 0.728851 0.004883
0.126740 0.727478 0.005463
0.149506 0.726105 0.006042
0.173920 0.724518 0.006622
0.200104 0.722443 0.007263
0.228760 0.720032 0.007935
0.260101 0.716980 0.008575
0.294617 0.713409 0.009247
0.332062 0.709137 0.009979
0.371643 0.704346 0.010651
0.413177 0.699249 0.011383
0.455933 0.693909 0.012146
0.498993 0.688354 0.012878
0.542206 0.683044 0.013672
0.585297 0.677704 0.014465
0.627625 0.672485 0.015259
0.668976 0.667572 0.016052
0.708160 0.663025 0.016876
0.745361 0.659088 0.017700
0.780334 0.655670 0.018555
0.813171 0.652557 0.019348
0.844482 0.649933 0.020233
0.874237 0.647675 0.021088
0.902466 0.645569 0.021973
0.929718 0.643707 0.022827
0.955963 0.642120 0.023712
0.981232 0.640533 0.024536
1.000000 0.639099 0.025452
0.032776 0.767578 0.003845
0.051941 0.766388 0.004303
0.071381 0.765289 0.004883
0.091522 0.764130 0.005432
0.112549 0.763000 0.006042
0.134583 0.761658 0.006622
0.157990 0.760193 0.007263
0.183228 0.758362 0.007935
0.210388 0.756104 0.008545
0.240143 0.753357 0.009216
0.272736 0.750031 0.009918
0.308624 0.745972 0.010651
0.347168 0.741394 0.011353
0.387665 0.736267 0.012115
0.429932 0.730865 0.012848
0.473175 0.725250 0.013672
0.516388 0.719635 0.014404
0.559662 0.714050 0.015228
0.602814 0.708496 0.016022
0.644897 0.703033 0.016846
0.685608 0.698090 0.017670
0.723907 0.693542 0.018524
0.760254 0.689575 0.019348
0.794434 0.686096 0.020203
0.826569 0.682922 0.021057
0.857178 0.680237 0.021973
0.886414 0.677765 0.022797
0.914062 0.675507 0.023651
0.940887 0.673492 0.024536
0.966675 0.671661 0.025391
0.991608 0.669830 0.026306
1.000000 0.668182 0.027161
0.038849 0.800110 0.004852
0.058319 0.799072 0.005432
0.078186 0.797913 0.005981
0.098755 0.796814 0.006592
0.120300 0.795624 0.007233
0.142944 0.794128 0.007843
0.167145 0.792480 0.008514
0.193054 0.790405 0.009186
0.221375 0.787964 0.009888
0.252319 0.784912 0.010620
0.286285 0.781128 0.011322
0.323334 0.776733 0.012085
0.362946 0.771790 0.012848
0.404297 0.766357 0.013611
0.447174 0.760620 0.014374
0.490723 0.754852 0.015198
0.533966 0.748993 0.016022
0.577423 0.743164 0.016846
0.620178 0.737396 0.017639
0.661926 0.731995 0.018494
0.701904 0.726929 0.019348
0.739288 0.722412 0.020172
0.774811 0.718384 0.021027
0.808167 0.714844 0.021942
0.839569 0.711609 0.022766
0.869598 0.708740 0.023590
0.898163 0.706238 0.024536
0.925323 0.703766 0.025360
0.951691 0.701630 0.026276
0.976929 0.699493 0.027130
1.000000 0.697601 0.028046
1.000000 0.695709 0.028931
0.045441 0.831268 0.005981
0.065277 0.830200 0.006561
0.085480 0.829102 0.007172
0.106567 0.827911 0.007812
0.128632 0.826599 0.008514
0.151886 0.825012 0.009186
0.176880 0.823181 0.009888
0.203735 0.820831 0.010590
0.233093 0.818146 0.011322
0.265350 0.814667 0.012054
0.300629 0.810486 0.012756
0.338867 0.805756 0.013611
0.379425 0.800476 0.014374
0.421509 0.794647 0.015198
0.464874 0.788788 0.015991
0.508484 0.782715 0.016815
0.551788 0.776672 0.017639
0.595154 0.770782 0.018433
0.637573 0.764862 0.019257
0.678741 0.759369 0.020172
0.717743 0.754364 0.020996
0.754333 0.749817 0.021912
0.788910 0.745789 0.022766
0.821472 0.742249 0.023560
0.852203 0.738892 0.024475
0.881592 0.735931 0.025330
0.909546 0.733246 0.026276
0.936249 0.730682 0.027100
0.962006 0.728394 0.028015
0.986908 0.726044 0.028900
1.000000 0.723938 0.029785
1.000000 0.723663 0.030701
0.052521 0.861267 0.007172
0.072601 0.860138 0.007812
0.093262 0.858917 0.008484
0.114807 0.857666 0.009186
0.137329 0.856171 0.009827
0.161407 0.854462 0.010559
0.187164 0.852509 0.011292
0.215027 0.849854 0.012024
0.245544 0.846741 0.012756
0.279144 0.842896 0.013580
0.315674 0.838318 0.014343
0.355011 0.833221 0.015167
0.396484 0.827545 0.015961
0.439117 0.821564 0.016754
0.482666 0.815399 0.017609
0.526215 0.809143 0.018402
