3d-lut/luts/Hyla 68.CUBE
#Created by: Adobe Photoshop Export Color Lookup Plugin
#Copyright: (C) Copyright 2017 RocketStock
TITLE "Untitled"
#LUT size
LUT_3D_SIZE 5
#data domain
#LUT data points
DOMAIN_MIN 0.000000 0.000000 0.000000
DOMAIN_MAX 0.903226 0.903226 0.903226
0.002533 0.072266 0.001617
0.124084 0.043182 0.001617
0.295624 0.002136 0.001617
0.532593 0.000000 0.001617
0.754486 0.000000 0.001617
0.006439 0.210236 0.001617
0.127991 0.181152 0.001617
0.299530 0.140106 0.001617
0.536499 0.083405 0.001617
0.758392 0.030304 0.001617
0.012421 0.420532 0.001617
0.133972 0.391449 0.001617
0.305511 0.350403 0.001617
0.572144 0.309448 0.004486
0.821838 0.285858 0.008759
0.019348 0.663910 0.001617
0.157410 0.651184 0.004395
0.381683 0.629578 0.008606
0.676208 0.596069 0.013733
0.906525 0.578583 0.019409
0.059937 0.890045 0.008484
0.226959 0.877441 0.013550
0.500732 0.840759 0.019226
0.782837 0.801086 0.025299
0.981445 0.778534 0.031525
0.002533 0.070038 0.115753
0.124084 0.040955 0.115753
0.295624 0.000000 0.115753
0.532593 0.000000 0.115753
0.754486 0.000000 0.115753
0.006439 0.208008 0.115753
0.127991 0.178925 0.115753
0.299530 0.137878 0.115753
0.536499 0.081177 0.115753
0.764893 0.030914 0.116760
0.012421 0.418304 0.115753
0.133972 0.389221 0.115753
0.312134 0.352173 0.116638
0.587646 0.315674 0.120941
0.836029 0.295776 0.126556
0.022461 0.665497 0.116516
0.166626 0.657593 0.120758
0.400879 0.635956 0.126373
0.696167 0.602814 0.132996
0.920898 0.586212 0.140411
0.069458 0.895264 0.126160
0.242767 0.881927 0.132721
0.523376 0.843506 0.140167
0.799469 0.804382 0.148041
0.992249 0.781616 0.156097
0.002533 0.066864 0.277557
0.124084 0.037781 0.277557
0.295624 0.000000 0.277557
0.532593 0.000000 0.277557
0.754486 0.000000 0.277557
0.006439 0.204834 0.277557
0.127991 0.175751 0.277557
0.299530 0.134705 0.277557
0.536499 0.078003 0.277557
0.774384 0.032043 0.281494
0.012421 0.415131 0.277557
0.133972 0.386047 0.277557
0.323029 0.355743 0.281250
0.604675 0.321777 0.288849
0.850525 0.305237 0.298401
0.028290 0.669495 0.281036
0.177277 0.663788 0.288544
0.421417 0.641388 0.298096
0.715973 0.608551 0.308990
0.934692 0.592316 0.320953
0.079498 0.899567 0.297729
0.259705 0.885071 0.308655
0.545593 0.844818 0.320526
0.815094 0.806152 0.332977
1.000000 0.782959 0.345398
0.002533 0.062500 0.500977
0.124084 0.033417 0.500977
0.295624 0.000000 0.500977
0.532593 0.000000 0.500977
0.754486 0.000000 0.500977
0.006439 0.200470 0.500977
0.127991 0.171387 0.500977
0.299530 0.130341 0.500977
0.537323 0.073883 0.501160
0.785309 0.033051 0.508057
0.012421 0.410767 0.500977
0.133972 0.381683 0.500977
0.336060 0.359161 0.507751
0.623108 0.327728 0.516876
0.865204 0.313995 0.527649
0.035004 0.673492 0.507477
0.189178 0.669281 0.516541
0.442749 0.645569 0.527283
0.735443 0.613068 0.539215
0.948151 0.597107 0.551697
0.090271 0.903015 0.526886
0.277710 0.886841 0.538818
0.567596 0.845001 0.551270
0.829376 0.806824 0.563812
1.000000 0.782928 0.575836
0.002533 0.058502 0.706024
0.124084 0.029419 0.706024
0.295624 0.000000 0.706024
0.532593 0.000000 0.706024
0.754486 0.000000 0.706024
0.006439 0.196472 0.706024
0.127991 0.167389 0.706024
0.299530 0.126343 0.706024
0.547974 0.072937 0.707916
0.797363 0.035278 0.713928
0.012421 0.406769 0.706024
0.140045 0.384216 0.707764
0.351349 0.364105 0.713684
0.642456 0.334900 0.721222
0.880066 0.323914 0.729767
0.042816 0.678894 0.713470
0.202332 0.675598 0.720978
0.465027 0.650299 0.729462
0.754028 0.618011 0.738556
0.960876 0.602020 0.747894
0.101410 0.907074 0.729187
0.296204 0.888916 0.738251
0.588806 0.845673 0.747589
0.842590 0.807831 0.756714
1.000000 0.777649 0.765320
