3d-lut/luts/Hyla 68.CUBE
#Created by: Adobe Photoshop Export Color Lookup Plugin
#Copyright: (C) Copyright 2017 RocketStock
TITLE "Untitled"
#LUT size
LUT_3D_SIZE 8
#data domain
#LUT data points
DOMAIN_MIN 0.000000 0.000000 0.000000
DOMAIN_MAX 0.903226 0.903226 0.903226
0.002533 0.072266 0.001617
0.069336 0.056274 0.001617
0.144043 0.038391 0.001617
0.237732 0.015991 0.001617
0.359985 0.000000 0.001617
0.497925 0.000000 0.001617
0.634552 0.000000 0.001617
0.754486 0.000000 0.001617
0.004608 0.145264 0.001617
0.071411 0.129272 0.001617
0.146118 0.111420 0.001617
0.239807 0.088989 0.001617
0.362061 0.059753 0.001617
0.500000 0.026733 0.001617
0.636627 0.000000 0.001617
0.756561 0.000000 0.001617
0.007141 0.234924 0.001617
0.073944 0.218933 0.001617
0.148651 0.201050 0.001617
0.242340 0.178650 0.001617
0.364594 0.149384 0.001617
0.502533 0.116394 0.001617
0.639160 0.083710 0.001617
0.763641 0.057251 0.002197
0.010498 0.352814 0.001617
0.077301 0.336823 0.001617
0.152008 0.318939 0.001617
0.245697 0.296539 0.001617
0.367950 0.267273 0.001617
0.511200 0.236786 0.002136
0.665344 0.213989 0.004059
0.799561 0.199768 0.006256
0.014435 0.490692 0.001617
0.081238 0.474701 0.001617
0.155945 0.456848 0.001617
0.253357 0.437225 0.002106
0.395020 0.418060 0.003967
0.557587 0.397705 0.006195
0.715179 0.381927 0.008698
0.845612 0.374969 0.011536
0.018402 0.630371 0.001617
0.087341 0.616974 0.002075
0.174011 0.610260 0.003906
0.292023 0.599548 0.006134
0.449554 0.581909 0.008606
0.619019 0.563263 0.011475
0.771576 0.549469 0.014526
0.894562 0.542603 0.017761
0.032776 0.767578 0.003845
0.112549 0.763000 0.006042
0.210388 0.756104 0.008545
0.347168 0.741394 0.011353
0.516388 0.719635 0.014404
0.685608 0.698090 0.017670
0.826569 0.682922 0.021057
0.940887 0.673492 0.024536
0.059937 0.890045 0.008484
0.146667 0.884552 0.011261
0.258789 0.873962 0.014313
0.413879 0.853424 0.017578
0.587585 0.828156 0.020935
0.748169 0.805603 0.024445
0.876007 0.789978 0.027954
0.981445 0.778534 0.031525
0.002533 0.071045 0.064240
0.069336 0.055054 0.064240
0.144043 0.037170 0.064240
0.237732 0.014771 0.064240
0.359985 0.000000 0.064240
0.497925 0.000000 0.064240
0.634552 0.000000 0.064240
0.754486 0.000000 0.064240
0.004608 0.144043 0.064240
0.071411 0.128052 0.064240
0.146118 0.110168 0.064240
0.239807 0.087769 0.064240
0.362061 0.058502 0.064240
0.500000 0.025513 0.064240
0.636627 0.000000 0.064240
0.756561 0.000000 0.064240
0.007141 0.233704 0.064240
0.073944 0.217712 0.064240
0.148651 0.199829 0.064240
0.242340 0.177429 0.064240
0.364594 0.148163 0.064240
0.502533 0.115173 0.064240
0.639160 0.082458 0.064240
0.768646 0.058533 0.065552
0.010498 0.351562 0.064240
0.077301 0.335602 0.064240
0.152008 0.317719 0.064240
0.245697 0.295319 0.064240
0.367950 0.266052 0.064240
0.517517 0.238678 0.065521
0.672913 0.217072 0.067566
0.806885 0.204285 0.070099
0.014435 0.489471 0.064240
0.081238 0.473480 0.064240
0.155945 0.455627 0.064240
0.258362 0.439667 0.065399
0.403107 0.421265 0.067535
0.567352 0.401794 0.070007
0.724701 0.387115 0.072876
0.853973 0.381042 0.075989
0.018402 0.629150 0.064240
0.090546 0.619598 0.065369
0.179108 0.613770 0.067444
0.300476 0.603394 0.069946
0.460846 0.585907 0.072784
0.630646 0.567444 0.075897
0.781464 0.554138 0.079315
0.902893 0.547607 0.082886
0.036621 0.770447 0.067383
0.117706 0.766388 0.069855
0.217896 0.759583 0.072662
0.358337 0.744324 0.075806
0.528961 0.722290 0.079224
0.697266 0.700897 0.082764
0.835785 0.686127 0.086517
0.948456 0.676666 0.090363
0.065277 0.893036 0.072540
0.153564 0.887665 0.075714
0.268555 0.876373 0.079071
0.426575 0.855103 0.082672
0.600250 0.829742 0.086426
0.758453 0.807465 0.090271
0.883881 0.792023 0.094238
0.987762 0.780457 0.098206
0.002533 0.069672 0.134521
0.069336 0.053680 0.134521
0.144043 0.035797 0.134521
0.237732 0.013397 0.134521
0.359985 0.000000 0.134521
0.497925 0.000000 0.134521
0.634552 0.000000 0.134521
0.754486 0.000000 0.134521
0.004608 0.142670 0.134521
0.071411 0.126678 0.134521
0.146118 0.108795 0.134521
0.239807 0.086395 0.134521
0.362061 0.057159 0.134521
0.500000 0.024139 0.134521
0.636627 0.000000 0.134521
0.756561 0.000000 0.134521
0.007141 0.232330 0.134521
0.073944 0.216339 0.134521
0.148651 0.198456 0.134521
0.242340 0.176056 0.134521
0.364594 0.146790 0.134521
0.502533 0.113800 0.134521
0.640656 0.081665 0.134766
0.774231 0.059937 0.136993
0.010498 0.350189 0.134521
0.077301 0.334229 0.134521
0.152008 0.316345 0.134521
0.245697 0.293945 0.134521
0.368958 0.265259 0.134705
0.524658 0.240845 0.136932
0.681091 0.220398 0.139618
0.814606 0.209076 0.142792
0.014435 0.488098 0.134521
0.081238 0.472107 0.134521
0.156311 0.454651 0.134644
0.264099 0.442352 0.136780
0.411865 0.424622 0.139526
0.577637 0.406036 0.142670
0.734375 0.392273 0.146240
0.862396 0.387177 0.150177
0.018463 0.627838 0.134552
0.094177 0.622650 0.136719
0.184814 0.617645 0.139435
0.309509 0.607269 0.142578
0.472321 0.589813 0.146149
0.642487 0.571472 0.150055
0.791321 0.558685 0.154297
0.911163 0.552246 0.158783
0.040894 0.773376 0.139313
0.123230 0.769806 0.142487
0.225891 0.762756 0.145996
0.369904 0.747009 0.149933
0.541870 0.724792 0.154175
0.708710 0.703522 0.158661
0.844971 0.689087 0.163330
0.955811 0.679474 0.168213
0.070862 0.895935 0.145905
0.160614 0.890472 0.149780
0.278778 0.878540 0.154022
0.439362 0.856537 0.158478
0.612823 0.831055 0.163147
0.768372 0.809052 0.168091
0.891510 0.793701 0.172943
0.993744 0.781982 0.177917
0.002533 0.067932 0.222961
0.069336 0.051971 0.222961
0.144043 0.034088 0.222961
0.237732 0.011658 0.222961
0.359985 0.000000 0.222961
0.497925 0.000000 0.222961
0.634552 0.000000 0.222961
0.754486 0.000000 0.222961
0.004608 0.140930 0.222961
0.071411 0.124969 0.222961
0.146118 0.107086 0.222961
0.239807 0.084656 0.222961
0.362061 0.055420 0.222961
0.500000 0.022400 0.222961
0.636627 0.000000 0.222961
0.756561 0.000000 0.222961
0.007141 0.230591 0.222961
0.073944 0.214600 0.222961
0.148651 0.196747 0.222961
0.242340 0.174316 0.222961
0.364594 0.145081 0.222961
0.502533 0.112061 0.222961
0.646118 0.081940 0.224213
0.780243 0.061371 0.227417
0.010498 0.348480 0.222961
0.077301 0.332489 0.222961
0.152008 0.314606 0.222961
0.245697 0.292206 0.222961
0.374603 0.266357 0.224121
0.532562 0.243042 0.227295
0.689575 0.223755 0.231110
0.822388 0.213654 0.235535
0.014435 0.486389 0.222961
0.081238 0.470398 0.222961
0.159821 0.456512 0.224030
0.270416 0.445160 0.227173
0.421295 0.428009 0.230988
0.588593 0.410187 0.235382
0.744171 0.397339 0.240295
0.871033 0.393066 0.245758
0.021240 0.629700 0.223969
0.098145 0.625610 0.227020
0.190857 0.621246 0.230835
0.319061 0.610840 0.235260
0.484192 0.593323 0.240173
0.654297 0.575134 0.245544
0.801056 0.562683 0.251373
0.919250 0.556335 0.257446
0.045349 0.776184 0.230682
0.129028 0.772888 0.235107
0.234467 0.765808 0.240021
0.381805 0.749207 0.245361
0.554749 0.726715 0.251160
0.719971 0.705719 0.257202
0.853760 0.691406 0.263550
0.963013 0.681702 0.270050
0.076599 0.898499 0.239838
0.167969 0.892853 0.245209
0.289368 0.880157 0.250946
0.452209 0.857483 0.257050
0.625153 0.831818 0.263336
0.777954 0.810150 0.269806
0.898895 0.794861 0.276428
0.999420 0.782776 0.282928
0.002533 0.065674 0.338379
0.069336 0.049713 0.338379
0.144043 0.031830 0.338379
0.237732 0.009399 0.338379
0.359985 0.000000 0.338379
0.497925 0.000000 0.338379
0.634552 0.000000 0.338379
0.754486 0.000000 0.338379
0.004608 0.138672 0.338379
0.071411 0.122711 0.338379
0.146118 0.104828 0.338379
0.239807 0.082428 0.338379
0.362061 0.053162 0.338379
0.500000 0.020172 0.338379
0.636627 0.000000 0.338379
0.756561 0.000000 0.338379
0.007141 0.228333 0.338379
0.073944 0.212341 0.338379
0.148651 0.194489 0.338379
0.242340 0.172058 0.338379
0.364594 0.142822 0.338379
0.502533 0.109802 0.338379
0.652313 0.081970 0.341309
0.786621 0.062714 0.345490
0.010498 0.346222 0.338379
0.077301 0.330231 0.338379
0.152008 0.312378 0.338379
0.245697 0.289948 0.338379
0.380981 0.267334 0.341156
0.541016 0.245026 0.345337
0.698425 0.226898 0.350250
0.830475 0.218079 0.355896
0.014435 0.484131 0.338379
0.081238 0.468140 0.338379
0.163818 0.458374 0.341003
0.277527 0.447754 0.345215
0.431274 0.431061 0.350098
0.599579 0.413940 0.355682
0.754150 0.401978 0.361816
0.879456 0.398376 0.368500
0.024445 0.631500 0.340881
0.102509 0.628510 0.345001
0.197388 0.624634 0.349915
0.329193 0.614014 0.355499
0.496338 0.596252 0.361633
0.666229 0.578217 0.368195
0.810760 0.566162 0.375153
0.927429 0.559845 0.382416
0.050232 0.778778 0.349762
0.135132 0.775635 0.355286
0.243378 0.768127 0.361389
0.394073 0.750793 0.367981
0.567627 0.728119 0.374908
0.730988 0.707245 0.382141
0.862335 0.693146 0.389557
0.969940 0.683319 0.397064
0.082520 0.900543 0.361176
0.175537 0.894623 0.367737
0.300232 0.881226 0.374695
0.465088 0.857910 0.381958
0.637421 0.832092 0.389343
0.787201 0.810669 0.396790
0.905823 0.795349 0.404236
1.000000 0.782990 0.411499
0.002533 0.063141 0.468506
0.069336 0.047150 0.468506
0.144043 0.029297 0.468506
0.237732 0.006866 0.468506
0.359985 0.000000 0.468506
0.497925 0.000000 0.468506
0.634552 0.000000 0.468506
0.754486 0.000000 0.468506
0.004608 0.136139 0.468506
0.071411 0.120148 0.468506
0.146118 0.102295 0.468506
0.239807 0.079865 0.468506
0.362061 0.050629 0.468506
0.500000 0.017609 0.468506
0.636627 0.000000 0.468506
0.759399 0.000000 0.469299
0.007141 0.225800 0.468506
0.073944 0.209808 0.468506
0.148651 0.191925 0.468506
0.242340 0.169525 0.468506
0.364594 0.140259 0.468506
0.505615 0.108246 0.469177
0.659271 0.082184 0.473083
0.793427 0.064026 0.477661
0.010498 0.343689 0.468506
0.077301 0.327698 0.468506
0.152008 0.309814 0.468506
0.247803 0.288788 0.469086
0.388123 0.268433 0.472870
0.550110 0.247101 0.477570
0.707703 0.230072 0.482788
0.838654 0.222504 0.488739
0.014435 0.481567 0.468506
0.082336 0.467041 0.468964
0.168304 0.460327 0.472778
0.285156 0.450378 0.477386
0.441742 0.434174 0.482635
0.610992 0.417603 0.488556
0.764038 0.406555 0.494904
0.887878 0.403534 0.501678
0.027924 0.633423 0.472656
0.107239 0.631348 0.477173
0.204376 0.627899 0.482452
0.339966 0.617035 0.488342
0.508820 0.599091 0.494659
0.678284 0.581177 0.501434
0.820251 0.569336 0.508423
0.935272 0.563049 0.515686
0.055328 0.781097 0.482269
0.141510 0.778137 0.488129
0.252625 0.770233 0.494507
0.406525 0.752197 0.501160
0.580414 0.729309 0.508148
0.741699 0.708588 0.515320
0.870697 0.694580 0.522736
0.976746 0.684662 0.529968
0.088745 0.902588 0.494263
0.183350 0.896240 0.500916
0.311462 0.881989 0.507935
0.477783 0.858032 0.515167
0.649170 0.832184 0.522491
0.795959 0.810944 0.529724
0.912384 0.795624 0.536957
1.000000 0.782959 0.543884
0.002533 0.060669 0.595337
0.069336 0.044678 0.595337
0.144043 0.026794 0.595337
0.237732 0.004395 0.595337
0.359985 0.000000 0.595337
0.497925 0.000000 0.595337
0.634552 0.000000 0.595337
0.754486 0.000000 0.595337
0.004608 0.133667 0.595337
0.071411 0.117676 0.595337
0.146118 0.099823 0.595337
0.239807 0.077393 0.595337
0.362061 0.048157 0.595337
0.500000 0.015137 0.595337
0.636627 0.000000 0.595337
0.764130 0.000000 0.597290
0.007141 0.223328 0.595337
0.073944 0.207336 0.595337
0.148651 0.189453 0.595337
0.242340 0.167053 0.595337
0.364594 0.137787 0.595337
0.511688 0.107819 0.597168
0.666626 0.082642 0.601013
0.800598 0.065796 0.605560
0.010498 0.341217 0.595337
0.077301 0.325226 0.595337
0.152008 0.307343 0.595337
0.252533 0.289551 0.597046
0.395966 0.269958 0.600830
0.559753 0.249542 0.605377
0.717224 0.233917 0.610474
0.846924 0.227295 0.615997
0.014435 0.479095 0.595337
0.085419 0.468384 0.596985
0.173218 0.462799 0.600739
0.293396 0.453461 0.605255
0.452698 0.437561 0.610229
0.622650 0.421661 0.615784
0.774017 0.411438 0.621735
0.896301 0.408844 0.627960
0.031708 0.635834 0.600616
0.112427 0.634766 0.605072
0.211853 0.631317 0.610107
0.351013 0.620148 0.615662
0.521240 0.601959 0.621521
0.690033 0.584198 0.627747
0.829590 0.572632 0.634094
0.942963 0.566223 0.640533
0.060547 0.783752 0.609924
0.148224 0.780884 0.615448
0.262360 0.772308 0.621338
0.419159 0.753601 0.627533
0.593201 0.730469 0.633881
0.752289 0.710052 0.640320
0.878662 0.696106 0.646698
0.983185 0.686035 0.653076
0.095032 0.904633 0.621124
0.191376 0.897919 0.627289
0.322845 0.882751 0.633667
0.490448 0.858246 0.640106
0.660553 0.832336 0.646515
0.804352 0.811340 0.652924
0.918549 0.795959 0.659027
1.000000 0.780609 0.664917
0.002533 0.058502 0.706024
0.069336 0.042511 0.706024
0.144043 0.024658 0.706024
0.237732 0.002228 0.706024
0.359985 0.000000 0.706024
0.497925 0.000000 0.706024
0.634552 0.000000 0.706024
0.754486 0.000000 0.706024
0.004608 0.131500 0.706024
0.071411 0.115509 0.706024
0.146118 0.097656 0.706024
0.239807 0.075226 0.706024
0.362061 0.045990 0.706024
0.500000 0.012970 0.706024
0.636627 0.000000 0.706024
0.769531 0.000000 0.708771
0.007141 0.221161 0.706024
0.073944 0.205170 0.706024
0.148651 0.187286 0.706024
0.242340 0.164886 0.706024
0.364594 0.135620 0.706024
0.518524 0.107971 0.708679
0.674530 0.083832 0.712036
0.808044 0.068268 0.715942
0.010498 0.339050 0.706024
0.077301 0.323059 0.706024
0.152008 0.305176 0.706024
0.257996 0.291016 0.708588
0.404663 0.272369 0.711945
0.569855 0.252655 0.715790
0.726868 0.238190 0.720184
0.855347 0.232635 0.724823
0.014435 0.476929 0.706024
0.088837 0.470581 0.708466
0.178680 0.466034 0.711792
0.302277 0.457031 0.715668
0.464355 0.441650 0.720062
0.634460 0.426178 0.724670
0.784088 0.416840 0.729706
0.904633 0.414459 0.734833
0.035828 0.639069 0.711670
0.117828 0.638611 0.715546
0.219696 0.635284 0.719849
0.362518 0.623505 0.724548
0.533997 0.605103 0.729492
0.701691 0.587494 0.734680
0.838715 0.576111 0.739960
0.950470 0.569641 0.745300
0.066101 0.786865 0.719727
0.155212 0.783905 0.724365
0.272430 0.774811 0.729340
0.432251 0.755371 0.734497
0.605804 0.732025 0.739777
0.762421 0.711792 0.745117
0.886414 0.697968 0.750397
0.989349 0.687531 0.755646
0.101410 0.907074 0.729187
0.199646 0.899902 0.734344
0.334290 0.883789 0.739594
0.502838 0.858795 0.744904
0.671478 0.832855 0.750244
0.812469 0.812103 0.755493
0.924377 0.796478 0.760468
1.000000 0.777649 0.765320
