3d-lut/luts/Korben 214.CUBE
#Created by: Adobe Photoshop Export Color Lookup Plugin
#Copyright: (C) Copyright 2017 RocketStock
TITLE "Untitled"
#LUT size
LUT_3D_SIZE 32
#data domain
DOMAIN_MIN 0.0 0.0 0.0
DOMAIN_MAX 1.0 1.0 1.0
#LUT data points
0.014618 0.006866 0.003937
0.036652 0.007141 0.003937
0.056396 0.007446 0.003937
0.076904 0.007751 0.003937
0.098450 0.008057 0.003937
0.121277 0.008453 0.003937
0.145782 0.008850 0.003937
0.172150 0.009247 0.003937
0.200897 0.009674 0.003937
0.232086 0.010132 0.003937
0.266113 0.010590 0.003937
0.302673 0.011017 0.003937
0.341156 0.011566 0.003937
0.381287 0.012115 0.003937
0.422424 0.012665 0.003937
0.464111 0.013184 0.003937
0.505859 0.013763 0.003937
0.547089 0.014343 0.003937
0.587280 0.015472 0.003937
0.626221 0.016602 0.003937
0.663239 0.017700 0.003937
0.698334 0.018921 0.003937
0.731354 0.020233 0.003937
0.762512 0.021484 0.003937
0.791992 0.022522 0.003937
0.820129 0.023254 0.003937
0.846893 0.023987 0.003937
0.872559 0.024811 0.003937
0.897339 0.025543 0.003937
0.921356 0.026398 0.003937
0.944763 0.027130 0.003937
0.967712 0.027985 0.003937
0.016663 0.028229 0.003937
0.038208 0.028564 0.003937
0.058014 0.028870 0.003937
0.078583 0.029236 0.003937
0.100250 0.029663 0.003937
0.123291 0.030060 0.003937
0.147949 0.030579 0.003937
0.174469 0.031067 0.003937
0.203369 0.031586 0.003937
0.234863 0.032043 0.003937
0.269012 0.032623 0.003937
0.305664 0.033142 0.003937
0.344299 0.033844 0.003937
0.384399 0.034424 0.003937
0.425568 0.035034 0.003937
0.467163 0.035645 0.003937
0.508820 0.036285 0.003937
0.549866 0.037048 0.003937
0.589905 0.037628 0.003937
0.628510 0.038422 0.003937
0.665405 0.039124 0.003937
0.700195 0.039764 0.003937
0.732971 0.040527 0.003937
0.763977 0.041199 0.003937
0.793304 0.042023 0.003937
0.821167 0.042847 0.003937
0.847839 0.043518 0.003937
0.873383 0.044281 0.003937
0.898010 0.045044 0.003937
0.921875 0.045868 0.003937
0.945160 0.046661 0.003937
0.967987 0.047394 0.003937
0.018921 0.047668 0.003937
0.039764 0.048279 0.003937
0.059784 0.048645 0.003937
0.080505 0.048950 0.003937
0.102264 0.049347 0.003937
0.125397 0.049805 0.003937
0.150238 0.050262 0.003937
0.177002 0.050781 0.003937
0.206055 0.051239 0.003937
0.237701 0.051849 0.003937
0.272034 0.052399 0.003937
0.308807 0.052948 0.003937
0.347595 0.053619 0.003937
0.387756 0.054260 0.003937
0.428772 0.054871 0.003937
0.470337 0.055542 0.003937
0.511810 0.056183 0.003937
0.552673 0.056915 0.003937
0.592590 0.057617 0.003937
0.630890 0.058258 0.003937
0.667542 0.058960 0.003937
0.702148 0.059723 0.003937
0.734680 0.060486 0.003937
0.765472 0.061249 0.003937
0.794586 0.061951 0.003937
0.822327 0.062744 0.003937
0.848755 0.063599 0.003937
0.874146 0.064301 0.003937
0.898682 0.065063 0.003937
0.922424 0.065857 0.003937
0.945587 0.066711 0.003937
0.968292 0.067474 0.003937
0.021637 0.067871 0.003937
0.041229 0.068451 0.003937
0.061554 0.069092 0.003937
0.082520 0.069489 0.003937
0.104370 0.069824 0.003937
0.127686 0.070221 0.003937
0.152679 0.070740 0.003937
0.179596 0.071228 0.003937
0.208893 0.071747 0.003937
0.240753 0.072296 0.003937
0.275330 0.072937 0.003937
0.312225 0.073517 0.003937
0.351044 0.074188 0.003937
0.391144 0.074799 0.003937
0.432251 0.075470 0.003937
0.473633 0.076172 0.003937
0.514954 0.076843 0.003937
0.555756 0.077576 0.003937
0.595245 0.078247 0.003937
0.633453 0.078979 0.003937
0.669800 0.079773 0.003937
0.704132 0.080536 0.003937
0.736481 0.081207 0.003937
0.767029 0.082001 0.003937
0.795929 0.082825 0.003937
0.823425 0.083527 0.003937
0.849731 0.084351 0.003937
0.875061 0.085114 0.003937
0.899353 0.085999 0.003937
0.922974 0.086792 0.003937
0.946075 0.087555 0.003937
0.968658 0.088318 0.003937
0.023193 0.088959 0.003937
0.042938 0.089600 0.003937
0.063293 0.090271 0.003937
0.084534 0.090942 0.003937
0.106720 0.091370 0.003937
0.130157 0.091766 0.003937
0.155304 0.092194 0.003937
0.182434 0.092651 0.003937
0.211914 0.093262 0.003937
0.243988 0.093842 0.003937
0.278687 0.094421 0.003937
0.315765 0.095093 0.003937
0.354645 0.095734 0.003937
0.394745 0.096405 0.003937
0.435760 0.097137 0.003937
0.477051 0.097748 0.003937
0.518280 0.098511 0.003937
0.558716 0.099182 0.003937
0.598083 0.100006 0.003937
0.635986 0.100769 0.003937
0.672089 0.101532 0.003937
0.706177 0.102203 0.003937
0.738220 0.102997 0.003937
0.768555 0.103821 0.003937
0.797272 0.104614 0.003937
0.824646 0.105377 0.003937
0.850800 0.106140 0.003937
0.875885 0.106995 0.003937
0.900116 0.107910 0.003937
0.923615 0.108643 0.003937
0.946564 0.109406 0.003937
0.969025 0.110229 0.003937
0.025055 0.111237 0.003937
0.044800 0.111969 0.003937
0.065155 0.112732 0.003937
0.086487 0.113434 0.003937
0.109009 0.114197 0.003937
0.132751 0.114624 0.003937
0.158051 0.115021 0.003937
0.185364 0.115509 0.003937
0.215027 0.116089 0.003937
0.247345 0.116669 0.003937
0.282288 0.117279 0.003937
0.319397 0.117950 0.003937
0.358246 0.118561 0.003937
0.398438 0.119324 0.003937
0.439362 0.120056 0.003937
0.480530 0.120697 0.003937
0.521484 0.121521 0.003937
0.561829 0.122223 0.003937
0.600952 0.123047 0.003937
0.638580 0.123871 0.003937
0.674438 0.124664 0.003937
0.708191 0.125397 0.003937
0.740051 0.126221 0.003937
0.770142 0.126953 0.003937
0.798706 0.127808 0.003937
0.825897 0.128601 0.003937
0.851837 0.129486 0.003937
0.876801 0.130249 0.003937
0.900909 0.131134 0.003937
0.924286 0.131958 0.003937
0.947052 0.132812 0.003937
0.969391 0.133698 0.003937
0.026947 0.135071 0.003937
0.046814 0.135834 0.003937
0.067230 0.136627 0.003937
0.088562 0.137451 0.003937
0.111176 0.138275 0.003937
0.135376 0.139130 0.003937
0.160980 0.139587 0.003937
0.188416 0.140015 0.003937
0.218414 0.140594 0.003937
0.250946 0.141174 0.003937
0.285980 0.141754 0.003937
0.323181 0.142456 0.003937
0.362152 0.143158 0.003937
0.402313 0.143829 0.003937
0.443085 0.144592 0.003937
0.484161 0.145386 0.003937
0.524963 0.146118 0.003937
0.565063 0.146851 0.003937
0.603912 0.147644 0.003937
0.641266 0.148468 0.003937
0.676819 0.149292 0.003937
0.710358 0.150116 0.003937
0.741943 0.150970 0.003937
0.771759 0.151886 0.003937
0.800171 0.152679 0.003937
0.827118 0.153473 0.003937
0.852966 0.154327 0.003937
0.877747 0.155060 0.003937
0.901733 0.155975 0.003937
0.924896 0.156860 0.003937
0.947601 0.157623 0.003937
0.969879 0.158508 0.003937
0.029144 0.160706 0.003937
0.048920 0.161499 0.003937
0.069366 0.162384 0.003937
0.090851 0.163269 0.003937
0.113525 0.164154 0.003937
0.137787 0.165070 0.003937
0.163971 0.166046 0.003937
0.191772 0.166534 0.003937
0.221863 0.167023 0.003937
0.254547 0.167603 0.003937
0.289825 0.168182 0.003937
0.327148 0.168945 0.003937
0.366119 0.169586 0.003937
0.406219 0.170258 0.003937
0.447021 0.171112 0.003937
0.487885 0.171814 0.003937
0.528564 0.172607 0.003937
0.568390 0.173462 0.003937
0.606903 0.174225 0.003937
0.643951 0.175171 0.003937
0.679230 0.175995 0.003937
0.712494 0.176819 0.003937
0.743866 0.177612 0.003937
0.773499 0.178497 0.003937
0.801605 0.179382 0.003937
0.828430 0.180328 0.003937
0.854034 0.181061 0.003937
0.878662 0.182037 0.003937
0.902496 0.182922 0.003937
0.925629 0.183746 0.003937
0.948181 0.184540 0.003937
0.970337 0.185394 0.003937
0.031281 0.188354 0.003937
0.051147 0.189301 0.003937
0.071655 0.190216 0.003937
0.093201 0.191193 0.003937
0.116028 0.192169 0.003937
0.140381 0.193176 0.003937
0.166595 0.194183 0.003937
0.195129 0.195251 0.003937
0.225433 0.195709 0.003937
0.258362 0.196289 0.003937
0.293793 0.196930 0.003937
0.331207 0.197601 0.003937
0.370209 0.198273 0.003937
0.410248 0.198975 0.003937
0.450897 0.199829 0.003937
0.491638 0.200653 0.003937
0.532013 0.201416 0.003937
0.571686 0.202240 0.003937
0.609955 0.203064 0.003937
0.646729 0.203949 0.003937
0.681763 0.204742 0.003937
0.714691 0.205719 0.003937
0.745819 0.206543 0.003937
0.775177 0.207397 0.003937
0.803131 0.208313 0.003937
0.829681 0.209229 0.003937
0.855225 0.210083 0.003937
0.879700 0.210876 0.003937
0.903381 0.211884 0.003937
0.926361 0.212555 0.003937
0.948822 0.213593 0.003937
0.970856 0.214417 0.003937
0.033661 0.218536 0.003937
0.053497 0.219482 0.003937
0.074097 0.220581 0.003937
0.095703 0.221588 0.003937
0.118591 0.222656 0.003937
0.143097 0.223755 0.003937
0.169464 0.224792 0.003937
0.198090 0.225952 0.003937
0.229218 0.227112 0.003937
0.262268 0.227539 0.003937
0.297913 0.228149 0.003937
0.335419 0.228821 0.003937
0.374359 0.229553 0.003937
0.414429 0.230316 0.003937
0.454895 0.231079 0.003937
0.495453 0.231873 0.003937
0.535706 0.232697 0.003937
0.574982 0.233521 0.003937
0.613068 0.234406 0.003937
0.649567 0.235321 0.003937
0.684265 0.236145 0.003937
0.716919 0.237091 0.003937
0.747772 0.237976 0.003937
0.776947 0.238922 0.003937
0.804657 0.239899 0.003937
0.831146 0.240753 0.003937
0.856384 0.241638 0.003937
0.880737 0.242584 0.003937
0.904266 0.243317 0.003937
0.927155 0.244049 0.003937
0.949493 0.244934 0.003937
0.971466 0.245972 0.003937
0.036072 0.251404 0.003937
0.056000 0.252441 0.003937
0.076660 0.253571 0.003937
0.098297 0.254639 0.003937
0.121307 0.255859 0.003937
0.145966 0.257019 0.003937
0.172394 0.258118 0.003937
0.201141 0.259399 0.003937
0.232422 0.260651 0.003937
0.266449 0.261688 0.003937
0.302094 0.262299 0.003937
0.339722 0.263062 0.003937
0.378662 0.263672 0.003937
0.418610 0.264435 0.003937
0.458923 0.265167 0.003937
0.499390 0.265900 0.003937
0.539429 0.266907 0.003937
0.578430 0.267639 0.003937
0.616272 0.268555 0.003937
0.652435 0.269409 0.003937
0.686798 0.270294 0.003937
0.719208 0.271149 0.003937
0.749786 0.272186 0.003937
0.778748 0.272980 0.003937
0.806213 0.273926 0.003937
0.832489 0.274658 0.003937
0.857605 0.275543 0.003937
0.881836 0.276520 0.003937
0.905212 0.277313 0.003937
0.927979 0.278107 0.003937
0.950226 0.278931 0.003937
0.972046 0.279877 0.003937
0.038666 0.286865 0.003937
0.058563 0.288055 0.003937
0.079285 0.289185 0.003937
0.100983 0.290405 0.003937
0.124176 0.291595 0.003937
0.148865 0.292816 0.003937
0.175446 0.294098 0.003937
0.204376 0.295380 0.003937
0.235870 0.296722 0.003937
0.269958 0.297943 0.003937
0.306488 0.299255 0.003937
0.344116 0.299805 0.003937
0.383057 0.300385 0.003937
0.422852 0.301086 0.003937
0.463165 0.301788 0.003937
0.503326 0.302673 0.003937
0.543152 0.303406 0.003937
0.581909 0.304169 0.003937
0.619446 0.304932 0.003937
0.655273 0.305939 0.003937
0.689362 0.306763 0.003937
0.721497 0.307678 0.003937
0.751831 0.308472 0.003937
0.780518 0.309265 0.003937
0.807861 0.310333 0.003937
0.833923 0.311157 0.003937
0.858887 0.312042 0.003937
0.882965 0.312866 0.003937
0.906219 0.313477 0.003937
0.928864 0.314301 0.003937
0.950958 0.315369 0.003937
0.972687 0.315887 0.003937
0.041229 0.324554 0.003937
0.061249 0.325745 0.003937
0.082031 0.326996 0.003937
0.103821 0.328247 0.003937
0.127014 0.329498 0.003937
0.151855 0.330841 0.003937
0.178650 0.332062 0.003937
0.207733 0.333405 0.003937
0.239349 0.334808 0.003937
0.273621 0.336090 0.003937
0.310242 0.337524 0.003937
0.348480 0.338593 0.003937
0.387451 0.339172 0.003937
0.427277 0.339783 0.003937
0.467346 0.340485 0.003937
0.507385 0.341278 0.003937
0.546936 0.341949 0.003937
0.585419 0.342743 0.003937
0.622711 0.343506 0.003937
0.658234 0.344482 0.003937
0.692017 0.345215 0.003937
0.723816 0.346039 0.003937
0.753876 0.346893 0.003937
0.782379 0.347473 0.003937
0.809479 0.348389 0.003937
0.835358 0.349274 0.003937
0.860199 0.350098 0.003937
0.884094 0.350739 0.003937
0.907257 0.351410 0.003937
0.929779 0.352203 0.003937
0.951782 0.353180 0.003937
0.973419 0.353851 0.003937
0.043945 0.363983 0.003937
0.063965 0.365204 0.003937
0.084808 0.366455 0.003937
0.106689 0.367737 0.003937
0.130005 0.369049 0.003937
0.154968 0.370392 0.003937
0.181885 0.371735 0.003937
0.211121 0.373016 0.003937
0.242859 0.374481 0.003937
0.277252 0.375763 0.003937
0.313965 0.377228 0.003937
0.352417 0.378601 0.003937
0.391998 0.379761 0.003937
0.431702 0.380341 0.003937
0.471680 0.380829 0.003937
0.511505 0.381561 0.003937
0.550781 0.382263 0.003937
0.588959 0.382874 0.003937
0.625946 0.383545 0.003937
0.661163 0.384338 0.003937
0.694641 0.385071 0.003937
0.726166 0.385834 0.003937
0.755951 0.386444 0.003937
0.784210 0.387146 0.003937
0.811157 0.388000 0.003937
0.836853 0.388794 0.003937
0.861542 0.389526 0.003937
0.885284 0.390289 0.003937
0.908325 0.390930 0.003937
0.930725 0.391693 0.003937
0.952698 0.392212 0.003937
0.974213 0.392670 0.003937
0.046661 0.404572 0.003937
0.066711 0.405823 0.003937
0.087616 0.407166 0.003937
0.109619 0.408417 0.003937
0.133057 0.409668 0.003937
0.158234 0.411041 0.003937
0.185272 0.412354 0.003937
0.214478 0.413727 0.003937
0.246460 0.415131 0.003937
0.281006 0.416504 0.003937
0.317841 0.417877 0.003937
0.356140 0.419342 0.003937
0.396057 0.420776 0.003937
0.436218 0.421906 0.003937
0.475983 0.422424 0.003937
0.515594 0.422913 0.003937
0.554626 0.423584 0.003937
0.592529 0.424042 0.003937
0.629150 0.424683 0.003937
0.664185 0.425232 0.003937
0.697296 0.425873 0.003937
0.728607 0.426575 0.003937
0.758118 0.427399 0.003937
0.786163 0.427765 0.003937
0.812897 0.428589 0.003937
0.838409 0.429291 0.003937
0.862885 0.429871 0.003937
0.886566 0.430420 0.003937
0.909424 0.431061 0.003937
0.931732 0.431641 0.003937
0.953583 0.432098 0.003937
0.975006 0.432617 0.003937
0.049469 0.445953 0.003937
0.069580 0.447174 0.003937
0.090546 0.448486 0.003937
0.112640 0.449707 0.003937
0.136169 0.450989 0.003937
0.161377 0.452301 0.003937
0.188629 0.453644 0.003937
0.218140 0.455017 0.003937
0.250153 0.456360 0.003937
0.284729 0.457733 0.003937
0.321503 0.459167 0.003937
0.359894 0.460571 0.003937
0.399597 0.461975 0.003937
0.440002 0.463440 0.003937
0.480286 0.464447 0.003937
0.519714 0.464874 0.003937
0.558533 0.465271 0.003937
0.596161 0.465820 0.003937
0.632568 0.466339 0.003937
0.667114 0.466797 0.003937
0.699951 0.467407 0.003937
0.731018 0.467926 0.003937
0.760254 0.468414 0.003937
0.788086 0.469086 0.003937
0.814606 0.469635 0.003937
0.839966 0.470062 0.003937
0.864349 0.470673 0.003937
0.887817 0.471222 0.003937
0.910553 0.471497 0.003937
0.932831 0.472076 0.003937
0.954498 0.472504 0.003937
0.975922 0.472839 0.003937
0.052307 0.487488 0.003937
0.072510 0.488708 0.003937
0.093475 0.489960 0.003937
0.115631 0.491211 0.003937
0.139313 0.492462 0.003937
0.164612 0.493774 0.003937
0.192017 0.495056 0.003937
0.221649 0.496368 0.003937
0.253906 0.497711 0.003937
0.288544 0.499023 0.003937
0.325317 0.500366 0.003937
0.363739 0.501740 0.003937
0.403198 0.503204 0.003937
0.443604 0.504608 0.003937
0.484039 0.505981 0.003937
0.523865 0.506866 0.003937
0.562469 0.507324 0.003937
0.599823 0.507599 0.003937
0.635803 0.508087 0.003937
0.670197 0.508423 0.003937
0.702667 0.508942 0.003937
0.733398 0.509399 0.003937
0.762482 0.509827 0.003937
0.790039 0.509979 0.003937
0.816437 0.510529 0.003937
0.841614 0.511078 0.003937
0.865784 0.511475 0.003937
0.889099 0.511719 0.003937
0.911774 0.512238 0.003937
0.933899 0.512634 0.003937
0.955597 0.512970 0.003937
0.976898 0.513306 0.003937
0.055237 0.528778 0.003937
0.075409 0.529968 0.003937
0.096466 0.531128 0.003937
0.118683 0.532288 0.003937
0.142487 0.533508 0.003937
0.167938 0.534760 0.003937
0.195404 0.535980 0.003937
0.225220 0.537292 0.003937
0.257599 0.538544 0.003937
0.292450 0.539856 0.003937
0.329224 0.541168 0.003937
0.367493 0.542480 0.003937
0.406891 0.543884 0.003937
0.447021 0.545258 0.003937
0.487427 0.546631 0.003937
0.527466 0.547974 0.003937
0.566376 0.548889 0.003937
0.603424 0.549042 0.003937
0.639160 0.549286 0.003937
0.673157 0.549530 0.003937
0.705414 0.549896 0.003937
0.735840 0.550049 0.003937
0.764648 0.550537 0.003937
0.792023 0.550781 0.003937
0.818146 0.551208 0.003937
0.843201 0.551300 0.003937
0.867249 0.551727 0.003937
0.890533 0.552002 0.003937
0.913055 0.552124 0.003937
0.935059 0.552338 0.003937
0.956635 0.552765 0.003937
0.977905 0.552856 0.003937
0.058105 0.569122 0.003937
0.078278 0.570312 0.003937
0.099457 0.571442 0.003937
0.121796 0.572571 0.003937
0.145691 0.573761 0.003937
0.171295 0.574860 0.003937
0.198822 0.576050 0.003937
0.228729 0.577301 0.003937
0.261353 0.578522 0.003937
0.296143 0.579773 0.003937
0.333008 0.580994 0.003937
0.371002 0.582245 0.003937
0.410370 0.583496 0.003937
0.450531 0.584869 0.003937
0.490479 0.586151 0.003937
0.530457 0.587494 0.003937
0.569763 0.588806 0.003937
0.607025 0.589478 0.003937
0.642456 0.589752 0.003937
0.676239 0.589935 0.003937
0.708099 0.590027 0.003937
0.738281 0.590149 0.003937
0.766876 0.590240 0.003937
0.794037 0.590393 0.003937
0.820038 0.590759 0.003937
0.844849 0.590881 0.003937
0.868835 0.591217 0.003937
0.891876 0.591339 0.003937
0.914368 0.591400 0.003937
0.936279 0.591431 0.003937
0.957794 0.591583 0.003937
0.979004 0.591736 0.003937
0.061035 0.608337 0.003937
0.081329 0.609406 0.003937
0.102417 0.610474 0.003937
0.124847 0.611511 0.003937
0.148804 0.612610 0.003937
0.174561 0.613708 0.003937
0.202393 0.614868 0.003937
0.232391 0.615997 0.003937
0.264923 0.617096 0.003937
0.299835 0.618286 0.003937
0.336639 0.619507 0.003937
0.374725 0.620575 0.003937
0.414062 0.621918 0.003937
0.453705 0.623108 0.003937
0.493744 0.624268 0.003937
0.533356 0.625641 0.003937
0.572205 0.626831 0.003937
0.610077 0.628113 0.003937
0.645782 0.628845 0.003937
0.679169 0.628845 0.003937
0.710876 0.628815 0.003937
0.740784 0.628815 0.003937
0.769104 0.628876 0.003937
0.796112 0.629059 0.003937
0.821838 0.628998 0.003937
0.846588 0.628998 0.003937
0.870392 0.629211 0.003937
0.893372 0.629303 0.003937
0.915741 0.629272 0.003937
0.937561 0.629425 0.003937
0.958984 0.629395 0.003937
0.980133 0.629211 0.003937
0.064026 0.645966 0.003937
0.084229 0.646881 0.003937
0.105438 0.647888 0.003937
0.127960 0.648895 0.003937
0.152008 0.649902 0.003937
0.177826 0.650940 0.003937
0.205627 0.651978 0.003937
0.235962 0.653015 0.003937
0.268677 0.654083 0.003937
0.303589 0.655151 0.003937
0.340240 0.656311 0.003937
0.378265 0.657440 0.003937
0.417328 0.658569 0.003937
0.456879 0.659668 0.003937
0.496643 0.660858 0.003937
0.536163 0.662079 0.003937
0.574615 0.663208 0.003937
0.612274 0.664429 0.003937
0.648468 0.665619 0.003937
0.682281 0.666138 0.003937
0.713593 0.666168 0.003937
0.743286 0.666077 0.003937
0.771393 0.665985 0.003937
0.798157 0.665833 0.003937
0.823792 0.665894 0.003937
0.848328 0.665985 0.003937
0.871979 0.665680 0.003937
0.894867 0.665710 0.003937
0.917145 0.665558 0.003937
0.938904 0.665558 0.003937
0.960327 0.665558 0.003937
0.981415 0.665436 0.003937
0.066895 0.681671 0.003937
0.087158 0.682556 0.003937
0.108490 0.683472 0.003937
0.131104 0.684418 0.003937
0.155121 0.685303 0.003937
0.181030 0.686249 0.003937
0.209045 0.687256 0.003937
0.239380 0.688171 0.003937
0.272217 0.689178 0.003937
0.307007 0.690186 0.003937
0.343842 0.691223 0.003937
0.381775 0.692230 0.003937
0.420654 0.693298 0.003937
0.460022 0.694305 0.003937
0.499542 0.695435 0.003937
0.538635 0.696503 0.003937
0.577209 0.697601 0.003937
0.614502 0.698761 0.003937
0.650299 0.699860 0.003937
0.684540 0.700989 0.003937
0.716339 0.701569 0.003937
0.745728 0.701263 0.003937
0.773682 0.701202 0.003937
0.800232 0.700989 0.003937
0.825653 0.700928 0.003937
0.850098 0.700775 0.003937
0.873596 0.700714 0.003937
0.896423 0.700470 0.003937
0.918610 0.700195 0.003937
0.940308 0.699982 0.003937
0.961609 0.699738 0.003937
0.982697 0.699677 0.003937
0.069794 0.715302 0.003937
0.090088 0.716125 0.003937
0.111450 0.716949 0.003937
0.134125 0.717804 0.003937
0.158264 0.718689 0.003937
0.184326 0.719513 0.003937
0.212433 0.720428 0.003937
0.242828 0.721313 0.003937
0.275635 0.722198 0.003937
0.310516 0.723175 0.003937
0.347076 0.724060 0.003937
0.385010 0.725037 0.003937
0.424042 0.726013 0.003937
0.462952 0.726990 0.003937
0.502472 0.728027 0.003937
0.541321 0.729004 0.003937
0.579376 0.730042 0.003937
0.616486 0.731079 0.003937
0.652252 0.732208 0.003937
0.686157 0.733215 0.003937
0.718475 0.734283 0.003937
0.748230 0.734711 0.003937
0.775940 0.734406 0.003937
0.802368 0.734192 0.003937
0.827606 0.733978 0.003937
0.851868 0.733856 0.003937
0.875366 0.733612 0.003937
0.898010 0.733246 0.003937
0.920197 0.733154 0.003937
0.941803 0.732819 0.003937
0.963318 0.732635 0.003937
0.987457 0.735260 0.003937
0.072540 0.746979 0.003937
0.092926 0.747772 0.003937
0.114380 0.748505 0.003937
0.136993 0.749298 0.003937
0.161346 0.750092 0.003937
0.187408 0.750885 0.003937
0.215698 0.751709 0.003937
0.246185 0.752563 0.003937
0.278961 0.753357 0.003937
0.313812 0.754272 0.003937
0.350464 0.755127 0.003937
0.388123 0.756012 0.003937
0.426880 0.756927 0.003937
0.466003 0.757843 0.003937
0.505096 0.758759 0.003937
0.543762 0.759705 0.003937
0.581604 0.760651 0.003937
0.618286 0.761658 0.003937
0.653870 0.762634 0.003937
0.687622 0.763611 0.003937
0.719482 0.764648 0.003937
0.749817 0.765717 0.003937
0.778198 0.766144 0.003937
0.804474 0.765839 0.003937
0.829529 0.765442 0.003937
0.853760 0.765167 0.003937
0.877075 0.764893 0.003937
0.899689 0.764587 0.003937
0.921936 0.764313 0.003937
0.946808 0.767303 0.003937
0.971558 0.770050 0.003937
0.996552 0.772583 0.003937
0.075409 0.776978 0.003937
0.095764 0.777679 0.003937
0.117188 0.778381 0.003937
0.139954 0.779083 0.003937
0.164337 0.779877 0.003937
0.190552 0.780640 0.003937
0.218811 0.781342 0.003937
0.249420 0.782135 0.003937
0.282288 0.782898 0.003937
0.317108 0.783752 0.003937
0.353455 0.784515 0.003937
0.391205 0.785309 0.003937
0.429749 0.786194 0.003937
0.468658 0.787079 0.003937
0.507477 0.787933 0.003937
0.545868 0.788879 0.003937
0.583527 0.789703 0.003937
0.620178 0.790680 0.003937
0.655426 0.791626 0.003937
0.688782 0.792542 0.003937
0.720764 0.793549 0.003937
0.750977 0.794525 0.003937
0.779572 0.795502 0.003937
0.806610 0.795929 0.003937
0.831635 0.795471 0.003937
0.855652 0.795197 0.003937
0.879028 0.794830 0.003937
0.904999 0.797882 0.003937
0.930786 0.801025 0.003937
0.956360 0.804291 0.003937
0.982513 0.807526 0.003937
1.000000 0.804688 0.013245
0.078156 0.805450 0.003937
0.098511 0.806061 0.003937
0.119843 0.806732 0.003937
0.142670 0.807404 0.003937
0.167236 0.808075 0.003937
0.193451 0.808777 0.003937
0.221741 0.809509 0.003937
0.252380 0.810211 0.003937
0.285370 0.810944 0.003937
0.320282 0.811707 0.003937
0.356476 0.812500 0.003937
0.393982 0.813293 0.003937
0.432434 0.814087 0.003937
0.470917 0.814880 0.003937
0.509613 0.815735 0.003937
0.548096 0.816589 0.003937
0.585297 0.817413 0.003937
0.621918 0.818298 0.003937
0.656708 0.819214 0.003937
0.690063 0.820129 0.003937
0.721802 0.821075 0.003937
0.751740 0.821960 0.003937
0.780457 0.822937 0.003937
0.807739 0.823944 0.003937
0.833618 0.824402 0.003937
0.861481 0.827698 0.003937
0.888702 0.831268 0.003937
0.915161 0.834747 0.003937
0.942108 0.838470 0.003937
0.966797 0.840424 0.007965
0.987518 0.839172 0.012451
1.000000 0.832550 0.023529
0.080750 0.832550 0.003937
0.101196 0.833160 0.003937
0.122620 0.833740 0.003937
0.145416 0.834381 0.003937
0.169922 0.835052 0.003937
0.196259 0.835663 0.003937
0.224670 0.836365 0.003937
0.255371 0.837036 0.003937
0.288208 0.837738 0.003937
0.323059 0.838470 0.003937
0.359161 0.839203 0.003937
0.396759 0.839935 0.003937
0.434753 0.840729 0.003937
0.473328 0.841522 0.003937
0.511719 0.842285 0.003937
0.549866 0.843109 0.003937
0.587036 0.843872 0.003937
0.623108 0.844818 0.003937
0.657837 0.845612 0.003937
0.691071 0.846497 0.003937
0.722473 0.847382 0.003937
0.752472 0.848328 0.003937
0.781006 0.849213 0.003937
0.812256 0.854004 0.003937
0.842834 0.859375 0.003937
0.872498 0.864746 0.003937
0.900604 0.869049 0.003937
0.923737 0.869171 0.009766
0.944977 0.867889 0.014252
0.965973 0.866699 0.018829
0.986664 0.865448 0.023651
1.000000 0.858978 0.034210
0.083282 0.858490 0.003937
0.103668 0.859100 0.003937
0.125244 0.859619 0.003937
0.148102 0.860291 0.003937
0.172607 0.860840 0.003937
0.198975 0.861511 0.003937
0.227386 0.862091 0.003937
0.258057 0.862793 0.003937
0.291016 0.863434 0.003937
0.325531 0.864166 0.003937
0.361847 0.864807 0.003937
0.398956 0.865570 0.003937
0.436920 0.866302 0.003937
0.475403 0.867035 0.003937
0.513672 0.867798 0.003937
0.551392 0.868561 0.003937
