3d-lut/luts/Korben 214.CUBE
#Created by: Adobe Photoshop Export Color Lookup Plugin
#Copyright: (C) Copyright 2017 RocketStock
TITLE "Untitled"
#LUT size
LUT_3D_SIZE 5
#data domain
#LUT data points
DOMAIN_MIN 0.000000 0.000000 0.000000
DOMAIN_MAX 0.903226 0.903226 0.903226
0.014618 0.006866 0.003937
0.172150 0.009247 0.003937
0.422424 0.012665 0.003937
0.698334 0.018921 0.003937
0.897339 0.025543 0.003937
0.029144 0.160706 0.003937
0.191772 0.166534 0.003937
0.447021 0.171112 0.003937
0.712494 0.176819 0.003937
0.902496 0.182922 0.003937
0.046661 0.404572 0.003937
0.214478 0.413727 0.003937
0.475983 0.422424 0.003937
0.728607 0.426575 0.003937
0.909424 0.431061 0.003937
0.066895 0.681671 0.003937
0.239380 0.688171 0.003937
0.499542 0.695435 0.003937
0.745728 0.701263 0.003937
0.918610 0.700195 0.003937
0.085724 0.883484 0.003937
0.260529 0.887573 0.003937
0.515259 0.892487 0.003937
0.764801 0.909790 0.003937
0.943237 0.916992 0.036774
0.017944 0.008514 0.142792
0.176941 0.009186 0.146210
0.431854 0.011627 0.144348
0.707214 0.018555 0.142395
0.904388 0.022888 0.140900
0.031342 0.163208 0.146545
0.195221 0.166809 0.143982
0.451538 0.171173 0.143311
0.716522 0.175842 0.142090
0.905151 0.180878 0.141235
0.040009 0.428497 0.141998
0.213165 0.430145 0.135345
0.495789 0.434845 0.134430
0.741089 0.426453 0.135376
0.914001 0.427307 0.139038
0.052063 0.714111 0.131775
0.229004 0.710938 0.128448
0.507568 0.714508 0.130585
0.762054 0.715027 0.131561
0.931458 0.703461 0.130493
0.065216 0.911224 0.125000
0.241058 0.907898 0.124237
0.509399 0.908386 0.127930
0.759674 0.908997 0.153381
0.933075 0.907074 0.195435
0.022003 0.010345 0.362061
0.177490 0.011108 0.368958
0.435699 0.014435 0.372742
0.709290 0.020660 0.369476
0.904816 0.025208 0.366577
0.035217 0.163147 0.368347
0.198303 0.170227 0.365875
0.455658 0.173248 0.370087
0.718170 0.178040 0.367493
0.905090 0.183136 0.365723
0.052917 0.411926 0.373535
0.220947 0.415771 0.370911
0.480194 0.420593 0.367401
0.727142 0.424835 0.368378
0.905670 0.428711 0.367981
0.066284 0.697632 0.373901
0.228668 0.703522 0.363007
0.494141 0.701477 0.356903
0.750244 0.701843 0.357330
0.917023 0.693207 0.365234
0.075012 0.903290 0.366425
0.236908 0.902039 0.352142
0.497284 0.898193 0.353149
0.746307 0.899109 0.394592
0.923401 0.897858 0.435791
0.025360 0.012299 0.636993
0.180481 0.014130 0.641754
0.436218 0.017090 0.650696
0.711487 0.022949 0.651489
0.905304 0.027527 0.648590
0.040924 0.166046 0.639404
0.203949 0.173706 0.639771
0.457001 0.176086 0.646790
0.720367 0.180786 0.649078
0.905548 0.185822 0.646698
0.056091 0.410919 0.650787
0.226807 0.415710 0.645447
0.481506 0.424835 0.643707
0.728394 0.426758 0.647888
0.905518 0.430420 0.646484
0.077118 0.686981 0.652802
0.249359 0.687653 0.650757
0.499542 0.688171 0.649353
0.735992 0.688782 0.647247
0.905792 0.693787 0.656830
0.091339 0.887299 0.654541
0.256348 0.889618 0.652802
0.498657 0.891785 0.653046
0.733276 0.889526 0.668488
0.914185 0.889008 0.686249
0.028717 0.014404 0.852844
0.185211 0.017731 0.854401
0.436462 0.021606 0.861389
0.711365 0.023865 0.866821
0.905762 0.029907 0.866241
0.045959 0.169800 0.853271
0.209808 0.177277 0.854370
0.460815 0.181396 0.857513
0.720337 0.181702 0.864594
0.905945 0.188507 0.864136
0.062286 0.410614 0.860016
0.235352 0.419830 0.855896
0.487488 0.429260 0.855988
0.727722 0.429871 0.860779
0.905853 0.432861 0.862427
0.079529 0.685608 0.866333
0.253479 0.685364 0.862549
0.504578 0.687042 0.859192
0.734985 0.691223 0.858276
0.905548 0.697144 0.864471
0.098236 0.882843 0.866486
0.270416 0.881348 0.864746
0.517975 0.881470 0.866364
0.737457 0.881378 0.869385
0.903839 0.880920 0.871185
