3d-lut/luts/Korben 214.CUBE
#Created by: Adobe Photoshop Export Color Lookup Plugin
#Copyright: (C) Copyright 2017 RocketStock
TITLE "Untitled"
#LUT size
LUT_3D_SIZE 8
#data domain
#LUT data points
DOMAIN_MIN 0.000000 0.000000 0.000000
DOMAIN_MAX 0.903226 0.903226 0.903226
0.014618 0.006866 0.003937
0.098450 0.008057 0.003937
0.200897 0.009674 0.003937
0.341156 0.011566 0.003937
0.505859 0.013763 0.003937
0.663239 0.017700 0.003937
0.791992 0.022522 0.003937
0.897339 0.025543 0.003937
0.023193 0.088959 0.003937
0.106720 0.091370 0.003937
0.211914 0.093262 0.003937
0.354645 0.095734 0.003937
0.518280 0.098511 0.003937
0.672089 0.101532 0.003937
0.797272 0.104614 0.003937
0.900116 0.107910 0.003937
0.031281 0.188354 0.003937
0.116028 0.192169 0.003937
0.225433 0.195709 0.003937
0.370209 0.198273 0.003937
0.532013 0.201416 0.003937
0.681763 0.204742 0.003937
0.803131 0.208313 0.003937
0.903381 0.211884 0.003937
0.041229 0.324554 0.003937
0.127014 0.329498 0.003937
0.239349 0.334808 0.003937
0.387451 0.339172 0.003937
0.546936 0.341949 0.003937
0.692017 0.345215 0.003937
0.809479 0.348389 0.003937
0.907257 0.351410 0.003937
0.052307 0.487488 0.003937
0.139313 0.492462 0.003937
0.253906 0.497711 0.003937
0.403198 0.503204 0.003937
0.562469 0.507324 0.003937
0.702667 0.508942 0.003937
0.816437 0.510529 0.003937
0.911774 0.512238 0.003937
0.064026 0.645966 0.003937
0.152008 0.649902 0.003937
0.268677 0.654083 0.003937
0.417328 0.658569 0.003937
0.574615 0.663208 0.003937
0.713593 0.666168 0.003937
0.823792 0.665894 0.003937
0.917145 0.665558 0.003937
0.075409 0.776978 0.003937
0.164337 0.779877 0.003937
0.282288 0.782898 0.003937
0.429749 0.786194 0.003937
0.583527 0.789703 0.003937
0.720764 0.793549 0.003937
0.831635 0.795471 0.003937
0.930786 0.801025 0.003937
0.085724 0.883484 0.003937
0.174957 0.885742 0.003937
0.293243 0.888214 0.003937
0.438782 0.890961 0.003937
0.589600 0.894012 0.003937
0.731262 0.904449 0.003937
0.851624 0.918945 0.014984
0.943237 0.916992 0.036774
0.016418 0.007782 0.078064
0.100586 0.007874 0.079620
0.204926 0.008881 0.078796
0.347900 0.010193 0.077942
0.514252 0.011963 0.077057
0.671570 0.015961 0.076172
0.799377 0.019379 0.075439
0.904144 0.021881 0.074677
0.024170 0.089935 0.079834
0.108185 0.091431 0.078674
0.214233 0.093170 0.078247
0.358948 0.095123 0.077484
0.523865 0.097321 0.076721
0.677765 0.099701 0.076050
0.802368 0.102295 0.075470
0.904785 0.104950 0.074951
0.026886 0.198425 0.077301
0.115845 0.199463 0.074188
0.236298 0.201599 0.073090
0.382690 0.198792 0.073486
0.542908 0.200165 0.074280
0.688171 0.203400 0.075592
0.806549 0.207184 0.076599
0.906342 0.210083 0.076385
0.032410 0.347382 0.071899
0.123291 0.347534 0.069885
0.246948 0.352325 0.070190
0.409302 0.354248 0.069092
0.570923 0.348541 0.067688
0.708984 0.345795 0.069336
0.821198 0.346191 0.070740
0.915039 0.348145 0.072449
0.040009 0.518829 0.067078
0.131866 0.519714 0.065948
0.256287 0.523804 0.066467
0.420044 0.527832 0.067169
0.588806 0.528564 0.066345
0.727814 0.521912 0.064270
0.835236 0.515625 0.065552
0.925873 0.511841 0.067444
0.048218 0.678741 0.062683
0.140869 0.679840 0.062592
0.265625 0.682404 0.063446
0.426880 0.684814 0.064453
0.594818 0.687225 0.065674
0.736298 0.686432 0.065430
0.846130 0.680939 0.062836
0.935089 0.673004 0.064331
0.056305 0.806793 0.059113
0.149414 0.807800 0.059937
0.273773 0.808960 0.061188
0.432098 0.810089 0.062561
0.595612 0.811127 0.064240
0.736786 0.812042 0.066132
0.848145 0.810760 0.066833
0.940125 0.807373 0.076141
0.064087 0.911743 0.056702
0.156464 0.912109 0.058136
0.279602 0.912415 0.059784
0.434601 0.912689 0.061707
0.594269 0.912903 0.063873
0.735718 0.913300 0.076843
0.844727 0.913147 0.097717
0.937378 0.911316 0.119934
0.018463 0.008789 0.167480
0.100861 0.008728 0.170593
0.206696 0.009705 0.171631
0.350098 0.011047 0.170441
0.516205 0.013702 0.169312
0.672882 0.017944 0.168182
0.800140 0.020660 0.167084
0.904419 0.023193 0.166046
0.026031 0.089874 0.170044
0.109253 0.092926 0.169189
0.216248 0.094025 0.170654
0.361053 0.096069 0.169464
0.525574 0.098236 0.168396
0.678650 0.100677 0.167419
0.802643 0.103210 0.166595
0.904602 0.105927 0.165802
0.034058 0.191620 0.172058
0.118439 0.193909 0.171021
0.229675 0.196136 0.168945
0.374329 0.198761 0.169128
0.536438 0.201447 0.168243
0.685455 0.204315 0.167542
0.805817 0.207275 0.166962
0.905304 0.210236 0.166595
0.039856 0.337830 0.171539
0.122498 0.343597 0.165863
0.242065 0.344574 0.163696
0.402466 0.346436 0.162140
0.559570 0.342346 0.162842
0.698883 0.343536 0.164886
0.812714 0.346344 0.166199
0.906677 0.350525 0.168884
0.044922 0.514526 0.166656
0.130402 0.513947 0.159821
0.251343 0.515259 0.158752
0.413239 0.519379 0.159515
0.581543 0.519989 0.158325
0.718872 0.513123 0.157257
0.825928 0.508972 0.160034
0.917084 0.507965 0.162384
0.050598 0.679443 0.159851
0.138519 0.673370 0.154572
0.260437 0.674622 0.154602
0.419830 0.677155 0.155762
0.587250 0.679504 0.157166
0.729523 0.678802 0.156677
0.839111 0.672607 0.153961
0.927063 0.665314 0.157135
0.058624 0.807068 0.154968
0.146149 0.801514 0.150269
0.268219 0.802460 0.151428
0.424561 0.803558 0.153046
0.587738 0.804596 0.154938
0.729767 0.805511 0.157104
0.842560 0.804749 0.160400
0.934204 0.801666 0.174133
0.065704 0.911224 0.151062
0.152679 0.906158 0.147400
0.273621 0.906494 0.149261
0.426453 0.906799 0.151428
0.587677 0.907166 0.156128
0.728455 0.907532 0.175049
0.838165 0.907501 0.200104
0.931641 0.905823 0.224579
0.020752 0.009827 0.288391
0.101898 0.010498 0.291260
0.207489 0.009857 0.297272
0.352417 0.011993 0.296875
0.518311 0.015503 0.295105
0.674225 0.019501 0.293518
0.800842 0.021973 0.291992
0.904694 0.024567 0.290680
0.028809 0.091125 0.290131
0.111572 0.094452 0.290466
0.217285 0.095093 0.294830
0.363708 0.097260 0.295319
0.527802 0.099548 0.293762
0.680145 0.102020 0.292358
0.803406 0.104614 0.291016
0.904846 0.107300 0.289886
0.035522 0.191437 0.296600
0.121277 0.193787 0.293579
0.230255 0.197845 0.293030
0.376648 0.199829 0.294159
0.538208 0.202515 0.292786
0.686310 0.205353 0.291687
0.805969 0.208252 0.290649
0.904999 0.211243 0.290039
0.046265 0.330841 0.297485
0.132172 0.333160 0.295959
0.242706 0.337433 0.294861
0.393158 0.338989 0.292114
0.549377 0.341827 0.293060
0.692871 0.344757 0.292328
0.808960 0.347443 0.291870
0.905579 0.350220 0.291626
0.054382 0.500397 0.298096
0.138428 0.505737 0.295166
0.248535 0.509399 0.287109
0.406494 0.510925 0.285858
0.574066 0.511505 0.283997
0.708740 0.505951 0.285858
0.817780 0.505554 0.288361
0.909332 0.507324 0.291779
0.060638 0.665894 0.295502
0.143524 0.670471 0.288574
0.256561 0.668213 0.280121
0.412811 0.669373 0.280243
0.579651 0.671753 0.281921
0.722656 0.670990 0.280884
0.830200 0.663818 0.280273
0.918427 0.658997 0.284760
0.065460 0.800537 0.289795
0.148438 0.801849 0.280792
0.263153 0.796387 0.274536
0.417084 0.796967 0.275879
0.579803 0.797974 0.278168
0.722595 0.798859 0.280762
0.836914 0.799133 0.290009
0.926605 0.795013 0.309387
0.070435 0.907837 0.283661
0.154327 0.905945 0.275757
0.267487 0.900696 0.270355
0.418396 0.900879 0.272858
0.581787 0.901428 0.284027
0.720245 0.901855 0.308472
0.831604 0.901947 0.336975
0.926086 0.900543 0.360718
0.023346 0.010895 0.440857
0.103821 0.012360 0.442474
0.207458 0.011963 0.448944
0.353546 0.012848 0.454071
0.520386 0.017456 0.453339
0.675690 0.020691 0.451385
0.801575 0.023193 0.449554
0.904938 0.025818 0.447815
0.031311 0.092743 0.441772
0.113953 0.096008 0.442932
0.218842 0.097260 0.446808
0.365234 0.097839 0.452393
0.530121 0.100861 0.451691
0.681580 0.103333 0.450073
0.804199 0.105957 0.448425
0.905121 0.108734 0.447021
0.038696 0.191528 0.448120
0.124908 0.195679 0.444763
0.233734 0.200317 0.445099
0.378662 0.200653 0.451080
0.540558 0.204071 0.450439
0.687744 0.206970 0.449005
0.806732 0.209869 0.447693
0.905243 0.212830 0.446655
0.047638 0.330841 0.454193
0.134155 0.333069 0.451752
0.247498 0.336090 0.448761
0.392548 0.340393 0.449066
0.550903 0.342865 0.449646
0.693604 0.345673 0.448547
0.809143 0.348389 0.447754
0.905304 0.351013 0.447083
0.059814 0.495178 0.454468
0.146973 0.496948 0.452942
0.261261 0.498779 0.451630
0.404266 0.503143 0.450287
0.563629 0.502991 0.447937
0.699463 0.504913 0.449738
0.811584 0.506561 0.449432
0.905609 0.507996 0.449341
0.070099 0.653564 0.454742
0.155548 0.657379 0.453979
0.266144 0.661804 0.450897
0.407623 0.663208 0.442474
0.571838 0.663879 0.442047
0.715637 0.663025 0.440460
0.821289 0.657074 0.443237
0.910339 0.655792 0.447815
0.075500 0.789429 0.455414
0.159576 0.791901 0.451691
0.268188 0.794525 0.444366
0.410950 0.791321 0.436096
0.571625 0.791290 0.436890
0.715393 0.792206 0.439362
0.830902 0.793457 0.453491
0.918701 0.789032 0.474396
0.079651 0.898743 0.452881
0.162109 0.900208 0.446747
0.269318 0.900757 0.437683
0.411377 0.895569 0.431244
0.574493 0.895752 0.446869
0.712280 0.896301 0.470215
0.825134 0.896545 0.494507
0.920715 0.895386 0.511475
0.024994 0.012054 0.599548
0.106201 0.014160 0.599823
0.208954 0.013794 0.605835
0.352844 0.014984 0.611786
0.521271 0.018921 0.614777
0.677094 0.021942 0.614105
0.802368 0.024506 0.612244
0.905212 0.027161 0.610596
0.033417 0.094269 0.600311
0.116455 0.097565 0.601257
0.222137 0.100159 0.602661
0.365326 0.099823 0.609589
0.531281 0.101562 0.613159
0.683105 0.104706 0.612457
0.804871 0.107361 0.610809
0.905396 0.110138 0.609436
0.041748 0.192902 0.604919
0.128143 0.197998 0.602112
0.237213 0.202454 0.603088
0.379761 0.204224 0.606720
0.541931 0.204987 0.611908
0.689209 0.208588 0.611298
0.807465 0.211517 0.609955
0.905487 0.214386 0.608734
0.050842 0.329590 0.610687
0.137970 0.333160 0.607880
0.252289 0.338501 0.604980
0.396423 0.344025 0.605377
0.552490 0.343872 0.611023
0.694946 0.347382 0.610474
0.809753 0.350098 0.609467
0.905548 0.352600 0.608612
0.061371 0.494934 0.615021
0.148651 0.496857 0.613464
0.263458 0.498413 0.611450
0.410278 0.500763 0.608643
0.562012 0.503998 0.609772
0.700012 0.505493 0.610321
0.811676 0.507080 0.609619
0.905365 0.508423 0.609222
0.073730 0.652008 0.615417
0.161957 0.652679 0.614014
0.277771 0.653320 0.612976
0.421448 0.653931 0.612061
0.568390 0.656555 0.611267
0.706024 0.655273 0.609589
0.813263 0.655670 0.611206
0.905670 0.658264 0.614288
0.084869 0.779419 0.614807
0.171783 0.780975 0.614777
0.283478 0.783997 0.614807
0.420898 0.785828 0.612152
0.565643 0.786224 0.605042
0.709900 0.786560 0.607452
0.824493 0.787811 0.618500
0.911102 0.784760 0.635498
0.089020 0.889557 0.617554
0.173950 0.890564 0.616119
0.283173 0.892120 0.613373
0.420380 0.893463 0.609955
0.568542 0.891815 0.614929
0.704376 0.890747 0.628967
0.818848 0.891235 0.644440
0.915497 0.890320 0.654053
0.026794 0.013184 0.738861
0.108368 0.015442 0.738983
0.211578 0.016266 0.742065
0.353546 0.017700 0.747772
0.520325 0.019989 0.752045
0.677521 0.022705 0.753479
0.803070 0.025848 0.752991
0.905457 0.028564 0.751282
0.035736 0.095795 0.739380
0.119049 0.099182 0.740051
0.225647 0.102417 0.740234
0.367157 0.102783 0.744995
0.530426 0.103302 0.749725
0.683502 0.105499 0.752106
0.805695 0.108795 0.751556
0.905579 0.111542 0.750305
0.045349 0.195099 0.741028
0.130981 0.200104 0.740631
0.240753 0.204712 0.741333
0.383148 0.207275 0.743378
0.541443 0.207520 0.748016
0.689728 0.209442 0.750977
0.808197 0.213074 0.750458
0.905762 0.216064 0.749298
0.054047 0.330261 0.746643
0.141754 0.335022 0.744263
0.256561 0.341370 0.742065
0.400238 0.346619 0.742889
0.552612 0.347412 0.746460
0.695557 0.348175 0.750000
0.810425 0.351654 0.749573
0.905731 0.354218 0.748627
0.064209 0.493134 0.750732
0.152252 0.495361 0.748840
0.268188 0.498138 0.746735
0.415497 0.503296 0.743988
0.564758 0.507507 0.744904
0.700439 0.505981 0.749451
0.812134 0.508270 0.749146
0.905548 0.509552 0.748444
0.075287 0.651398 0.753632
0.163452 0.652161 0.752350
0.279083 0.652740 0.751251
0.422913 0.653168 0.749725
0.573090 0.654144 0.747589
0.704163 0.655853 0.748383
0.813171 0.655792 0.749176
0.905640 0.660461 0.752197
0.087006 0.779755 0.753815
0.175690 0.779510 0.752777
0.291962 0.779205 0.752014
0.432892 0.778870 0.751160
0.577759 0.778412 0.750519
0.708893 0.781219 0.753571
0.816162 0.782593 0.758972
0.904846 0.784515 0.766663
0.096497 0.882721 0.753357
0.184998 0.881866 0.752625
0.298248 0.882599 0.752777
0.440369 0.884003 0.755554
0.578308 0.885986 0.761139
0.701538 0.887360 0.764618
0.812683 0.886017 0.768158
0.910309 0.885254 0.772522
0.028717 0.014404 0.852844
0.110565 0.016724 0.852905
0.214539 0.019043 0.854431
0.355438 0.021149 0.858612
0.519714 0.022278 0.862732
0.677063 0.022980 0.866821
0.803040 0.026550 0.866791
0.905762 0.029907 0.866241
0.037933 0.097412 0.853180
0.121643 0.100861 0.853699
0.228973 0.104218 0.853790
0.370178 0.104858 0.857361
0.530884 0.105713 0.860870
0.682465 0.106659 0.864349
0.805603 0.109589 0.865509
0.905914 0.113037 0.865051
0.048737 0.197540 0.853333
0.133881 0.202271 0.854034
0.244354 0.206879 0.854523
0.387634 0.211212 0.854614
0.542786 0.211365 0.858551
0.688446 0.211578 0.862366
0.808105 0.213898 0.864349
0.905975 0.217590 0.863739
0.057922 0.331970 0.857422
0.146210 0.337860 0.855347
0.260315 0.344025 0.854980
0.404022 0.349213 0.855438
0.555267 0.351776 0.857147
0.694489 0.351044 0.860931
0.810333 0.352325 0.863281
0.905945 0.355804 0.862793
0.067627 0.492371 0.861328
0.156006 0.495605 0.859772
0.273834 0.500183 0.856964
0.419037 0.505585 0.856049
0.567627 0.509827 0.856567
0.699860 0.510071 0.858917
0.811981 0.508575 0.862335
0.905670 0.510712 0.862000
0.077393 0.649719 0.865112
0.166504 0.650177 0.863068
0.283142 0.651093 0.861511
0.428223 0.652710 0.859009
0.577057 0.655945 0.857300
0.705688 0.658356 0.857910
0.813049 0.656738 0.861420
0.905823 0.663177 0.863434
0.088196 0.778961 0.866455
0.176758 0.778625 0.865326
0.292664 0.778412 0.864288
0.433014 0.778015 0.863281
0.579224 0.777466 0.861542
0.711914 0.780701 0.861816
0.814697 0.784302 0.864349
0.904633 0.785309 0.867920
0.098236 0.882843 0.866486
0.186707 0.882019 0.865509
0.302704 0.881165 0.864624
0.447937 0.881378 0.865509
0.585968 0.881500 0.867249
0.709839 0.881409 0.869080
0.813812 0.881165 0.870178
0.903839 0.880920 0.871185
