3d-lut/luts/Lenox 340.CUBE
#Created by: Adobe Photoshop Export Color Lookup Plugin
#Copyright: (C) Copyright 2017 RocketStock
TITLE "Untitled"
#LUT size
LUT_3D_SIZE 32
#data domain
DOMAIN_MIN 0.0 0.0 0.0
DOMAIN_MAX 1.0 1.0 1.0
#LUT data points
0.000000 0.002228 0.000000
0.001007 0.004028 0.000000
0.016998 0.006714 0.001007
0.034424 0.011475 0.007477
0.053986 0.016144 0.013245
0.076508 0.016846 0.014130
0.102509 0.017700 0.015106
0.132660 0.018768 0.016357
0.167572 0.020081 0.017883
0.207825 0.021729 0.019775
0.254059 0.023651 0.022003
0.305847 0.026031 0.024628
0.361755 0.028687 0.027710
0.420288 0.031586 0.031006
0.480225 0.034821 0.034607
0.540619 0.038147 0.038361
0.602173 0.041504 0.042114
0.662598 0.044891 0.045868
0.719849 0.048065 0.049438
0.771942 0.050964 0.052704
0.817261 0.053650 0.055664
0.855896 0.055908 0.058197
0.888397 0.057922 0.060455
0.915558 0.059662 0.062408
0.938293 0.061096 0.064026
0.957153 0.062469 0.065521
0.972992 0.063599 0.066803
0.986298 0.064636 0.067963
0.997681 0.065613 0.069061
1.000000 0.066467 0.070099
1.000000 0.067291 0.071014
1.000000 0.068115 0.071960
0.000000 0.021149 0.000702
0.001007 0.025055 0.006226
0.017059 0.030426 0.013000
0.034729 0.030945 0.013641
0.054382 0.031586 0.014404
0.076904 0.032318 0.015259
0.102936 0.033234 0.016357
0.133026 0.034332 0.017670
0.168030 0.035675 0.019257
0.208282 0.037323 0.021118
0.254547 0.039276 0.023407
0.306305 0.041656 0.026123
0.362183 0.044373 0.029266
0.420776 0.047333 0.032684
0.480652 0.050507 0.036346
0.541046 0.053833 0.040070
0.602570 0.057190 0.043884
0.662994 0.060455 0.047607
0.720215 0.063568 0.051147
0.772186 0.066498 0.054413
0.817505 0.069000 0.057343
0.856049 0.071320 0.059906
0.888550 0.073273 0.062134
0.915710 0.074860 0.063965
0.938385 0.076355 0.065643
0.957214 0.077606 0.067139
0.973053 0.078766 0.068451
0.986328 0.079865 0.069733
0.997711 0.080811 0.070770
1.000000 0.081665 0.071777
1.000000 0.082489 0.072784
1.000000 0.083252 0.073639
0.000000 0.045532 0.013000
0.001251 0.046021 0.013580
0.017456 0.046539 0.014191
0.035126 0.047089 0.014893
0.054779 0.047729 0.015656
0.077332 0.048492 0.016571
0.103363 0.049438 0.017700
0.133545 0.050537 0.019043
0.168518 0.051910 0.020691
0.208801 0.053619 0.022644
0.255035 0.055603 0.024963
0.306824 0.058014 0.027771
0.362671 0.060699 0.030945
0.421234 0.063690 0.034393
0.481140 0.066864 0.038147
0.541473 0.070129 0.041870
0.602997 0.073425 0.045685
0.663361 0.076752 0.049469
0.720520 0.079803 0.053009
0.772491 0.082581 0.056274
0.817749 0.085083 0.059174
0.856262 0.087250 0.061646
0.888702 0.089111 0.063812
0.915802 0.090759 0.065765
0.938477 0.092194 0.067413
0.957306 0.093445 0.068909
0.973114 0.094696 0.070282
0.986420 0.095703 0.071533
0.997742 0.096619 0.072601
1.000000 0.097443 0.073608
1.000000 0.098297 0.074585
1.000000 0.099121 0.075562
0.000000 0.063049 0.014313
0.001740 0.063538 0.014923
0.017975 0.064087 0.015533
0.035645 0.064667 0.016235
0.055328 0.065369 0.017090
0.077881 0.066132 0.018036
0.103943 0.067078 0.019257
0.134125 0.068268 0.020630
0.169098 0.069672 0.022308
0.209381 0.071350 0.024323
0.255646 0.073395 0.026794
0.307373 0.075745 0.029602
0.363251 0.078461 0.032806
0.421783 0.081451 0.036346
0.481659 0.084595 0.040070
0.541962 0.087860 0.043884
0.603424 0.091125 0.047699
0.663818 0.094299 0.051483
0.720917 0.097290 0.054962
0.772827 0.100037 0.058197
0.817993 0.102509 0.061096
0.856476 0.104523 0.063507
0.888885 0.106354 0.065643
0.915924 0.108002 0.067657
0.938568 0.109406 0.069336
0.957367 0.110718 0.070923
0.973175 0.111847 0.072266
0.986450 0.112885 0.073517
0.997772 0.113800 0.074585
1.000000 0.114655 0.075653
1.000000 0.115448 0.076599
1.000000 0.116241 0.077545
0.000000 0.082611 0.015808
0.002350 0.083130 0.016449
0.018585 0.083679 0.017120
0.036255 0.084351 0.017914
0.055969 0.084991 0.018768
0.078552 0.085846 0.019836
0.104584 0.086823 0.021027
0.134735 0.087982 0.022461
0.169739 0.089417 0.024231
0.210022 0.091156 0.026276
0.256287 0.093201 0.028809
0.308044 0.095581 0.031738
0.363922 0.098297 0.034973
0.422424 0.101227 0.038544
0.482208 0.104370 0.042267
0.542511 0.107605 0.046143
0.604004 0.110748 0.049957
0.664246 0.113861 0.053711
0.721344 0.116760 0.057190
0.773193 0.119446 0.060425
0.818268 0.121735 0.063171
0.856750 0.123749 0.065613
0.889069 0.125519 0.067780
0.916107 0.127136 0.069794
0.938721 0.128632 0.071564
0.957520 0.129852 0.073120
0.973236 0.131012 0.074493
0.986481 0.132050 0.075745
0.997803 0.132965 0.076874
1.000000 0.133759 0.077911
1.000000 0.134583 0.078857
1.000000 0.135345 0.079834
0.000000 0.105103 0.017700
0.003113 0.105621 0.018402
0.019348 0.106201 0.019104
0.036987 0.106812 0.019897
0.056732 0.107544 0.020844
0.079285 0.108398 0.021912
0.105377 0.109406 0.023132
0.135559 0.110626 0.024628
0.170532 0.112030 0.026489
0.210846 0.113739 0.028625
0.257141 0.115845 0.031219
0.308838 0.118225 0.034119
0.364685 0.120911 0.037476
0.423096 0.123840 0.041046
0.482910 0.126923 0.044891
0.543182 0.130035 0.048706
0.604614 0.133179 0.052521
0.664856 0.136169 0.056274
0.721832 0.138977 0.059692
0.773590 0.141479 0.062775
0.818634 0.143707 0.065552
0.856995 0.145691 0.068024
0.889282 0.147491 0.070282
0.916290 0.149109 0.072357
0.938843 0.150513 0.074097
0.957611 0.151764 0.075714
0.973328 0.152893 0.077118
0.986542 0.153870 0.078339
0.997833 0.154785 0.079437
1.000000 0.155609 0.080536
1.000000 0.156372 0.081451
1.000000 0.157166 0.082458
0.000000 0.131073 0.020020
0.004059 0.131653 0.020721
0.020294 0.132202 0.021484
0.037994 0.132843 0.022308
0.057739 0.133575 0.023285
0.080322 0.134430 0.024353
0.106384 0.135498 0.025696
0.136597 0.136719 0.027283
0.171600 0.138153 0.029175
0.211853 0.139862 0.031342
0.258118 0.141968 0.034027
0.309784 0.144318 0.037018
0.365601 0.147003 0.040405
0.424042 0.149841 0.044067
0.483734 0.152863 0.047882
0.543976 0.155884 0.051697
0.605347 0.158905 0.055481
0.665527 0.161804 0.059174
0.722412 0.164429 0.062531
0.774048 0.166779 0.065552
0.819031 0.169037 0.068420
0.857269 0.170990 0.070953
0.889557 0.172760 0.073303
0.916473 0.174377 0.075348
0.938995 0.175720 0.077118
0.957733 0.177002 0.078766
0.973419 0.178070 0.080139
0.986603 0.179016 0.081360
0.997864 0.179871 0.082489
1.000000 0.180725 0.083618
1.000000 0.181458 0.084534
1.000000 0.182190 0.085510
0.000000 0.161163 0.022858
0.005280 0.161713 0.023590
0.021545 0.162354 0.024384
0.039246 0.162964 0.025269
0.058929 0.163727 0.026276
0.081543 0.164581 0.027435
0.107666 0.165649 0.028839
0.137848 0.166870 0.030457
0.172821 0.168335 0.032440
0.213135 0.170074 0.034637
0.259308 0.172089 0.037354
0.311005 0.174469 0.040466
0.366699 0.177063 0.043884
0.425079 0.179840 0.047546
0.484741 0.182770 0.051392
0.544952 0.185638 0.055176
0.606232 0.188507 0.058899
0.666351 0.191223 0.062500
0.723083 0.193665 0.065796
0.774628 0.196045 0.068909
0.819489 0.198242 0.071838
0.857697 0.200165 0.074432
0.889832 0.201874 0.076752
0.916718 0.203430 0.078857
0.939209 0.204803 0.080627
0.957886 0.205963 0.082214
0.973511 0.207062 0.083710
0.986694 0.207977 0.084930
0.997925 0.208832 0.086090
1.000000 0.209595 0.087097
1.000000 0.210358 0.088104
1.000000 0.211029 0.088989
0.000000 0.196045 0.026337
0.006836 0.196594 0.027161
0.023132 0.197235 0.027985
0.040802 0.197876 0.028900
0.060516 0.198639 0.029968
0.083130 0.199554 0.031219
0.109253 0.200531 0.032623
0.139404 0.201782 0.034302
0.174377 0.203217 0.036255
0.214661 0.204956 0.038696
0.260834 0.206970 0.041351
0.312469 0.209229 0.044556
0.368134 0.211761 0.047974
0.426453 0.214417 0.051636
0.485962 0.217163 0.055389
0.546082 0.219910 0.059113
0.607300 0.222565 0.062775
0.667206 0.225067 0.066223
0.723846 0.227539 0.069672
0.775238 0.229828 0.072876
0.820038 0.231964 0.075897
0.858154 0.233856 0.078522
0.890228 0.235535 0.080902
0.917053 0.237030 0.082977
0.939423 0.238312 0.084778
0.958038 0.239502 0.086426
0.973663 0.240509 0.087799
0.986816 0.241394 0.089050
0.997986 0.242188 0.090179
1.000000 0.242950 0.091217
1.000000 0.243652 0.092194
1.000000 0.244324 0.093140
0.000000 0.236145 0.030640
0.008820 0.236694 0.031494
0.025055 0.237335 0.032349
0.042786 0.238007 0.033325
0.062531 0.238739 0.034393
0.085114 0.239655 0.035645
0.111176 0.240631 0.037109
0.141357 0.241852 0.038879
0.176331 0.243256 0.040955
0.216553 0.244965 0.043335
0.262665 0.246857 0.046082
0.314240 0.249023 0.049255
0.369812 0.251434 0.052704
0.428009 0.253937 0.056305
0.487427 0.256500 0.059998
0.547424 0.259033 0.063599
0.608459 0.261475 0.067230
0.668243 0.263947 0.070770
0.724731 0.266357 0.074310
0.776031 0.268585 0.077667
0.820679 0.270630 0.080627
0.858673 0.272461 0.083374
0.890656 0.274048 0.085693
0.917389 0.275482 0.087769
0.939697 0.276733 0.089630
0.958282 0.277832 0.091156
0.973816 0.278748 0.092560
0.986938 0.279572 0.093781
0.998138 0.280396 0.094910
1.000000 0.281067 0.095947
1.000000 0.281738 0.096832
1.000000 0.282349 0.097748
0.000000 0.282074 0.035858
0.011322 0.282623 0.036713
0.027588 0.283203 0.037628
0.045258 0.283875 0.038574
0.065002 0.284637 0.039764
0.087585 0.285461 0.041046
0.113647 0.286438 0.042542
0.143768 0.287598 0.044312
0.178680 0.288940 0.046326
0.218842 0.290527 0.048828
0.264893 0.292328 0.051575
0.316406 0.294434 0.054718
0.371857 0.296600 0.058105
0.429871 0.298889 0.061554
0.489105 0.301147 0.065063
0.548920 0.303528 0.068756
0.609802 0.305939 0.072510
0.669464 0.308350 0.076263
0.725830 0.310608 0.079865
0.776978 0.312744 0.083191
0.821442 0.314728 0.086212
0.859314 0.316406 0.088867
0.891205 0.317932 0.091217
0.917816 0.319244 0.093292
0.940063 0.320404 0.095032
0.958557 0.321442 0.096649
0.974030 0.322296 0.097961
0.987061 0.323090 0.099152
0.998230 0.323792 0.100220
1.000000 0.324432 0.101196
1.000000 0.325012 0.102081
1.000000 0.325592 0.102966
0.000000 0.333221 0.041931
0.014435 0.333740 0.042816
0.030670 0.334320 0.043762
0.048370 0.334930 0.044769
0.068024 0.335632 0.045929
0.090576 0.336426 0.047180
0.116608 0.337341 0.048767
0.146698 0.338440 0.050537
0.181549 0.339691 0.052582
0.221649 0.341125 0.054932
0.267548 0.342773 0.057709
0.318909 0.344635 0.060730
0.374176 0.346558 0.063904
0.431946 0.348633 0.067352
0.490997 0.350861 0.071045
0.550659 0.353088 0.074860
0.611450 0.355408 0.078766
0.670929 0.357635 0.082489
0.727142 0.359833 0.086182
0.778076 0.361816 0.089508
0.822418 0.363586 0.092468
0.860138 0.365173 0.095093
0.891846 0.366608 0.097382
0.918365 0.367767 0.099365
0.940491 0.368835 0.101044
0.958862 0.369720 0.102509
0.974274 0.370514 0.103790
0.987274 0.371246 0.104919
0.998352 0.371857 0.105957
1.000000 0.372437 0.106842
1.000000 0.372986 0.107697
1.000000 0.373474 0.108459
0.002533 0.387970 0.048706
0.018066 0.388428 0.049622
0.034302 0.388977 0.050537
0.051910 0.389526 0.051514
0.071625 0.390198 0.052704
0.094086 0.390900 0.053955
0.120087 0.391754 0.055481
0.150055 0.392731 0.057251
0.184845 0.393860 0.059204
0.224823 0.395111 0.061523
0.270538 0.396545 0.064087
0.321625 0.398193 0.067047
0.376648 0.399994 0.070404
0.434235 0.402008 0.073975
0.493073 0.404083 0.077850
0.552643 0.406189 0.081696
0.613312 0.408356 0.085632
0.672638 0.410400 0.089386
0.728607 0.412415 0.092926
0.779419 0.414246 0.096252
0.823517 0.415802 0.099121
0.861053 0.417267 0.101624
0.892609 0.418488 0.103790
0.919006 0.419556 0.105652
0.941010 0.420502 0.107208
0.959290 0.421234 0.108551
0.974579 0.421936 0.109711
0.987488 0.422577 0.110779
0.998505 0.423126 0.111664
1.000000 0.423615 0.112518
1.000000 0.424072 0.113281
1.000000 0.424500 0.113953
0.006622 0.444763 0.055786
0.022186 0.445221 0.056671
0.038330 0.445679 0.057617
0.055969 0.446198 0.058655
0.075562 0.446747 0.059692
0.098022 0.447388 0.061005
0.123901 0.448090 0.062408
0.153748 0.448914 0.064026
0.188324 0.449921 0.065979
0.228088 0.451050 0.068237
0.273621 0.452393 0.070953
0.324524 0.453949 0.074097
0.379395 0.455688 0.077545
0.436768 0.457520 0.081268
0.495392 0.459442 0.085114
0.554871 0.461395 0.089050
0.615417 0.463348 0.092865
0.674561 0.465179 0.096588
0.730377 0.466919 0.100006
0.780945 0.468536 0.103119
0.824860 0.469940 0.105804
0.862183 0.471191 0.108063
0.893524 0.472229 0.110046
0.919708 0.473145 0.111725
0.941589 0.473938 0.113159
0.959778 0.474609 0.114349
0.974945 0.475189 0.115387
0.987762 0.475677 0.116272
0.998688 0.476166 0.117096
1.000000 0.476562 0.117767
1.000000 0.476929 0.118408
1.000000 0.477295 0.119019
0.011169 0.502197 0.062988
0.026611 0.502563 0.063812
0.042725 0.502991 0.064667
0.060211 0.503387 0.065613
0.079712 0.503876 0.066711
0.102020 0.504456 0.067902
0.127777 0.505127 0.069427
0.157501 0.505890 0.071198
0.191925 0.506805 0.073242
0.231537 0.507904 0.075623
0.276978 0.509186 0.078461
0.327728 0.510620 0.081604
0.382324 0.512177 0.085114
0.439575 0.513855 0.088837
0.498016 0.515625 0.092682
0.557404 0.517395 0.096497
0.617798 0.519104 0.100159
0.676819 0.520782 0.103668
0.732391 0.522308 0.106873
0.782684 0.523651 0.109680
0.826355 0.524902 0.112152
0.863434 0.525940 0.114197
0.894623 0.526825 0.115906
0.920624 0.527588 0.117310
0.942291 0.528259 0.118500
0.960297 0.528809 0.119537
0.975342 0.529327 0.120453
0.988098 0.529724 0.121155
0.998932 0.530121 0.121826
1.000000 0.530487 0.122467
1.000000 0.530792 0.122986
1.000000 0.531128 0.123535
0.015625 0.560394 0.070160
0.031036 0.560760 0.071045
0.047028 0.561157 0.071960
0.064484 0.561554 0.073029
0.083893 0.562042 0.074097
0.106171 0.562592 0.075439
0.131775 0.563232 0.076965
0.161407 0.563965 0.078766
0.195770 0.564880 0.080902
0.235260 0.565857 0.083313
0.280548 0.567047 0.086121
0.331116 0.568390 0.089355
0.385651 0.569855 0.092773
0.442688 0.571381 0.096436
0.500946 0.572937 0.100037
0.560242 0.574554 0.103668
0.620514 0.576080 0.107117
0.679321 0.577484 0.110291
0.734650 0.578827 0.113129
0.784729 0.580017 0.115631
0.828094 0.581024 0.117706
0.864929 0.581879 0.119446
0.895874 0.582611 0.120880
0.921631 0.583282 0.122131
0.943115 0.583862 0.123138
0.960938 0.584320 0.124023
0.975891 0.584747 0.124786
0.988434 0.585144 0.125458
0.999176 0.585449 0.126007
1.000000 0.585754 0.126526
1.000000 0.586029 0.127045
1.000000 0.586304 0.127441
0.020233 0.619141 0.077728
0.035583 0.619507 0.078613
0.051514 0.619843 0.079529
0.068909 0.620209 0.080597
0.088257 0.620667 0.081696
0.110443 0.621155 0.083099
0.136017 0.621735 0.084625
0.165558 0.622437 0.086426
0.199829 0.623230 0.088531
0.239227 0.624146 0.090942
0.284363 0.625183 0.093750
0.334839 0.626373 0.096832
0.389191 0.627655 0.100159
0.446106 0.628998 0.103577
0.504150 0.630341 0.106964
0.563446 0.631714 0.110291
0.623566 0.632965 0.113342
0.682159 0.634125 0.116150
0.737244 0.635223 0.118530
0.787018 0.636200 0.120697
0.830109 0.637024 0.122437
0.866638 0.637756 0.123932
0.897308 0.638367 0.125214
0.922791 0.638947 0.126221
0.944031 0.639374 0.127167
0.961700 0.639801 0.127899
0.976440 0.640167 0.128601
0.988861 0.640503 0.129150
0.999451 0.640747 0.129700
1.000000 0.641022 0.130157
1.000000 0.641266 0.130646
1.000000 0.641479 0.131042
0.024902 0.675964 0.085144
0.040222 0.676270 0.086090
0.056152 0.676605 0.087067
0.073486 0.676910 0.088074
0.092804 0.677307 0.089203
0.114929 0.677734 0.090515
0.140472 0.678253 0.092072
0.169983 0.678864 0.093872
0.204132 0.679535 0.095886
0.243439 0.680298 0.098206
0.288483 0.681213 0.100891
0.338837 0.682220 0.103790
0.393036 0.683289 0.106873
0.449799 0.684387 0.109985
0.507721 0.685516 0.113098
0.566925 0.686584 0.115967
0.626953 0.687592 0.118561
0.685364 0.688538 0.120972
0.740234 0.689423 0.123047
0.789612 0.690186 0.124847
0.832336 0.690887 0.126404
0.868530 0.691467 0.127716
0.898804 0.692047 0.128845
0.924011 0.692474 0.129852
0.945007 0.692871 0.130646
0.962402 0.693176 0.131378
0.976959 0.693512 0.131989
0.989258 0.693756 0.132538
0.999725 0.694000 0.132996
1.000000 0.694214 0.133423
1.000000 0.694458 0.133911
1.000000 0.694641 0.134338
0.029755 0.728973 0.092255
0.045013 0.729248 0.093140
0.060913 0.729492 0.094055
0.078217 0.729767 0.095032
0.097534 0.730103 0.096222
0.119598 0.730469 0.097412
0.145050 0.730896 0.098907
0.174469 0.731384 0.100647
0.208588 0.731934 0.102539
0.247833 0.732605 0.104767
0.292847 0.733337 0.107239
0.343018 0.734131 0.109924
0.397125 0.735016 0.112732
0.453705 0.735870 0.115479
0.511505 0.736755 0.118164
0.570770 0.737579 0.120605
0.630676 0.738403 0.122833
0.688873 0.739166 0.124969
0.743317 0.739868 0.126801
0.792267 0.740479 0.128418
0.834595 0.741028 0.129852
0.870331 0.741547 0.131012
0.900299 0.741943 0.132080
0.925171 0.742340 0.132965
0.945923 0.742645 0.133789
0.963135 0.742950 0.134460
0.977509 0.743225 0.135071
0.989655 0.743439 0.135590
1.000000 0.743622 0.136108
1.000000 0.743835 0.136566
1.000000 0.744019 0.136963
1.000000 0.744171 0.137390
0.034576 0.776520 0.098633
0.049835 0.776703 0.099457
0.065735 0.776917 0.100372
0.082977 0.777161 0.101318
0.102295 0.777405 0.102386
0.124298 0.777740 0.103577
0.149750 0.778076 0.105011
0.179138 0.778473 0.106567
0.213196 0.778900 0.108337
0.252350 0.779419 0.110382
0.297241 0.779999 0.112671
0.347382 0.780640 0.115021
0.401367 0.781281 0.117493
0.457886 0.781952 0.119873
0.515625 0.782623 0.122192
0.574799 0.783264 0.124329
0.634491 0.783936 0.126373
0.692291 0.784546 0.128235
0.746307 0.785095 0.129944
0.794861 0.785583 0.131439
0.836700 0.786041 0.132751
0.872040 0.786438 0.133911
0.901611 0.786804 0.134949
0.926270 0.787109 0.135834
0.946747 0.787384 0.136627
0.963745 0.787628 0.137329
0.977966 0.787842 0.137939
0.989960 0.788025 0.138489
1.000000 0.788208 0.139008
1.000000 0.788361 0.139496
1.000000 0.788513 0.139954
1.000000 0.788666 0.140411
0.039307 0.817413 0.104065
0.054565 0.817566 0.104889
0.070435 0.817749 0.105743
0.087646 0.817932 0.106598
0.106964 0.818115 0.107666
0.128967 0.818359 0.108795
0.154388 0.818634 0.110046
0.183716 0.818939 0.111481
0.217712 0.819275 0.113129
0.256866 0.819672 0.114990
0.301666 0.820129 0.117004
0.351776 0.820587 0.119080
0.405762 0.821106 0.121246
0.462128 0.821625 0.123352
0.519684 0.822144 0.125427
0.578705 0.822662 0.127350
0.638123 0.823181 0.129211
0.695526 0.823639 0.130981
0.749084 0.824097 0.132568
0.797150 0.824493 0.134003
0.838562 0.824860 0.135345
0.873535 0.825226 0.136475
0.902832 0.825470 0.137512
0.927185 0.825745 0.138428
0.947449 0.825989 0.139282
0.964264 0.826172 0.140015
0.978363 0.826355 0.140686
0.990265 0.826538 0.141266
1.000000 0.826691 0.141815
1.000000 0.826813 0.142334
1.000000 0.826965 0.142792
1.000000 0.827057 0.143311
0.043854 0.851898 0.108643
0.059082 0.852020 0.109406
0.074951 0.852142 0.110199
0.092224 0.852295 0.111084
0.111450 0.852478 0.111938
0.133423 0.852631 0.112976
0.158813 0.852814 0.114197
0.188141 0.853058 0.115479
0.222107 0.853333 0.117004
0.261230 0.853638 0.118561
0.306091 0.853973 0.120361
0.356171 0.854340 0.122253
0.410034 0.854736 0.124207
0.466217 0.855133 0.126129
0.523499 0.855530 0.128021
0.582336 0.855927 0.129883
0.641449 0.856323 0.131592
0.698425 0.856720 0.133270
0.751526 0.857056 0.134827
0.799194 0.857391 0.136292
0.840179 0.857727 0.137604
0.874847 0.857971 0.138824
0.903809 0.858215 0.139862
0.927948 0.858429 0.140839
0.948090 0.858643 0.141754
0.964752 0.858795 0.142517
0.978699 0.858948 0.143250
0.990509 0.859070 0.143860
1.000000 0.859192 0.144501
1.000000 0.859344 0.145111
1.000000 0.859467 0.145752
1.000000 0.859589 0.146393
0.048218 0.880707 0.112457
0.063416 0.880798 0.113129
0.079254 0.880890 0.113861
0.096497 0.881012 0.114624
0.115692 0.881134 0.115448
0.137695 0.881256 0.116394
0.163116 0.881409 0.117493
0.192474 0.881592 0.118622
0.226471 0.881775 0.119965
0.265564 0.882019 0.121429
0.310333 0.882294 0.123047
0.360291 0.882568 0.124817
0.413971 0.882874 0.126587
0.469910 0.883179 0.128418
0.527008 0.883484 0.130188
0.585602 0.883820 0.131927
0.644379 0.884094 0.133606
0.700958 0.884399 0.135284
0.753662 0.884705 0.136841
0.800903 0.884979 0.138336
0.841583 0.885223 0.139709
0.875885 0.885468 0.140961
0.904663 0.885651 0.142120
0.928589 0.885803 0.143158
0.948517 0.885986 0.144073
0.965088 0.886139 0.144958
0.978973 0.886261 0.145905
0.990692 0.886414 0.146759
1.000000 0.886566 0.147552
1.000000 0.886658 0.148254
1.000000 0.886780 0.148956
1.000000 0.886871 0.149597
0.052277 0.904663 0.115479
0.067474 0.904724 0.116150
0.083344 0.904785 0.116760
0.100555 0.904907 0.117493
0.119812 0.904968 0.118256
0.141846 0.905060 0.119110
0.167236 0.905182 0.120056
0.196594 0.905334 0.121155
0.230560 0.905457 0.122406
0.269684 0.905640 0.123779
0.314362 0.905853 0.125305
0.364136 0.906036 0.126862
0.417603 0.906281 0.128571
0.473267 0.906525 0.130249
0.530151 0.906769 0.131989
0.588470 0.907043 0.133698
0.646881 0.907257 0.135406
0.703125 0.907501 0.137054
0.755463 0.907745 0.138672
0.802338 0.907959 0.140167
0.842712 0.908173 0.141632
0.876770 0.908325 0.142944
0.905304 0.908478 0.144165
0.929108 0.908691 0.145447
0.948944 0.908844 0.146606
0.965454 0.908936 0.147736
0.979248 0.909088 0.148712
0.990875 0.909210 0.149597
1.000000 0.909302 0.150391
1.000000 0.909424 0.151154
1.000000 0.909485 0.151855
1.000000 0.909576 0.152588
0.056122 0.924591 0.117950
0.071350 0.924622 0.118530
0.087219 0.924683 0.119141
0.104523 0.924744 0.119781
0.123779 0.924805 0.120544
0.145782 0.924896 0.121338
0.171173 0.924988 0.122223
0.200531 0.925079 0.123260
0.234436 0.925201 0.124390
0.273438 0.925323 0.125641
0.317963 0.925476 0.127075
0.367645 0.925659 0.128632
0.420868 0.925812 0.130188
0.476288 0.925995 0.131897
0.532867 0.926178 0.133575
0.590942 0.926361 0.135284
0.649078 0.926575 0.136932
0.704956 0.926758 0.138641
0.756958 0.926941 0.140320
0.803558 0.927124 0.141907
0.843628 0.927277 0.143402
0.877502 0.927429 0.144867
0.905975 0.927612 0.146423
0.929626 0.927734 0.147827
0.949341 0.927856 0.149109
0.965729 0.927979 0.150269
0.979492 0.928070 0.151245
0.991089 0.928192 0.152222
1.000000 0.928253 0.153076
1.000000 0.928345 0.153778
1.000000 0.928406 0.154541
1.000000 0.928497 0.155212
0.059784 0.941101 0.119965
0.075043 0.941162 0.120544
0.090912 0.941193 0.121094
0.108185 0.941254 0.121704
0.127380 0.941284 0.122345
0.149414 0.941345 0.123138
0.174866 0.941406 0.123993
0.204132 0.941467 0.124969
0.238007 0.941559 0.126007
0.276825 0.941650 0.127228
0.321259 0.941772 0.128601
0.370728 0.941895 0.130066
0.423737 0.942017 0.131622
0.478912 0.942169 0.133270
0.535248 0.942291 0.134949
0.593140 0.942474 0.136658
0.650940 0.942627 0.138367
0.706543 0.942780 0.140076
0.758209 0.942932 0.141815
0.804535 0.943054 0.143524
0.844421 0.943176 0.145142
0.878204 0.943329 0.146973
0.906494 0.943451 0.148560
0.930084 0.943573 0.150024
0.949707 0.943665 0.151367
0.965973 0.943756 0.152557
0.979645 0.943848 0.153534
0.991211 0.943909 0.154541
1.000000 0.943970 0.155426
1.000000 0.944061 0.156158
1.000000 0.944092 0.156952
1.000000 0.944153 0.157623
0.063202 0.954956 0.121643
0.078430 0.954987 0.122192
0.094360 0.955017 0.122711
0.111542 0.955017 0.123291
0.130798 0.955078 0.123932
0.152832 0.955109 0.124695
0.178101 0.955139 0.125458
0.207367 0.955200 0.126373
0.241150 0.955261 0.127380
0.279968 0.955353 0.128601
0.324249 0.955414 0.129913
0.373535 0.955536 0.131378
0.426331 0.955627 0.132874
0.481171 0.955750 0.134460
0.537354 0.955841 0.136139
0.594971 0.955963 0.137848
0.652557 0.956055 0.139648
0.707886 0.956177 0.141449
0.759308 0.956268 0.143219
0.805359 0.956390 0.144989
0.845215 0.956543 0.147034
0.878845 0.956635 0.148865
0.907013 0.956726 0.150574
0.930420 0.956818 0.152100
0.949982 0.956879 0.153412
0.966217 0.956970 0.154633
0.979828 0.957031 0.155670
0.991333 0.957062 0.156616
1.000000 0.957153 0.157471
1.000000 0.957184 0.158264
1.000000 0.957245 0.159027
1.000000 0.957245 0.159698
0.066376 0.966583 0.123047
0.081573 0.966614 0.123566
0.097504 0.966644 0.124084
0.114685 0.966644 0.124603
0.133911 0.966705 0.125275
0.155914 0.966736 0.125946
0.181152 0.966766 0.126709
0.210327 0.966797 0.127594
0.244049 0.966858 0.128601
0.282776 0.966888 0.129730
0.326904 0.966949 0.131012
0.375946 0.967010 0.132446
0.428558 0.967072 0.133942
0.483215 0.967163 0.135529
0.539185 0.967224 0.137238
0.596588 0.967316 0.138977
