3d-lut/luts/Lenox 340.CUBE
#Created by: Adobe Photoshop Export Color Lookup Plugin
#Copyright: (C) Copyright 2017 RocketStock
TITLE "Untitled"
#LUT size
LUT_3D_SIZE 5
#data domain
#LUT data points
DOMAIN_MIN 0.000000 0.000000 0.000000
DOMAIN_MAX 0.903226 0.903226 0.903226
0.000000 0.002228 0.000000
0.132660 0.018768 0.016357
0.480225 0.034821 0.034607
0.855896 0.055908 0.058197
0.997681 0.065613 0.069061
0.000000 0.161163 0.022858
0.137848 0.166870 0.030457
0.484741 0.182770 0.051392
0.857697 0.200165 0.074432
0.997925 0.208832 0.086090
0.011169 0.502197 0.062988
0.157501 0.505890 0.071198
0.498016 0.515625 0.092682
0.863434 0.525940 0.114197
0.998932 0.530121 0.121826
0.043854 0.851898 0.108643
0.188141 0.853058 0.115479
0.523499 0.855530 0.128021
0.874847 0.857971 0.138824
1.000000 0.859192 0.144501
0.069336 0.976562 0.124268
0.213013 0.976685 0.128662
0.540771 0.976990 0.138214
0.879883 0.977417 0.152283
1.000000 0.977661 0.161041
0.000000 0.013672 0.156067
0.133392 0.020813 0.163239
0.481018 0.037567 0.179352
0.856201 0.058655 0.199402
0.997742 0.068329 0.208740
0.000000 0.163208 0.169098
0.139038 0.169128 0.175751
0.485718 0.185089 0.193634
0.858002 0.202515 0.213348
0.997986 0.211212 0.223297
0.013031 0.503540 0.203400
0.159149 0.507294 0.210541
0.499207 0.517059 0.228821
0.864014 0.527161 0.246460
0.999023 0.531189 0.252563
0.046814 0.852325 0.242035
0.191071 0.853455 0.247467
0.525909 0.855865 0.257599
0.875580 0.858307 0.266754
1.000000 0.859619 0.272064
0.073669 0.976593 0.254517
0.216980 0.976715 0.258118
0.543030 0.977020 0.266235
0.880554 0.977478 0.278992
1.000000 0.977753 0.286469
0.000000 0.020294 0.504089
0.135742 0.026428 0.507690
0.483063 0.044434 0.517975
0.857056 0.065155 0.529877
0.997833 0.075165 0.535767
0.000000 0.168549 0.511536
0.142273 0.174866 0.515778
0.488098 0.190857 0.526520
0.858948 0.208435 0.538666
0.998138 0.217133 0.544617
0.017670 0.506958 0.532410
0.163239 0.510864 0.536896
0.502319 0.520538 0.547852
0.865662 0.529968 0.557465
0.999298 0.533722 0.560760
0.054840 0.853363 0.555145
0.199219 0.854401 0.558014
0.531952 0.856659 0.563599
0.877258 0.859131 0.569519
1.000000 0.860779 0.573761
0.084991 0.976715 0.561829
0.226837 0.976837 0.563873
0.548187 0.977173 0.569122
0.882141 0.977661 0.578278
1.000000 0.977905 0.582794
0.000000 0.026550 0.880066
0.138916 0.033447 0.881470
0.485565 0.052277 0.885284
0.857971 0.072754 0.889404
0.997986 0.082977 0.891449
0.000000 0.174988 0.882935
0.146301 0.181549 0.884460
0.490692 0.197083 0.888153
0.860016 0.215057 0.892426
0.998352 0.223419 0.894379
0.023132 0.510925 0.890259
0.168243 0.514893 0.891846
0.506317 0.524261 0.895386
0.867798 0.532837 0.898132
0.999634 0.536407 0.899078
0.065491 0.854431 0.897461
0.209503 0.855347 0.898285
0.538635 0.857544 0.900024
0.879272 0.860382 0.902374
1.000000 0.862152 0.903870
0.097992 0.976837 0.899445
0.237640 0.976929 0.900085
0.553986 0.977325 0.902191
0.883728 0.977875 0.905365
1.000000 0.978058 0.906677
0.000000 0.029816 1.000000
0.140564 0.037079 1.000000
0.486847 0.055969 1.000000
0.858459 0.076416 1.000000
0.998047 0.086700 1.000000
0.000671 0.178192 1.000000
0.148407 0.184723 1.000000
0.492004 0.200195 1.000000
0.860565 0.218170 1.000000
0.998413 0.226349 1.000000
0.025879 0.512878 1.000000
0.170868 0.516815 1.000000
0.508453 0.525970 1.000000
0.868866 0.534149 1.000000
0.999786 0.537659 1.000000
0.071228 0.854919 1.000000
0.214661 0.855804 1.000000
0.541687 0.857971 1.000000
0.880188 0.861023 1.000000
1.000000 0.862793 1.000000
0.104156 0.976898 1.000000
0.242554 0.977020 1.000000
0.556824 0.977417 1.000000
0.884369 0.977936 1.000000
1.000000 0.978119 1.000000
