3d-lut/luts/Lenox 340.CUBE
#Created by: Adobe Photoshop Export Color Lookup Plugin
#Copyright: (C) Copyright 2017 RocketStock
TITLE "Untitled"
#LUT size
LUT_3D_SIZE 8
#data domain
#LUT data points
DOMAIN_MIN 0.000000 0.000000 0.000000
DOMAIN_MAX 0.903226 0.903226 0.903226
0.000000 0.002228 0.000000
0.053986 0.016144 0.013245
0.167572 0.020081 0.017883
0.361755 0.028687 0.027710
0.602173 0.041504 0.042114
0.817261 0.053650 0.055664
0.938293 0.061096 0.064026
0.997681 0.065613 0.069061
0.000000 0.082611 0.015808
0.055969 0.084991 0.018768
0.169739 0.089417 0.024231
0.363922 0.098297 0.034973
0.604004 0.110748 0.049957
0.818268 0.121735 0.063171
0.938721 0.128632 0.071564
0.997803 0.132965 0.076874
0.000000 0.196045 0.026337
0.060516 0.198639 0.029968
0.174377 0.203217 0.036255
0.368134 0.211761 0.047974
0.607300 0.222565 0.062775
0.820038 0.231964 0.075897
0.939423 0.238312 0.084778
0.997986 0.242188 0.090179
0.002533 0.387970 0.048706
0.071625 0.390198 0.052704
0.184845 0.393860 0.059204
0.376648 0.399994 0.070404
0.613312 0.408356 0.085632
0.823517 0.415802 0.099121
0.941010 0.420502 0.107208
0.998505 0.423126 0.111664
0.020233 0.619141 0.077728
0.088257 0.620667 0.081696
0.199829 0.623230 0.088531
0.389191 0.627655 0.100159
0.623566 0.632965 0.113342
0.830109 0.637024 0.122437
0.944031 0.639374 0.127167
0.999451 0.640747 0.129700
0.039307 0.817413 0.104065
0.106964 0.818115 0.107666
0.217712 0.819275 0.113129
0.405762 0.821106 0.121246
0.638123 0.823181 0.129211
0.838562 0.824860 0.135345
0.947449 0.825989 0.139282
1.000000 0.826691 0.141815
0.056122 0.924591 0.117950
0.123779 0.924805 0.120544
0.234436 0.925201 0.124390
0.420868 0.925812 0.130188
0.649078 0.926575 0.136932
0.843628 0.927277 0.143402
0.949341 0.927856 0.149109
1.000000 0.928253 0.153076
0.069336 0.976562 0.124268
0.136749 0.976624 0.126373
0.246704 0.976715 0.129639
0.430573 0.976868 0.134918
0.655151 0.977112 0.141846
0.846527 0.977356 0.150330
0.950500 0.977539 0.156982
1.000000 0.977661 0.161041
0.000000 0.005463 0.068024
0.054321 0.016937 0.082031
0.167969 0.021088 0.086517
0.362091 0.029816 0.095825
0.602478 0.042847 0.109406
0.817474 0.054901 0.121918
0.938385 0.062378 0.129669
0.997711 0.066833 0.134430
0.000000 0.083466 0.084534
0.056366 0.085968 0.087372
0.170197 0.090454 0.092529
0.364319 0.099426 0.102661
0.604340 0.111969 0.116638
0.818481 0.122864 0.128845
0.938812 0.129791 0.136749
0.997833 0.134125 0.141724
0.000000 0.196960 0.094543
0.061127 0.199615 0.097961
0.174988 0.204254 0.103943
0.368652 0.212799 0.114777
0.607666 0.223511 0.128479
0.820221 0.233002 0.140747
0.939514 0.239410 0.149109
0.998016 0.243256 0.154114
0.003296 0.388763 0.115479
0.072388 0.390991 0.119141
0.185516 0.394623 0.125214
0.377228 0.400818 0.135620
0.613708 0.409149 0.149841
0.823761 0.416626 0.162323
0.941101 0.421204 0.169739
0.998535 0.423828 0.173798
0.021149 0.619690 0.142487
0.089142 0.621216 0.146271
0.200653 0.623779 0.152557
0.389923 0.628204 0.163300
0.624207 0.633423 0.175323
0.830566 0.637451 0.183502
0.944244 0.639771 0.187775
0.999512 0.641113 0.190094
0.040558 0.817657 0.166870
0.108154 0.818359 0.170135
0.218933 0.819519 0.175140
0.406921 0.821320 0.182404
0.639069 0.823364 0.189697
0.839050 0.825073 0.195343
0.947632 0.826172 0.199066
1.000000 0.826874 0.201508
0.057800 0.924652 0.179443
0.125458 0.924896 0.181763
0.236084 0.925293 0.185242
0.422211 0.925873 0.190613
0.649994 0.926666 0.196869
0.843994 0.927368 0.202972
0.949524 0.927979 0.208557
1.000000 0.928375 0.212219
0.071350 0.976593 0.185150
0.138794 0.976624 0.187103
0.248444 0.976746 0.190033
0.431885 0.976898 0.194916
0.655914 0.977142 0.201508
0.846893 0.977386 0.209717
0.950623 0.977570 0.215912
1.000000 0.977722 0.219666
0.000000 0.016052 0.192902
0.054871 0.018341 0.195099
0.168610 0.022766 0.199280
0.362762 0.031830 0.207672
0.603088 0.045044 0.219757
0.817780 0.057037 0.230682
0.938477 0.064392 0.237427
0.997742 0.068939 0.241699
0.000000 0.084961 0.197418
0.057159 0.087524 0.200043
0.171021 0.092255 0.204742
0.365051 0.101440 0.213806
0.604950 0.113983 0.226105
0.818817 0.124756 0.236725
0.938904 0.131775 0.243744
0.997864 0.136139 0.248169
0.000000 0.198608 0.206604
0.062195 0.201324 0.209656
0.175964 0.206024 0.214935
0.369537 0.214569 0.224487
0.608276 0.225220 0.236328
0.820557 0.234772 0.247314
0.939697 0.241180 0.254608
0.998108 0.245056 0.259003
0.004730 0.390137 0.225067
0.073761 0.392334 0.228271
0.186737 0.395874 0.233490
0.378113 0.402161 0.242737
0.614471 0.410553 0.255310
0.824219 0.417938 0.266113
0.941315 0.422424 0.272369
0.998596 0.424957 0.275818
0.022675 0.620636 0.248840
0.090668 0.622162 0.252136
0.202057 0.624695 0.257660
0.391235 0.629120 0.266907
0.625275 0.634186 0.277008
0.831268 0.638123 0.283905
0.944550 0.640381 0.287537
0.999634 0.641724 0.289520
0.042725 0.818085 0.269958
0.110291 0.818817 0.272736
0.221008 0.819916 0.276917
0.408936 0.821655 0.282959
0.640656 0.823639 0.289124
0.839813 0.825348 0.294067
0.947906 0.826477 0.297394
1.000000 0.827179 0.299622
0.060791 0.924805 0.280487
0.128357 0.925018 0.282440
0.238892 0.925385 0.285400
0.424500 0.925995 0.289948
0.651459 0.926758 0.295471
0.844666 0.927521 0.301147
0.949799 0.928162 0.306274
1.000000 0.928558 0.309540
0.074768 0.976624 0.285339
0.142029 0.976685 0.286957
0.251404 0.976776 0.289459
0.434143 0.976929 0.293762
0.657104 0.977173 0.299622
0.847595 0.977417 0.307312
0.950867 0.977631 0.312805
1.000000 0.977753 0.316101
0.000000 0.018524 0.386108
0.056061 0.021118 0.387970
0.169922 0.025909 0.391388
0.364014 0.035492 0.398163
0.604065 0.048920 0.407532
0.818329 0.060638 0.415710
0.938721 0.068115 0.421021
0.997803 0.072754 0.424377
0.000000 0.087769 0.389923
0.058655 0.090576 0.392059
0.172516 0.095490 0.395782
0.366455 0.104980 0.402954
0.606049 0.117523 0.412354
0.819366 0.128143 0.420410
0.939148 0.135345 0.425934
0.997925 0.139740 0.429321
0.000000 0.201538 0.397247
0.064087 0.204315 0.399658
0.177826 0.209167 0.403809
0.371094 0.217712 0.411133
0.609344 0.228180 0.420135
0.821167 0.237915 0.428650
0.939941 0.244324 0.434265
0.998199 0.248138 0.437531
0.007263 0.392517 0.411560
0.076202 0.394684 0.414001
0.188812 0.398132 0.417847
0.379791 0.404541 0.425201
0.615723 0.412903 0.434784
0.825043 0.420197 0.442810
0.941650 0.424500 0.447296
0.998718 0.426910 0.449707
0.025513 0.622284 0.429840
0.093414 0.623810 0.432373
0.204681 0.626343 0.436523
0.393524 0.630646 0.443359
0.627380 0.635498 0.450592
0.832611 0.639252 0.455414
0.945129 0.641479 0.458038
0.999756 0.642792 0.459534
0.046722 0.818878 0.445587
0.114227 0.819519 0.447571
0.225006 0.820587 0.450500
0.412628 0.822266 0.454742
0.643433 0.824219 0.459259
0.841125 0.825928 0.463013
0.948364 0.827057 0.465729
1.000000 0.827881 0.467743
0.066315 0.925049 0.453033
0.133850 0.925293 0.454376
0.243958 0.925659 0.456482
0.428558 0.926239 0.459839
0.653900 0.927002 0.464142
0.845886 0.927826 0.469116
0.950226 0.928497 0.473236
1.000000 0.928894 0.475800
0.080994 0.976685 0.456421
0.147949 0.976746 0.457611
0.256653 0.976837 0.459473
0.437897 0.976990 0.462769
0.659454 0.977234 0.467773
0.848724 0.977539 0.474060
0.951294 0.977753 0.478241
1.000000 0.977875 0.480682
0.000000 0.022186 0.626068
0.057831 0.025055 0.627472
0.171692 0.030273 0.629974
0.365723 0.040314 0.634735
0.605438 0.053833 0.641205
0.819061 0.065277 0.646729
0.939026 0.072968 0.650482
0.997894 0.077667 0.652802
0.000000 0.091675 0.628906
0.060822 0.094666 0.630463
0.174622 0.099884 0.633148
0.368378 0.109619 0.638092
0.607452 0.121918 0.644409
0.820129 0.132690 0.650055
0.939484 0.139923 0.653870
0.998016 0.144348 0.656189
0.000000 0.205475 0.634186
0.066772 0.208313 0.635803
0.180328 0.213226 0.638733
0.373230 0.221649 0.643585
0.610779 0.232147 0.649902
0.821991 0.241943 0.655792
0.940308 0.248291 0.659515
0.998291 0.251984 0.661682
0.010681 0.395508 0.643921
0.079224 0.397552 0.645508
0.191498 0.401062 0.648254
0.382019 0.407593 0.653381
0.617554 0.415985 0.659882
0.826172 0.422943 0.665070
0.942200 0.427002 0.667877
0.998901 0.429291 0.669342
0.029358 0.624420 0.656586
0.097137 0.625916 0.658264
0.208252 0.628387 0.661041
0.396790 0.632507 0.665436
0.630402 0.637085 0.669891
0.834412 0.640686 0.672913
0.945831 0.642853 0.674652
0.999969 0.644196 0.675659
0.052277 0.819794 0.666840
0.119812 0.820404 0.667999
0.230652 0.821381 0.669830
0.417664 0.822998 0.672485
0.646912 0.824890 0.675446
0.842712 0.826630 0.678162
0.948975 0.827911 0.680328
1.000000 0.828888 0.681976
0.073944 0.925385 0.671387
0.141205 0.925568 0.672272
0.250671 0.925903 0.673615
0.433594 0.926514 0.675842
0.656860 0.927307 0.678986
0.847412 0.928223 0.682983
0.950806 0.928894 0.685944
1.000000 0.929321 0.687683
0.089142 0.976746 0.673553
0.155609 0.976807 0.674347
0.263275 0.976898 0.675629
0.442474 0.977081 0.677948
0.662506 0.977356 0.682007
0.850067 0.977661 0.686523
0.951752 0.977875 0.689331
1.000000 0.977966 0.690918
0.000000 0.025818 0.841339
0.059662 0.028900 0.842133
0.173523 0.034393 0.843475
0.367371 0.044739 0.846039
0.606720 0.058136 0.849335
0.819733 0.069580 0.852203
0.939301 0.077332 0.854126
0.997955 0.082092 0.855347
0.000000 0.095398 0.842865
0.062927 0.098541 0.843719
0.176697 0.103973 0.845184
0.370117 0.113739 0.847748
0.608673 0.125763 0.850983
0.820801 0.136749 0.853943
0.939789 0.144043 0.855927
0.998138 0.148438 0.857086
0.000092 0.209015 0.845703
0.069275 0.211975 0.846588
0.182648 0.216797 0.848053
0.375031 0.225006 0.850555
0.612061 0.235718 0.853851
0.822784 0.245575 0.856842
0.940674 0.251740 0.858704
0.998383 0.255310 0.859772
0.013611 0.398071 0.850677
0.081970 0.400146 0.851532
0.193970 0.403839 0.852966
0.384094 0.410339 0.855652
0.619263 0.418579 0.858856
0.827271 0.425293 0.861328
0.942749 0.429108 0.862640
0.999054 0.431305 0.863312
0.032928 0.626282 0.857239
0.100677 0.627777 0.858093
0.211700 0.630188 0.859436
0.399963 0.634094 0.861542
0.633270 0.638458 0.863556
0.836029 0.641907 0.865021
0.946472 0.644073 0.865845
1.000000 0.645416 0.866394
0.057800 0.820557 0.862152
0.125458 0.821167 0.862701
0.236084 0.822083 0.863525
0.422150 0.823608 0.864807
0.649963 0.825500 0.866241
0.843994 0.827301 0.867706
0.949524 0.828796 0.869019
1.000000 0.829834 0.869904
0.081085 0.925629 0.864258
0.148041 0.925842 0.864655
0.256683 0.926147 0.865356
0.437927 0.926758 0.866486
0.659485 0.927612 0.868256
0.848724 0.928619 0.870422
0.951294 0.929291 0.871857
1.000000 0.929688 0.872742
0.096497 0.976837 0.865326
0.162384 0.976868 0.865692
0.269043 0.976959 0.866364
0.446198 0.977173 0.867554
0.665192 0.977478 0.869904
0.851196 0.977783 0.872162
0.952118 0.977966 0.873505
1.000000 0.978058 0.874268
0.000000 0.028290 0.962952
0.060944 0.031525 0.963257
0.174774 0.037170 0.963806
0.368500 0.047668 0.964844
0.607544 0.060822 0.966125
0.820190 0.072418 0.967285
0.939484 0.080170 0.968109
0.998016 0.084930 0.968567
0.000000 0.097900 0.963531
0.064331 0.101105 0.963898
0.178070 0.106659 0.964508
0.371307 0.116394 0.965546
0.609467 0.128326 0.966797
0.821259 0.139435 0.967987
0.939941 0.146698 0.968781
0.998199 0.151031 0.969269
0.001831 0.211395 0.964752
0.070984 0.214325 0.965057
0.184235 0.219116 0.965637
0.376221 0.227203 0.966644
0.612976 0.238098 0.967957
0.823334 0.247864 0.969208
0.940887 0.253906 0.969879
0.998474 0.257416 0.970306
0.015472 0.399780 0.966675
0.083771 0.401947 0.967010
0.195618 0.405609 0.967651
0.385468 0.412140 0.968689
0.620422 0.420258 0.969971
0.828033 0.426758 0.970886
0.943085 0.430450 0.971344
0.999176 0.432526 0.971619
0.035522 0.627472 0.969360
0.103119 0.628937 0.969666
0.214081 0.631317 0.970184
0.402191 0.635101 0.970947
0.635223 0.639282 0.971710
0.837097 0.642700 0.972260
0.946899 0.644897 0.972626
1.000000 0.646240 0.972839
0.061707 0.821045 0.971222
0.129364 0.821594 0.971375
0.239777 0.822510 0.971680
0.425232 0.824036 0.972198
0.651886 0.825958 0.972778
0.844910 0.827789 0.973419
0.949860 0.829407 0.973969
1.000000 0.830444 0.974335
0.085815 0.925781 0.971985
0.152466 0.925964 0.972168
0.260590 0.926331 0.972412
0.440613 0.926941 0.972870
0.661285 0.927826 0.973663
0.849518 0.928894 0.974518
0.951569 0.929535 0.975128
1.000000 0.929901 0.975464
0.101318 0.976868 0.972382
0.166656 0.976929 0.972565
0.272614 0.977020 0.972839
0.448608 0.977234 0.973358
0.666901 0.977539 0.974335
0.851898 0.977844 0.975220
0.952362 0.978027 0.975739
1.000000 0.978088 0.976013
0.000000 0.029816 1.000000
0.061737 0.033142 1.000000
0.175568 0.038910 1.000000
0.369202 0.049408 1.000000
0.608002 0.062469 1.000000
0.820435 0.074127 1.000000
0.939606 0.082001 1.000000
0.998047 0.086700 1.000000
0.000000 0.099518 1.000000
0.065308 0.102783 1.000000
0.178925 0.108246 1.000000
0.372040 0.117950 1.000000
0.609985 0.129852 1.000000
0.821564 0.141022 1.000000
0.940094 0.148285 1.000000
0.998230 0.152588 1.000000
0.002930 0.212799 1.000000
0.071960 0.215729 1.000000
0.185181 0.220520 1.000000
0.376953 0.228607 1.000000
0.613525 0.239502 1.000000
0.823639 0.249207 1.000000
0.941071 0.255219 1.000000
0.998505 0.258698 1.000000
0.016632 0.400818 1.000000
0.084900 0.403015 1.000000
0.196655 0.406677 1.000000
0.386383 0.413239 1.000000
0.621185 0.421234 1.000000
0.828522 0.427612 1.000000
0.943298 0.431183 1.000000
0.999207 0.433289 1.000000
0.037048 0.628204 1.000000
0.104706 0.629669 1.000000
0.215546 0.631958 1.000000
0.403625 0.635651 1.000000
0.636444 0.639801 1.000000
0.837708 0.643219 1.000000
0.947113 0.645386 1.000000
1.000000 0.646729 1.000000
0.064178 0.821320 1.000000
0.131805 0.821869 1.000000
0.242126 0.822784 1.000000
0.427032 0.824280 1.000000
0.653046 0.826172 1.000000
0.845428 0.828156 1.000000
0.950073 0.829803 1.000000
1.000000 0.830841 1.000000
0.088684 0.925873 1.000000
0.155121 0.926086 1.000000
0.262909 0.926422 1.000000
0.442200 0.927032 1.000000
0.662354 0.927979 1.000000
0.849976 0.929047 1.000000
0.951721 0.929688 1.000000
1.000000 0.930054 1.000000
0.104156 0.976898 1.000000
0.169342 0.976929 1.000000
0.274719 0.977051 1.000000
0.450195 0.977264 1.000000
0.667847 0.977570 1.000000
0.852295 0.977875 1.000000
0.952484 0.978027 1.000000
1.000000 0.978119 1.000000
