3d-lut/luts/Lucky 64.CUBE
#Created by: Adobe Photoshop Export Color Lookup Plugin
#Copyright: (C) Copyright 2017 RocketStock
TITLE "Untitled"
#LUT size
LUT_3D_SIZE 32
#data domain
DOMAIN_MIN 0.0 0.0 0.0
DOMAIN_MAX 1.0 1.0 1.0
#LUT data points
0.019653 0.071198 0.067200
0.034851 0.071442 0.067017
0.054138 0.071777 0.066803
0.078247 0.072052 0.066620
0.106506 0.072357 0.066376
0.138000 0.072693 0.066101
0.171814 0.073029 0.065857
0.206970 0.073395 0.065613
0.242279 0.073761 0.065338
0.277222 0.074158 0.065094
0.312012 0.074554 0.064819
0.347168 0.074951 0.064514
0.383209 0.075378 0.064178
0.420624 0.075836 0.063873
0.460052 0.076294 0.063599
0.501953 0.076721 0.063263
0.545837 0.077240 0.062958
0.589722 0.077728 0.062622
0.632629 0.078247 0.062286
0.673462 0.078735 0.061920
0.711212 0.079254 0.061554
0.745117 0.079803 0.061218
0.775482 0.080353 0.060852
0.803711 0.080902 0.060486
0.830994 0.081482 0.060120
0.858612 0.082062 0.059723
0.886871 0.082672 0.059357
0.914307 0.083252 0.058960
0.939087 0.083893 0.058563
0.961121 0.084473 0.058197
0.981110 0.085144 0.057800
1.000000 0.085785 0.057373
0.020325 0.095825 0.066833
0.035736 0.096130 0.066620
0.055206 0.096497 0.066406
0.079559 0.096832 0.066132
0.108002 0.097229 0.065857
0.139648 0.097626 0.065613
0.173584 0.098053 0.065338
0.208740 0.098450 0.065094
0.244019 0.098877 0.064819
0.278900 0.099365 0.064545
0.313690 0.099792 0.064209
0.348816 0.100311 0.063904
0.384918 0.100800 0.063599
0.422394 0.101318 0.063263
0.461792 0.101837 0.062958
0.503784 0.102356 0.062653
0.547607 0.102905 0.062317
0.591400 0.103485 0.061920
0.634186 0.104034 0.061584
0.674774 0.104584 0.061218
0.712372 0.105225 0.060852
0.746063 0.105835 0.060516
0.776306 0.106445 0.060150
0.804413 0.107086 0.059723
0.831635 0.107697 0.059387
0.859161 0.108368 0.058960
0.887360 0.109039 0.058594
0.914673 0.109711 0.058197
0.939362 0.110382 0.057800
0.961243 0.111053 0.057404
0.981201 0.111755 0.057007
1.000000 0.112488 0.056610
0.021027 0.123444 0.066406
0.036621 0.123840 0.066132
0.056427 0.124237 0.065887
0.080994 0.124664 0.065643
0.109619 0.125061 0.065338
0.141449 0.125549 0.065094
0.175476 0.126007 0.064850
0.210602 0.126465 0.064545
0.245880 0.126953 0.064209
0.280731 0.127472 0.063904
0.315491 0.127991 0.063599
0.350647 0.128540 0.063293
0.386688 0.129089 0.062958
0.424194 0.129639 0.062653
0.463715 0.130249 0.062317
0.505646 0.130798 0.061951
0.549408 0.131409 0.061584
0.593170 0.132080 0.061218
0.635773 0.132629 0.060852
0.676208 0.133331 0.060516
0.713562 0.133972 0.060150
0.747040 0.134613 0.059753
0.777130 0.135315 0.059387
0.805084 0.135986 0.058990
0.832245 0.136688 0.058594
0.859680 0.137360 0.058197
0.887848 0.138062 0.057831
0.915009 0.138794 0.057434
0.939606 0.139496 0.057007
0.961395 0.140259 0.056641
0.981262 0.140991 0.056244
1.000000 0.141785 0.055786
0.021881 0.153412 0.065887
0.037628 0.153839 0.065643
0.057709 0.154266 0.065369
0.082550 0.154785 0.065094
0.111389 0.155243 0.064850
0.143341 0.155731 0.064545
0.177429 0.156219 0.064240
0.212646 0.156738 0.063934
0.247864 0.157288 0.063599
0.282623 0.157867 0.063293
0.317383 0.158417 0.062958
0.352509 0.158997 0.062653
0.388611 0.159607 0.062317
0.426086 0.160187 0.061981
0.465607 0.160797 0.061584
0.507690 0.161438 0.061249
0.551361 0.162079 0.060852
0.595032 0.162720 0.060516
0.637451 0.163361 0.060150
0.677673 0.164032 0.059784
0.714783 0.164734 0.059418
0.748047 0.165405 0.059021
0.777954 0.166107 0.058624
0.805817 0.166870 0.058197
0.832886 0.167542 0.057831
0.860260 0.168304 0.057434
0.888336 0.169037 0.057037
0.915375 0.169769 0.056671
0.939880 0.170532 0.056244
0.961548 0.171265 0.055817
0.981323 0.172058 0.055389
1.000000 0.172852 0.054993
0.022705 0.184998 0.065369
0.038727 0.185455 0.065125
0.059082 0.185913 0.064850
0.084259 0.186462 0.064545
0.113281 0.186920 0.064240
0.145386 0.187439 0.063934
0.179535 0.187958 0.063599
0.214722 0.188538 0.063324
0.249908 0.189056 0.062988
0.284607 0.189697 0.062653
0.319305 0.190247 0.062317
0.354462 0.190887 0.061981
0.390533 0.191467 0.061615
0.428101 0.192078 0.061249
0.467621 0.192749 0.060883
0.509705 0.193359 0.060547
0.553375 0.194031 0.060150
0.596863 0.194733 0.059784
0.639099 0.195343 0.059418
0.679138 0.196075 0.059021
0.716034 0.196777 0.058624
0.749084 0.197479 0.058228
0.778809 0.198181 0.057831
0.806549 0.198883 0.057465
0.833557 0.199615 0.057068
0.860870 0.200378 0.056671
0.888794 0.201080 0.056274
0.915771 0.201874 0.055817
0.940094 0.202606 0.055389
0.961700 0.203339 0.054993
0.981384 0.204132 0.054565
1.000000 0.204895 0.054199
0.023682 0.217346 0.064880
0.039948 0.217804 0.064575
0.060638 0.218292 0.064270
0.086029 0.218842 0.063934
0.115265 0.219330 0.063629
0.147522 0.219849 0.063324
0.181732 0.220398 0.062988
0.216949 0.220978 0.062683
0.252014 0.221558 0.062317
0.286682 0.222107 0.061981
0.321350 0.222717 0.061615
0.356537 0.223328 0.061249
0.392578 0.223907 0.060913
0.430115 0.224579 0.060547
0.469727 0.225220 0.060150
0.511902 0.225800 0.059784
0.555450 0.226471 0.059448
0.598785 0.227142 0.059021
0.640839 0.227783 0.058624
0.680664 0.228485 0.058228
0.717346 0.229187 0.057831
0.750153 0.229858 0.057465
0.779724 0.230560 0.057068
0.807343 0.231262 0.056671
0.834198 0.231995 0.056274
0.861450 0.232697 0.055817
0.889282 0.233398 0.055420
0.916138 0.234131 0.054993
0.940338 0.234894 0.054596
0.961853 0.235657 0.054199
0.981476 0.236359 0.053802
1.000000 0.237122 0.053375
0.024719 0.249603 0.064270
0.041229 0.250061 0.063965
0.062286 0.250580 0.063629
0.087921 0.251099 0.063354
0.117371 0.251617 0.063019
0.149811 0.252106 0.062683
0.184082 0.252686 0.062317
0.219238 0.253235 0.062012
0.254242 0.253815 0.061615
0.288818 0.254333 0.061249
0.323486 0.254944 0.060913
0.358612 0.255524 0.060577
0.394653 0.256104 0.060181
0.432281 0.256775 0.059784
0.471893 0.257355 0.059448
0.514069 0.257965 0.059021
0.557556 0.258636 0.058655
0.600769 0.259277 0.058258
0.642639 0.259888 0.057861
0.682220 0.260620 0.057495
0.718628 0.261230 0.057098
0.751221 0.261963 0.056671
0.780640 0.262604 0.056274
0.808075 0.263306 0.055847
0.834869 0.263977 0.055420
0.862061 0.264648 0.055023
0.889832 0.265350 0.054626
0.916504 0.266083 0.054199
0.940613 0.266785 0.053833
0.962036 0.267517 0.053406
0.981537 0.268219 0.052979
1.000000 0.268921 0.052582
0.025818 0.281555 0.063629
0.042603 0.282013 0.063354
0.063965 0.282532 0.063019
0.089935 0.283020 0.062683
0.119629 0.283508 0.062347
0.152130 0.284088 0.062012
0.186523 0.284607 0.061646
0.221619 0.285156 0.061279
0.256561 0.285736 0.060913
0.291046 0.286255 0.060577
0.325623 0.286865 0.060181
0.360779 0.287445 0.059814
0.396820 0.288025 0.059448
0.434448 0.288635 0.059052
0.474152 0.289276 0.058655
0.516357 0.289856 0.058289
0.559692 0.290466 0.057892
0.602783 0.291138 0.057495
0.644440 0.291748 0.057129
0.683807 0.292358 0.056702
0.719940 0.293030 0.056274
0.752289 0.293701 0.055847
0.781494 0.294373 0.055420
0.808899 0.295013 0.055054
0.835571 0.295715 0.054626
0.862671 0.296356 0.054230
0.890320 0.297058 0.053833
0.916931 0.297729 0.053406
0.940887 0.298401 0.053009
0.962158 0.299103 0.052612
0.981628 0.299835 0.052185
1.000000 0.300507 0.051758
0.026978 0.313416 0.063019
0.044037 0.313934 0.062714
0.065826 0.314453 0.062347
0.092102 0.314972 0.062012
0.121948 0.315491 0.061646
0.154602 0.316010 0.061279
0.188995 0.316528 0.060944
0.224121 0.317078 0.060577
0.258942 0.317627 0.060181
0.293396 0.318176 0.059845
0.327942 0.318756 0.059479
0.363007 0.319336 0.059052
0.399078 0.319916 0.058655
0.436737 0.320557 0.058289
0.476410 0.321106 0.057892
0.518646 0.321747 0.057495
0.561920 0.322388 0.057129
0.604797 0.322998 0.056702
0.646240 0.323608 0.056305
0.685425 0.324280 0.055847
0.721283 0.324890 0.055450
0.753418 0.325531 0.055054
0.782440 0.326233 0.054657
0.809662 0.326874 0.054260
0.836273 0.327515 0.053833
0.863312 0.328156 0.053406
0.890839 0.328827 0.053040
0.917267 0.329529 0.052612
0.941162 0.330170 0.052185
0.962341 0.330902 0.051758
0.981720 0.331543 0.051361
1.000000 0.332214 0.050964
0.028229 0.345734 0.062347
0.045624 0.346222 0.062042
0.067719 0.346710 0.061646
0.094299 0.347198 0.061279
0.124390 0.347717 0.060974
0.157196 0.348236 0.060577
0.191620 0.348755 0.060211
0.226654 0.349365 0.059845
0.261383 0.349915 0.059479
0.295776 0.350494 0.059052
0.330261 0.351074 0.058655
0.365295 0.351624 0.058319
0.401398 0.352203 0.057922
0.439056 0.352814 0.057526
0.478790 0.353424 0.057129
0.520935 0.354004 0.056702
0.564178 0.354645 0.056305
0.606873 0.355225 0.055878
0.648163 0.355865 0.055481
0.687012 0.356537 0.055084
0.722656 0.357147 0.054688
0.754517 0.357758 0.054260
0.783356 0.358429 0.053864
0.810455 0.359070 0.053436
0.836945 0.359711 0.053040
0.863922 0.360352 0.052612
0.891357 0.361053 0.052185
0.917694 0.361694 0.051788
0.941406 0.362366 0.051392
0.962494 0.363037 0.050964
0.981781 0.363708 0.050568
1.000000 0.364319 0.050140
0.029572 0.378662 0.061676
0.047302 0.379120 0.061310
0.069855 0.379669 0.060974
0.096619 0.380188 0.060608
0.126892 0.380707 0.060211
0.159821 0.381256 0.059845
0.194275 0.381775 0.059509
0.229309 0.382355 0.059082
0.263916 0.382935 0.058685
0.298187 0.383484 0.058319
0.332672 0.384064 0.057922
0.367676 0.384674 0.057526
0.403748 0.385223 0.057129
0.441406 0.385834 0.056732
0.481171 0.386475 0.056305
0.523407 0.387085 0.055908
0.566498 0.387695 0.055481
0.609009 0.388275 0.055084
0.650055 0.388947 0.054688
0.688690 0.389526 0.054291
0.724030 0.390167 0.053894
0.755646 0.390808 0.053467
0.784332 0.391479 0.053040
0.811249 0.392090 0.052643
0.837646 0.392761 0.052185
0.864563 0.393372 0.051788
0.891876 0.394073 0.051422
0.918091 0.394684 0.050964
0.941650 0.395386 0.050598
0.962646 0.395996 0.050171
0.981873 0.396698 0.049744
1.000000 0.397339 0.049347
0.030975 0.412720 0.060974
0.049042 0.413177 0.060638
0.071960 0.413757 0.060242
0.099060 0.414276 0.059875
0.129547 0.414825 0.059509
0.162598 0.415405 0.059082
0.197052 0.415924 0.058716
0.231995 0.416473 0.058319
0.266510 0.417053 0.057953
0.300720 0.417664 0.057556
0.335083 0.418213 0.057129
0.370087 0.418823 0.056732
0.406189 0.419434 0.056335
0.443878 0.420044 0.055908
0.483643 0.420624 0.055511
0.525848 0.421234 0.055084
0.568756 0.421875 0.054718
0.611084 0.422485 0.054321
0.651947 0.423126 0.053894
0.690308 0.423798 0.053467
0.725433 0.424408 0.053040
0.756775 0.425049 0.052643
0.785248 0.425720 0.052216
0.812103 0.426331 0.051819
0.838379 0.426941 0.051422
0.865173 0.427612 0.051025
0.892395 0.428253 0.050598
0.918488 0.428986 0.050171
0.941925 0.429596 0.049774
0.962799 0.430298 0.049377
0.981934 0.430939 0.048950
1.000000 0.431580 0.048553
0.032410 0.448273 0.060272
0.050934 0.448822 0.059906
0.074188 0.449371 0.059509
0.101593 0.449890 0.059082
0.132294 0.450500 0.058716
0.165405 0.451050 0.058319
0.199890 0.451599 0.057983
0.234772 0.452179 0.057556
0.269135 0.452759 0.057129
0.303253 0.453339 0.056763
0.337555 0.453979 0.056335
0.372498 0.454590 0.055939
0.408630 0.455170 0.055542
0.446320 0.455811 0.055084
0.486145 0.456360 0.054718
0.528351 0.457031 0.054321
0.571136 0.457642 0.053894
0.613312 0.458313 0.053467
0.653900 0.458954 0.053040
0.691986 0.459595 0.052643
0.726807 0.460205 0.052246
0.757904 0.460876 0.051819
0.786194 0.461517 0.051422
0.812897 0.462158 0.051025
0.839111 0.462860 0.050598
0.865845 0.463501 0.050171
0.892975 0.464142 0.049774
0.918854 0.464813 0.049377
0.942169 0.465454 0.048950
0.962952 0.466125 0.048553
0.981995 0.466827 0.048157
1.000000 0.467438 0.047760
0.033997 0.485870 0.059540
0.052887 0.486389 0.059082
0.076538 0.487000 0.058746
0.104218 0.487549 0.058350
0.135132 0.488098 0.057983
0.168335 0.488708 0.057556
0.202789 0.489258 0.057159
0.237549 0.489868 0.056763
0.271820 0.490479 0.056366
0.305847 0.491058 0.055939
0.340118 0.491699 0.055542
0.375061 0.492310 0.055145
0.411072 0.492920 0.054718
0.448853 0.493561 0.054321
0.488739 0.494202 0.053894
0.530853 0.494843 0.053497
0.573486 0.495483 0.053070
0.615479 0.496124 0.052643
0.655762 0.496765 0.052277
0.693634 0.497437 0.051819
0.728180 0.498077 0.051453
0.759064 0.498688 0.051056
0.787140 0.499390 0.050629
0.813721 0.500031 0.050201
0.839844 0.500732 0.049774
0.866486 0.501373 0.049377
0.893494 0.502045 0.048950
0.919281 0.502686 0.048553
0.942444 0.503387 0.048157
0.963074 0.504028 0.047760
0.982056 0.504700 0.047394
1.000000 0.505371 0.046997
0.035614 0.525513 0.058746
0.054962 0.526062 0.058380
0.078979 0.526642 0.057983
0.106934 0.527191 0.057587
0.138000 0.527740 0.057190
0.171295 0.528381 0.056793
0.205780 0.528931 0.056396
0.240387 0.529541 0.055939
0.274506 0.530090 0.055573
0.308533 0.530701 0.055145
0.342712 0.531342 0.054749
0.377594 0.531921 0.054321
0.413666 0.532562 0.053894
0.451477 0.533203 0.053497
0.491302 0.533752 0.053101
0.533386 0.534485 0.052673
0.575897 0.535065 0.052277
0.617615 0.535706 0.051849
0.657745 0.536285 0.051453
0.695343 0.536987 0.051056
0.729584 0.537598 0.050629
0.760193 0.538208 0.050201
0.788086 0.538849 0.049805
0.814545 0.539520 0.049377
0.840576 0.540131 0.048950
0.867126 0.540802 0.048584
0.894012 0.541443 0.048157
0.919647 0.542053 0.047760
0.942688 0.542694 0.047394
0.963257 0.543365 0.046997
0.982117 0.543945 0.046600
1.000000 0.544617 0.046204
0.037323 0.565796 0.057983
0.057129 0.566376 0.057587
0.081482 0.566895 0.057190
0.109711 0.567413 0.056793
0.140991 0.567963 0.056396
0.174377 0.568542 0.055939
0.208771 0.569122 0.055573
0.243286 0.569672 0.055145
0.277283 0.570221 0.054749
0.311188 0.570862 0.054321
0.345337 0.571442 0.053894
0.380188 0.571991 0.053528
0.416229 0.572601 0.053101
0.454010 0.573181 0.052673
0.493927 0.573761 0.052307
0.535950 0.574371 0.051880
0.578339 0.574982 0.051483
0.619843 0.575562 0.051056
0.659698 0.576141 0.050659
0.696991 0.576721 0.050232
0.730927 0.577332 0.049805
0.761292 0.577942 0.049377
0.789062 0.578552 0.048981
0.815338 0.579132 0.048584
0.841309 0.579742 0.048187
0.867767 0.580322 0.047791
0.894562 0.580963 0.047424
0.920074 0.581543 0.046997
0.942932 0.582092 0.046631
0.963409 0.582733 0.046234
0.982208 0.583282 0.045868
1.000000 0.583954 0.045471
0.039154 0.605804 0.057220
0.059357 0.606262 0.056793
0.084137 0.606781 0.056427
0.112610 0.607300 0.055969
0.144043 0.607819 0.055573
0.177460 0.608337 0.055176
0.211823 0.608887 0.054749
0.246216 0.609406 0.054321
0.280121 0.609924 0.053925
0.313873 0.610474 0.053528
0.347992 0.611023 0.053131
0.382812 0.611542 0.052734
0.418854 0.612091 0.052307
0.456604 0.612640 0.051910
0.496613 0.613159 0.051514
0.538513 0.613708 0.051056
0.580719 0.614288 0.050659
0.622040 0.614838 0.050232
0.661682 0.615387 0.049805
0.698669 0.615906 0.049408
0.732300 0.616486 0.049011
0.762451 0.617065 0.048615
0.790009 0.617554 0.048218
0.816223 0.618134 0.047821
0.842041 0.618652 0.047424
0.868378 0.619232 0.047028
0.895081 0.619781 0.046631
0.920441 0.620331 0.046234
0.943237 0.620819 0.045898
0.963593 0.621368 0.045471
0.982300 0.621948 0.045105
1.000000 0.622437 0.044739
0.041046 0.644440 0.056458
0.061676 0.644928 0.056000
0.086823 0.645386 0.055603
0.115570 0.645844 0.055176
0.147156 0.646332 0.054779
0.180634 0.646851 0.054352
0.214966 0.647308 0.053955
0.249207 0.647797 0.053528
0.282959 0.648254 0.053162
0.316681 0.648743 0.052734
0.350677 0.649231 0.052338
0.385498 0.649719 0.051910
0.421509 0.650208 0.051514
0.459320 0.650696 0.051086
0.499298 0.651215 0.050690
0.541168 0.651703 0.050232
0.583160 0.652191 0.049835
0.624237 0.652649 0.049438
0.663605 0.653168 0.049042
0.700287 0.653656 0.048645
0.733734 0.654144 0.048248
0.763580 0.654602 0.047821
0.790985 0.655090 0.047455
0.817017 0.655579 0.047028
0.842773 0.656067 0.046661
0.869080 0.656555 0.046265
0.895599 0.657043 0.045898
0.920868 0.657532 0.045502
0.943481 0.657990 0.045135
0.963745 0.658478 0.044769
0.982330 0.658997 0.044373
1.000000 0.659454 0.044006
0.042969 0.681183 0.055603
0.064087 0.681549 0.055176
0.089569 0.681976 0.054779
0.118561 0.682404 0.054382
0.150299 0.682770 0.053955
0.183777 0.683197 0.053558
0.218079 0.683655 0.053162
0.252167 0.684052 0.052734
0.285828 0.684479 0.052338
0.319397 0.684906 0.051910
0.353424 0.685333 0.051514
0.388153 0.685760 0.051117
0.424194 0.686218 0.050690
0.462006 0.686646 0.050232
0.502045 0.687042 0.049835
0.543732 0.687500 0.049438
0.585602 0.687927 0.049042
0.626495 0.688324 0.048645
0.665558 0.688751 0.048248
0.701965 0.689178 0.047852
0.735077 0.689606 0.047455
0.764679 0.690033 0.047058
0.791931 0.690460 0.046661
0.817810 0.690857 0.046295
0.843475 0.691284 0.045898
0.869720 0.691742 0.045532
0.896149 0.692108 0.045135
0.921204 0.692566 0.044769
0.943726 0.692993 0.044403
0.963867 0.693359 0.044006
0.982422 0.693756 0.043640
1.000000 0.694153 0.043304
0.045074 0.715088 0.054810
0.066620 0.715485 0.054413
0.092438 0.715820 0.053986
0.121674 0.716156 0.053589
0.153534 0.716522 0.053162
0.187012 0.716888 0.052734
0.221283 0.717255 0.052368
0.255219 0.717590 0.051910
0.288696 0.717926 0.051544
0.322235 0.718353 0.051117
0.356140 0.718689 0.050690
0.390839 0.719055 0.050262
0.426849 0.719452 0.049835
0.464691 0.719788 0.049438
0.504791 0.720154 0.049042
0.546387 0.720520 0.048645
0.588013 0.720856 0.048248
0.628693 0.721222 0.047852
0.667450 0.721588 0.047455
0.703644 0.721954 0.047058
0.736450 0.722321 0.046661
0.765839 0.722656 0.046295
0.792847 0.722992 0.045929
0.818634 0.723389 0.045532
0.844177 0.723724 0.045135
0.870331 0.724060 0.044769
0.896667 0.724426 0.044434
0.921600 0.724762 0.044037
0.943970 0.725098 0.043671
0.964050 0.725464 0.043304
0.982483 0.725769 0.042969
1.000000 0.726105 0.042603
0.047211 0.745789 0.053986
0.069183 0.746124 0.053589
0.095337 0.746399 0.053192
0.124817 0.746674 0.052765
0.156769 0.746948 0.052368
0.190308 0.747284 0.051941
0.224426 0.747589 0.051544
0.258270 0.747894 0.051117
0.291656 0.748169 0.050690
0.325043 0.748474 0.050262
0.358887 0.748779 0.049866
0.393585 0.749054 0.049469
0.429596 0.749359 0.049072
0.467377 0.749695 0.048676
0.507446 0.750000 0.048248
0.548981 0.750275 0.047852
0.590424 0.750549 0.047455
0.630890 0.750854 0.047058
0.669403 0.751160 0.046692
0.705261 0.751465 0.046295
0.737762 0.751740 0.045929
0.766937 0.752014 0.045532
0.793793 0.752319 0.045166
0.819458 0.752625 0.044800
0.844910 0.752930 0.044434
0.870972 0.753204 0.044037
0.897156 0.753479 0.043671
0.921936 0.753754 0.043335
0.944214 0.754028 0.042969
0.964203 0.754303 0.042603
0.982544 0.754578 0.042297
1.000000 0.754852 0.041931
0.049408 0.773560 0.053192
0.071869 0.773804 0.052795
0.098297 0.774048 0.052399
0.128021 0.774292 0.051971
0.160126 0.774536 0.051544
0.193634 0.774780 0.051147
0.227631 0.775024 0.050720
0.261261 0.775269 0.050293
0.294525 0.775543 0.049896
0.327911 0.775757 0.049469
0.361664 0.776031 0.049072
0.396271 0.776306 0.048676
0.432312 0.776520 0.048279
0.470154 0.776794 0.047882
0.510223 0.777039 0.047485
0.551605 0.777283 0.047089
0.592865 0.777527 0.046722
0.633057 0.777802 0.046326
0.671326 0.778046 0.045959
0.706879 0.778290 0.045532
0.739075 0.778564 0.045166
0.768036 0.778778 0.044800
0.794708 0.779022 0.044434
0.820251 0.779297 0.044037
0.845612 0.779510 0.043701
0.871582 0.779755 0.043335
0.897675 0.779999 0.042969
0.922333 0.780212 0.042633
0.944458 0.780457 0.042328
0.964325 0.780701 0.041931
0.982635 0.780884 0.041656
1.000000 0.781128 0.041290
0.051758 0.799347 0.052399
0.074615 0.799591 0.051971
0.101379 0.799774 0.051575
0.131256 0.800018 0.051178
0.163452 0.800232 0.050720
0.196960 0.800446 0.050323
0.230835 0.800690 0.049896
0.264374 0.800903 0.049500
0.297485 0.801117 0.049103
0.330719 0.801300 0.048706
0.364441 0.801514 0.048309
0.399017 0.801758 0.047882
0.435028 0.801941 0.047485
0.472809 0.802185 0.047119
0.512939 0.802399 0.046722
0.554199 0.802612 0.046326
0.595276 0.802795 0.045959
0.635193 0.803040 0.045563
0.673157 0.803223 0.045197
0.708466 0.803467 0.044830
0.740387 0.803650 0.044434
0.769104 0.803894 0.044067
0.795624 0.804047 0.043701
0.821014 0.804291 0.043335
0.846252 0.804474 0.042969
0.872192 0.804688 0.042633
0.898163 0.804901 0.042328
0.922699 0.805084 0.041962
0.944733 0.805267 0.041656
0.964478 0.805481 0.041290
0.982727 0.805664 0.040985
1.000000 0.805878 0.040649
0.054108 0.824280 0.051575
0.077423 0.824493 0.051178
0.104462 0.824615 0.050751
0.134552 0.824829 0.050323
0.166840 0.825043 0.049927
0.200287 0.825226 0.049530
0.234070 0.825409 0.049133
0.267395 0.825592 0.048706
0.300415 0.825806 0.048309
0.333557 0.825989 0.047882
0.367157 0.826172 0.047516
0.401764 0.826355 0.047119
0.437775 0.826538 0.046722
0.475586 0.826752 0.046356
0.515686 0.826904 0.045959
0.556793 0.827118 0.045563
0.597626 0.827271 0.045197
0.637360 0.827484 0.044830
0.675079 0.827698 0.044464
0.710083 0.827850 0.044067
0.741669 0.828033 0.043701
0.770142 0.828217 0.043365
0.796509 0.828400 0.042999
0.821838 0.828583 0.042664
0.846985 0.828766 0.042328
0.872803 0.828918 0.041962
0.898621 0.829132 0.041687
0.923035 0.829254 0.041321
0.944946 0.829437 0.040985
0.964630 0.829620 0.040649
0.982758 0.829773 0.040375
1.000000 0.829926 0.040039
0.056610 0.849182 0.050751
0.080261 0.849304 0.050323
0.107635 0.849487 0.049927
0.137909 0.849701 0.049530
0.170227 0.849823 0.049133
0.203644 0.849976 0.048737
0.237305 0.850189 0.048309
0.270477 0.850342 0.047913
0.303345 0.850525 0.047546
0.336395 0.850708 0.047150
0.369965 0.850861 0.046753
0.404510 0.851044 0.046387
0.440491 0.851196 0.045959
0.478302 0.851349 0.045593
0.518341 0.851501 0.045227
0.559357 0.851685 0.044830
0.600006 0.851868 0.044464
0.639435 0.852051 0.044067
0.676910 0.852203 0.043732
0.711609 0.852325 0.043396
0.742950 0.852509 0.042999
0.771210 0.852661 0.042664
0.797424 0.852814 0.042358
0.822601 0.852966 0.041992
0.847656 0.853149 0.041687
0.873383 0.853302 0.041321
0.899109 0.853455 0.041016
0.923401 0.853607 0.040649
0.945190 0.853760 0.040375
0.964752 0.853882 0.040039
0.982819 0.854065 0.039734
1.000000 0.854187 0.039429
0.059082 0.874725 0.049927
0.083191 0.874847 0.049530
0.110809 0.875000 0.049133
0.141266 0.875153 0.048737
0.173645 0.875305 0.048309
0.207001 0.875458 0.047913
0.240479 0.875610 0.047546
0.273499 0.875732 0.047150
0.306244 0.875854 0.046753
0.339233 0.876007 0.046387
0.372742 0.876190 0.045959
0.407227 0.876312 0.045593
0.443207 0.876465 0.045227
0.481018 0.876617 0.044861
0.521057 0.876770 0.044464
0.561859 0.876892 0.044098
0.602325 0.877045 0.043762
0.641510 0.877197 0.043396
0.678650 0.877319 0.043030
0.713104 0.877502 0.042664
0.744232 0.877655 0.042358
0.772217 0.877777 0.042023
0.798279 0.877899 0.041687
0.823334 0.878021 0.041351
0.848328 0.878174 0.041016
0.873932 0.878326 0.040649
0.899567 0.878418 0.040375
0.923737 0.878540 0.040039
0.945435 0.878693 0.039764
0.964905 0.878815 0.039429
0.982880 0.878967 0.039154
1.000000 0.879059 0.038849
0.061737 0.900177 0.049164
0.086151 0.900299 0.048737
0.114014 0.900391 0.048309
0.144653 0.900543 0.047913
0.177094 0.900635 0.047546
0.210358 0.900757 0.047150
0.243683 0.900940 0.046753
0.276489 0.901062 0.046387
0.309174 0.901154 0.045959
0.342072 0.901276 0.045593
0.375458 0.901367 0.045258
0.409973 0.901489 0.044891
0.445892 0.901611 0.044464
0.483734 0.901733 0.044128
0.523712 0.901855 0.043762
0.564392 0.901947 0.043396
0.604584 0.902069 0.043030
0.643585 0.902161 0.042694
0.680450 0.902283 0.042358
0.714630 0.902435 0.042023
0.745422 0.902557 0.041718
0.773254 0.902618 0.041382
0.799133 0.902740 0.041016
0.824097 0.902832 0.040680
0.848969 0.902954 0.040405
0.874542 0.903046 0.040070
0.900024 0.903137 0.039764
0.924042 0.903259 0.039429
0.945648 0.903381 0.039154
0.965057 0.903473 0.038849
0.982971 0.903564 0.038574
1.000000 0.903656 0.038300
0.064423 0.924164 0.048340
0.089203 0.924255 0.047943
0.117310 0.924347 0.047577
0.148010 0.924438 0.047180
0.180450 0.924530 0.046783
0.213745 0.924652 0.046387
0.246857 0.924713 0.045990
0.279541 0.924805 0.045624
0.312073 0.924896 0.045258
0.344849 0.924957 0.044891
0.378204 0.925049 0.044495
0.412689 0.925140 0.044128
0.448578 0.925232 0.043793
0.486420 0.925323 0.043396
0.526337 0.925415 0.043030
0.566833 0.925476 0.042694
