3d-lut/luts/Lucky 64.CUBE
#Created by: Adobe Photoshop Export Color Lookup Plugin
#Copyright: (C) Copyright 2017 RocketStock
TITLE "Untitled"
#LUT size
LUT_3D_SIZE 8
#data domain
#LUT data points
DOMAIN_MIN 0.000000 0.000000 0.000000
DOMAIN_MAX 0.903226 0.903226 0.903226
0.019653 0.071198 0.067200
0.106506 0.072357 0.066376
0.242279 0.073761 0.065338
0.383209 0.075378 0.064178
0.545837 0.077240 0.062958
0.711212 0.079254 0.061554
0.830994 0.081482 0.060120
0.939087 0.083893 0.058563
0.022705 0.184998 0.065369
0.113281 0.186920 0.064240
0.249908 0.189056 0.062988
0.390533 0.191467 0.061615
0.553375 0.194031 0.060150
0.716034 0.196777 0.058624
0.833557 0.199615 0.057068
0.940094 0.202606 0.055389
0.026978 0.313416 0.063019
0.121948 0.315491 0.061646
0.258942 0.317627 0.060181
0.399078 0.319916 0.058655
0.561920 0.322388 0.057129
0.721283 0.324890 0.055450
0.836273 0.327515 0.053833
0.941162 0.330170 0.052185
0.032410 0.448273 0.060272
0.132294 0.450500 0.058716
0.269135 0.452759 0.057129
0.408630 0.455170 0.055542
0.571136 0.457642 0.053894
0.726807 0.460205 0.052246
0.839111 0.462860 0.050598
0.942169 0.465454 0.048950
0.039154 0.605804 0.057220
0.144043 0.607819 0.055573
0.280121 0.609924 0.053925
0.418854 0.612091 0.052307
0.580719 0.614288 0.050659
0.732300 0.616486 0.049011
0.842041 0.618652 0.047424
0.943237 0.620819 0.045898
0.047211 0.745789 0.053986
0.156769 0.746948 0.052368
0.291656 0.748169 0.050690
0.429596 0.749359 0.049072
0.590424 0.750549 0.047455
0.737762 0.751740 0.045929
0.844910 0.752930 0.044434
0.944214 0.754028 0.042969
0.056610 0.849182 0.050751
0.170227 0.849823 0.049133
0.303345 0.850525 0.047546
0.440491 0.851196 0.045959
0.600006 0.851868 0.044464
0.742950 0.852509 0.042999
0.847656 0.853149 0.041687
0.945190 0.853760 0.040375
0.067108 0.945709 0.047577
0.183838 0.945923 0.046021
0.314972 0.946167 0.044495
0.451294 0.946411 0.043060
0.609100 0.946594 0.041718
0.747772 0.946838 0.040405
0.850189 0.946991 0.039185
0.946045 0.947205 0.038055
0.020172 0.071594 0.176697
0.107605 0.072845 0.175537
0.243591 0.074341 0.174225
0.384521 0.076019 0.172699
0.547089 0.077942 0.170990
0.712097 0.080048 0.169189
0.831482 0.082336 0.167236
0.939301 0.084808 0.165222
0.023438 0.185669 0.174255
0.114777 0.187714 0.172760
0.251465 0.189941 0.171051
0.392029 0.192383 0.169281
0.554932 0.195007 0.167328
0.716980 0.197784 0.165283
0.834045 0.200714 0.163147
0.940277 0.203705 0.160950
0.027893 0.314178 0.171143
0.123779 0.316223 0.169342
0.260742 0.318481 0.167389
0.400818 0.320831 0.165344
0.563568 0.323273 0.163208
0.722351 0.325836 0.160980
0.836761 0.328491 0.158752
0.941345 0.331177 0.156464
0.033630 0.449066 0.167450
0.134399 0.451324 0.165405
0.271088 0.453674 0.163300
0.410492 0.456055 0.161072
0.572876 0.458588 0.158844
0.727844 0.461182 0.156525
0.839691 0.463837 0.154205
0.942352 0.466461 0.151917
0.040558 0.606506 0.163361
0.146332 0.608582 0.161163
0.282257 0.610748 0.158905
0.420837 0.612915 0.156555
0.582581 0.615082 0.154266
0.733337 0.617310 0.151947
0.842560 0.619476 0.149689
0.943420 0.621643 0.147430
0.048828 0.746246 0.158997
0.159241 0.747406 0.156677
0.293762 0.748627 0.154358
0.431610 0.749847 0.152039
0.592316 0.750977 0.149750
0.738770 0.752167 0.147491
0.845398 0.753357 0.145264
0.944427 0.754425 0.143127
0.058441 0.849396 0.154419
0.172760 0.850067 0.152130
0.305481 0.850769 0.149841
0.442474 0.851410 0.147552
0.601776 0.852112 0.145355
0.743896 0.852722 0.143158
0.848145 0.853363 0.141083
0.945343 0.853973 0.139069
0.069153 0.945770 0.149902
0.186462 0.946045 0.147583
0.317017 0.946259 0.145416
0.453186 0.946503 0.143280
0.610748 0.946716 0.141144
0.748627 0.946930 0.139160
0.850677 0.947113 0.137238
0.946167 0.947296 0.135498
0.020660 0.072021 0.302612
0.108795 0.073364 0.301575
0.244965 0.074921 0.300385
0.385803 0.076691 0.299011
0.548462 0.078674 0.297546
0.712952 0.080841 0.295898
0.831940 0.083221 0.294220
0.939484 0.085724 0.292358
0.024170 0.186432 0.300415
0.116302 0.188507 0.299042
0.253082 0.190826 0.297577
0.393616 0.193329 0.295959
0.556396 0.196045 0.294281
0.717957 0.198853 0.292480
0.834534 0.201782 0.290588
0.940460 0.204865 0.288635
0.028870 0.314941 0.297607
0.125641 0.317017 0.296051
0.262604 0.319305 0.294342
0.402527 0.321716 0.292542
0.565277 0.324188 0.290649
0.723358 0.326813 0.288696
0.837311 0.329437 0.286743
0.941528 0.332184 0.284698
0.034760 0.449890 0.294373
0.136536 0.452148 0.292603
0.273163 0.454529 0.290710
0.412354 0.457001 0.288757
0.574677 0.459564 0.286804
0.728882 0.462128 0.284760
0.840210 0.464722 0.282715
0.942566 0.467407 0.280670
0.042023 0.607300 0.290741
0.148682 0.609375 0.288818
0.284363 0.611542 0.286865
0.422791 0.613678 0.284882
0.584351 0.615875 0.282806
0.734375 0.618103 0.280762
0.843079 0.620300 0.278748
0.943573 0.622375 0.276764
0.050537 0.746643 0.286926
0.161743 0.747864 0.284943
0.296021 0.749054 0.282867
0.433655 0.750244 0.280823
0.594055 0.751434 0.278809
0.739716 0.752594 0.276825
0.845947 0.753754 0.274841
0.944611 0.754822 0.272919
0.060364 0.849670 0.282959
0.175323 0.850311 0.280884
0.307709 0.851013 0.278870
0.444519 0.851685 0.276886
0.603485 0.852325 0.274902
0.744781 0.852966 0.272980
0.848633 0.853577 0.271088
0.945496 0.854156 0.269379
0.071228 0.945862 0.278931
0.188965 0.946106 0.276978
0.319153 0.946350 0.274963
0.455200 0.946564 0.273041
0.612305 0.946777 0.271240
0.749420 0.946991 0.269409
0.851105 0.947174 0.267761
0.946350 0.947357 0.266205
0.021240 0.072479 0.433929
0.110046 0.073883 0.432892
0.246338 0.075562 0.431763
0.387146 0.077423 0.430420
0.549957 0.079498 0.429016
0.713837 0.081726 0.427460
0.832397 0.084137 0.425873
0.939667 0.086700 0.424164
0.024963 0.187134 0.431793
0.117920 0.189331 0.430450
0.254761 0.191711 0.429047
0.395203 0.194275 0.427490
0.558014 0.197052 0.425934
0.718933 0.199921 0.424225
0.835052 0.202942 0.422455
0.940643 0.205994 0.420654
0.029846 0.315674 0.429077
0.127563 0.317871 0.427551
0.264496 0.320190 0.425964
0.404327 0.322632 0.424286
0.566986 0.325104 0.422516
0.724365 0.327789 0.420776
0.837830 0.330444 0.418884
0.941711 0.333191 0.417053
0.036041 0.450684 0.426025
0.138702 0.453003 0.424347
0.275177 0.455444 0.422638
0.414276 0.457916 0.420807
0.576447 0.460449 0.418976
0.729858 0.463043 0.417145
0.840729 0.465729 0.415314
0.942749 0.468414 0.413422
0.043457 0.608032 0.422668
0.151031 0.610138 0.420868
0.286499 0.612305 0.419037
0.424835 0.614471 0.417236
0.586182 0.616699 0.415375
0.735443 0.618896 0.413483
0.843628 0.621033 0.411652
0.943756 0.623230 0.409821
0.052338 0.747101 0.419098
0.164246 0.748322 0.417267
0.298187 0.749481 0.415436
0.435638 0.750671 0.413544
0.595856 0.751862 0.411682
0.740723 0.753052 0.409912
0.846436 0.754150 0.408173
0.944763 0.755219 0.406464
0.062347 0.849915 0.415497
0.177856 0.850586 0.413605
0.309875 0.851257 0.411804
0.446564 0.851929 0.410004
0.605133 0.852539 0.408203
0.745697 0.853210 0.406525
0.849121 0.853790 0.404877
0.945679 0.854401 0.403320
0.073334 0.945953 0.411865
0.191467 0.946198 0.410034
0.321228 0.946411 0.408295
0.457123 0.946655 0.406555
0.613892 0.946869 0.404938
0.750244 0.947052 0.403381
0.851532 0.947235 0.401886
0.946472 0.947418 0.400574
0.021851 0.072998 0.589020
0.111359 0.074493 0.588104
0.247833 0.076233 0.586975
0.388550 0.078186 0.585846
0.551361 0.080292 0.584473
0.714752 0.082550 0.583099
0.832886 0.085052 0.581573
0.939880 0.087677 0.580109
0.025787 0.187897 0.587036
0.119598 0.190155 0.585846
0.256531 0.192627 0.584503
0.396790 0.195282 0.583130
0.559692 0.198090 0.581635
0.719910 0.200989 0.580139
0.835571 0.204041 0.578522
0.940857 0.207153 0.576874
0.030914 0.316437 0.584595
0.129517 0.318695 0.583160
0.266449 0.321045 0.581665
0.406158 0.323547 0.580170
0.568726 0.326080 0.578552
0.725403 0.328735 0.576965
0.838379 0.331451 0.575256
0.941925 0.334137 0.573578
0.037292 0.451538 0.581757
0.140961 0.453888 0.580200
0.277252 0.456299 0.578613
0.416229 0.458862 0.576996
0.578247 0.461456 0.575287
0.730927 0.464050 0.573639
0.841278 0.466675 0.571930
0.942932 0.469330 0.570190
0.045013 0.608826 0.578674
0.153473 0.610931 0.577026
0.288666 0.613129 0.575378
0.426819 0.615326 0.573700
0.588013 0.617523 0.571960
0.736420 0.619690 0.570221
0.844147 0.621857 0.568542
0.943970 0.623993 0.566895
0.054077 0.747559 0.575409
0.166748 0.748718 0.573730
0.300385 0.749939 0.571991
0.437714 0.751129 0.570312
0.597626 0.752258 0.568634
0.741638 0.753448 0.566986
0.846985 0.754547 0.565369
0.944946 0.755615 0.563782
0.064362 0.850159 0.572052
0.180389 0.850861 0.570343
0.312042 0.851501 0.568665
0.448517 0.852173 0.567017
0.606873 0.852814 0.565430
0.746582 0.853424 0.563873
0.849609 0.854034 0.562378
0.945831 0.854584 0.560974
0.075439 0.946045 0.568726
0.193939 0.946289 0.567047
0.323303 0.946503 0.565460
0.459045 0.946747 0.563904
0.615417 0.946930 0.562408
0.751007 0.947113 0.561005
0.851990 0.947327 0.559662
0.946594 0.947479 0.558411
0.022491 0.073517 0.734070
0.112732 0.075104 0.733490
0.249329 0.076904 0.732849
0.390015 0.078888 0.732147
0.552856 0.081085 0.731384
0.715668 0.083466 0.730560
0.833344 0.085968 0.729706
0.940033 0.088623 0.728821
0.026642 0.188721 0.732910
0.121307 0.191071 0.732147
0.258301 0.193604 0.731415
0.398499 0.196289 0.730591
0.561310 0.199097 0.729706
0.720917 0.202118 0.728851
0.836090 0.205170 0.727936
0.941040 0.208282 0.726959
0.032013 0.317261 0.731445
0.131561 0.319580 0.730621
0.268372 0.321960 0.729736
0.407928 0.324463 0.728882
0.570465 0.327057 0.727936
0.726410 0.329712 0.726990
0.838928 0.332458 0.725983
0.942108 0.335144 0.725037
0.038666 0.452393 0.729767
0.143188 0.454742 0.728912
0.279327 0.457214 0.727997
0.418152 0.459808 0.727020
0.580109 0.462372 0.726013
0.731934 0.464996 0.725067
0.841797 0.467621 0.724060
0.943146 0.470306 0.723083
0.046600 0.609558 0.728027
0.155914 0.611786 0.727051
0.290833 0.613953 0.726044
0.428833 0.616089 0.725098
0.589752 0.618317 0.724091
0.737427 0.620483 0.723114
0.844696 0.622650 0.722168
0.944183 0.624695 0.721191
0.055908 0.747986 0.726105
0.169312 0.749146 0.725128
0.302582 0.750366 0.724121
0.439758 0.751556 0.723145
0.599365 0.752716 0.722198
0.742645 0.753845 0.721222
0.847473 0.754944 0.720306
0.945129 0.756012 0.719391
0.066406 0.850403 0.724182
0.182953 0.851074 0.723175
0.314178 0.851746 0.722198
0.450531 0.852386 0.721252
0.608490 0.853027 0.720337
0.747467 0.853668 0.719391
0.850067 0.854218 0.718536
0.945984 0.854797 0.717743
0.077637 0.946136 0.722260
0.196411 0.946350 0.721283
0.325378 0.946594 0.720367
0.460907 0.946777 0.719452
0.616943 0.946991 0.718536
0.751801 0.947174 0.717743
0.852386 0.947357 0.716980
0.946747 0.947510 0.716278
0.023163 0.074066 0.841339
0.114166 0.075745 0.841003
0.250885 0.077606 0.840668
0.391479 0.079712 0.840302
0.554291 0.081940 0.839874
0.716644 0.084351 0.839447
0.833832 0.086945 0.839020
0.940216 0.089630 0.838531
0.027557 0.189575 0.840698
0.123077 0.191986 0.840302
0.260101 0.194580 0.839874
0.400177 0.197327 0.839478
0.562988 0.200226 0.839020
0.721954 0.203217 0.838531
0.836578 0.206299 0.838074
0.941254 0.209473 0.837555
0.033142 0.318085 0.839905
0.133636 0.320404 0.839478
0.270416 0.322876 0.839050
0.409790 0.325409 0.838531
0.572296 0.328033 0.838074
0.727417 0.330719 0.837585
0.839478 0.333435 0.837036
0.942291 0.336182 0.836548
0.040039 0.453247 0.839050
0.145477 0.455688 0.838531
0.281433 0.458160 0.838104
0.420105 0.460724 0.837585
0.581848 0.463318 0.837067
0.733002 0.466003 0.836578
0.842346 0.468597 0.836090
0.943329 0.471283 0.835602
0.048248 0.610413 0.838104
0.158356 0.612518 0.837616
0.292999 0.614716 0.837097
0.430908 0.616913 0.836578
0.591583 0.619080 0.836090
0.738403 0.621307 0.835602
0.845215 0.623413 0.835083
0.944366 0.625488 0.834625
0.057800 0.748413 0.837097
0.171844 0.749603 0.836609
0.304718 0.750793 0.836121
0.441742 0.751984 0.835632
0.601105 0.753143 0.835114
0.743591 0.754242 0.834656
0.847961 0.755310 0.834167
0.945282 0.756409 0.833710
0.068420 0.850647 0.836121
0.185486 0.851318 0.835632
0.316284 0.852020 0.835144
0.452484 0.852631 0.834656
0.610138 0.853271 0.834167
0.748322 0.853851 0.833710
0.850525 0.854462 0.833313
0.946136 0.855011 0.832916
0.079773 0.946228 0.835144
0.198883 0.946442 0.834686
0.327423 0.946655 0.834198
0.462738 0.946869 0.833740
0.618408 0.947052 0.833313
0.752533 0.947235 0.832947
0.852783 0.947418 0.832550
0.946869 0.947601 0.832214
0.023895 0.074677 0.942413
0.115723 0.076416 0.942291
0.252472 0.078369 0.942139
0.393005 0.080505 0.942017
0.555847 0.082825 0.941864
0.717621 0.085266 0.941711
0.834351 0.087921 0.941559
0.940399 0.090668 0.941376
0.028534 0.190430 0.942169
0.124908 0.192902 0.942017
0.261963 0.195557 0.941864
0.401855 0.198364 0.941711
0.564667 0.201294 0.941559
0.722961 0.204315 0.941406
0.837097 0.207458 0.941193
0.941437 0.210632 0.941010
0.034302 0.318909 0.941864
0.135742 0.321320 0.941711
0.272430 0.323792 0.941559
0.411652 0.326385 0.941406
0.574036 0.329010 0.941193
0.728485 0.331696 0.941010
0.839996 0.334412 0.940826
0.942505 0.337158 0.940613
0.041473 0.454102 0.941589
0.147827 0.456573 0.941406
0.283569 0.459106 0.941193
0.422089 0.461670 0.941010
0.583710 0.464325 0.940826
0.733978 0.466949 0.940613
0.842896 0.469574 0.940460
0.943542 0.472198 0.940277
0.049927 0.611145 0.941193
0.160828 0.613342 0.941010
0.295197 0.615509 0.940826
0.432922 0.617706 0.940643
0.593414 0.619965 0.940460
0.739380 0.622040 0.940277
0.845764 0.624176 0.940094
0.944550 0.626221 0.939911
0.059692 0.748840 0.940857
0.174408 0.750061 0.940643
0.306885 0.751251 0.940460
0.443848 0.752411 0.940277
0.602875 0.753571 0.940094
0.744476 0.754639 0.939911
0.848480 0.755737 0.939758
0.945496 0.756775 0.939636
0.070465 0.850891 0.940460
0.187958 0.851562 0.940308
0.318390 0.852203 0.940094
0.454468 0.852875 0.939941
0.611725 0.853485 0.939789
0.749115 0.854095 0.939636
0.850983 0.854645 0.939453
0.946259 0.855164 0.939301
0.081940 0.946320 0.940094
0.201294 0.946533 0.939941
0.329376 0.946777 0.939789
0.464569 0.946960 0.939636
0.619843 0.947144 0.939453
0.753296 0.947327 0.939331
0.853149 0.947510 0.939178
0.946991 0.947632 0.939056
