3d-lut/luts/Lucky 64.CUBE
#Created by: Adobe Photoshop Export Color Lookup Plugin
#Copyright: (C) Copyright 2017 RocketStock
TITLE "Untitled"
#LUT size
LUT_3D_SIZE 5
#data domain
#LUT data points
DOMAIN_MIN 0.000000 0.000000 0.000000
DOMAIN_MAX 0.903226 0.903226 0.903226
0.019653 0.071198 0.067200
0.206970 0.073395 0.065613
0.460052 0.076294 0.063599
0.745117 0.079803 0.061218
0.939087 0.083893 0.058563
0.025818 0.281555 0.063629
0.221619 0.285156 0.061279
0.474152 0.289276 0.058655
0.752289 0.293701 0.055847
0.940887 0.298401 0.053009
0.035614 0.525513 0.058746
0.240387 0.529541 0.055939
0.491302 0.533752 0.053101
0.760193 0.538208 0.050201
0.942688 0.542694 0.047394
0.049408 0.773560 0.053192
0.261261 0.775269 0.050293
0.510223 0.777039 0.047485
0.768036 0.778778 0.044800
0.944458 0.780457 0.042328
0.067108 0.945709 0.047577
0.282501 0.946106 0.044891
0.528961 0.946533 0.042389
0.775177 0.946899 0.040070
0.946045 0.947205 0.038055
0.020538 0.071930 0.271332
0.209320 0.074402 0.269348
0.462372 0.077515 0.266846
0.746368 0.081238 0.263977
0.939453 0.085480 0.260742
0.027313 0.282806 0.266937
0.224884 0.286591 0.264099
0.477142 0.290802 0.260895
0.753754 0.295410 0.257385
0.941193 0.300232 0.253784
0.037872 0.526947 0.260986
0.244202 0.531067 0.257538
0.494781 0.535431 0.253906
0.761658 0.539886 0.250153
0.943054 0.544312 0.246429
0.052490 0.774170 0.253998
0.265259 0.775909 0.250275
0.513824 0.777679 0.246521
0.769440 0.779388 0.242889
0.944794 0.781036 0.239349
0.070770 0.945862 0.246674
0.286377 0.946259 0.243011
0.532288 0.946655 0.239471
0.776398 0.946991 0.236206
0.946289 0.947327 0.233215
0.021515 0.072754 0.508911
0.211884 0.075409 0.506958
0.464813 0.078796 0.504608
0.747681 0.082764 0.501892
0.939758 0.087158 0.498962
0.029022 0.284149 0.504669
0.228241 0.288116 0.502014
0.480255 0.292511 0.499054
0.755188 0.297150 0.495911
0.941559 0.302032 0.492706
0.040283 0.528412 0.499146
0.248016 0.532623 0.496033
0.498260 0.537079 0.492798
0.763123 0.541504 0.489563
0.943359 0.545990 0.486328
0.055603 0.774811 0.492889
0.269226 0.776550 0.489624
0.517303 0.778320 0.486389
0.770813 0.779999 0.483307
0.945099 0.781586 0.480347
0.074402 0.946014 0.486511
0.290222 0.946411 0.483398
0.535553 0.946777 0.480469
0.777557 0.947144 0.477753
0.946564 0.947449 0.475342
0.022644 0.073639 0.763245
0.214569 0.076599 0.762360
0.467438 0.080170 0.761322
0.748993 0.084290 0.760193
0.940063 0.088898 0.758911
0.030853 0.285522 0.761383
0.231720 0.289642 0.760223
0.483459 0.294189 0.758942
0.756683 0.298920 0.757599
0.941895 0.303833 0.756226
0.042847 0.529938 0.758972
0.251923 0.534271 0.757660
0.501801 0.538666 0.756256
0.764587 0.543121 0.754822
0.943695 0.547577 0.753448
0.058868 0.775452 0.756317
0.273224 0.777191 0.754852
0.520844 0.778961 0.753510
0.772156 0.780640 0.752106
0.945404 0.782166 0.750854
0.078186 0.946136 0.753540
0.293915 0.946564 0.752167
0.538666 0.946930 0.750885
0.778656 0.947235 0.749756
0.946777 0.947540 0.748688
0.023895 0.074677 0.942413
0.217438 0.077820 0.942200
0.470215 0.081665 0.941956
0.750366 0.085907 0.941650
0.940399 0.090668 0.941376
0.032776 0.287018 0.941956
0.235352 0.291290 0.941681
0.486725 0.295898 0.941406
0.758148 0.300720 0.941071
0.942261 0.305603 0.940735
0.045532 0.531494 0.941406
0.255890 0.535889 0.941071
0.505371 0.540344 0.940735
0.766083 0.544800 0.940430
0.944031 0.549133 0.940094
0.062317 0.776093 0.940765
0.277191 0.777893 0.940430
0.524353 0.779572 0.940094
0.773468 0.781189 0.939819
0.945679 0.782684 0.939514
0.081940 0.946320 0.940094
0.297577 0.946686 0.939850
0.541718 0.947021 0.939545
0.779755 0.947357 0.939270
0.946991 0.947632 0.939056
