3d-lut/luts/McKinnon 75.CUBE
#Created by: Adobe Photoshop Export Color Lookup Plugin
#Copyright: (C) Copyright 2017 RocketStock
TITLE "Cool Contrast"
#LUT size
LUT_3D_SIZE 8
#data domain
#LUT data points
DOMAIN_MIN 0.000000 0.000000 0.000000
DOMAIN_MAX 0.903226 0.903226 0.903226
0.031952 0.063995 0.093445
0.062286 0.064362 0.092560
0.099640 0.064758 0.091492
0.152557 0.065277 0.090332
0.238342 0.065887 0.089020
0.375977 0.066467 0.087585
0.544189 0.067169 0.086090
0.682922 0.067902 0.084503
0.035522 0.099945 0.091522
0.067017 0.100586 0.090363
0.106750 0.101318 0.089081
0.164429 0.102112 0.087646
0.260254 0.103027 0.086121
0.408722 0.103943 0.084564
0.576782 0.104980 0.082916
0.708130 0.105957 0.081207
0.040253 0.150055 0.089081
0.073151 0.151245 0.087677
0.115784 0.152527 0.086182
0.179596 0.153931 0.084595
0.287262 0.155365 0.082977
0.445892 0.156860 0.081299
0.609558 0.158447 0.079559
0.733185 0.160065 0.077820
0.045990 0.229095 0.086212
0.080627 0.231293 0.084656
0.126831 0.233612 0.083038
0.198273 0.236084 0.081329
0.319061 0.238678 0.079620
0.486053 0.241333 0.077881
0.641663 0.244019 0.076141
0.757141 0.246796 0.074432
0.052673 0.354584 0.083069
0.089294 0.358124 0.081390
0.139862 0.361664 0.079681
0.220795 0.365417 0.077942
0.354919 0.369263 0.076202
0.526672 0.373077 0.074463
0.672028 0.376923 0.072754
0.779449 0.380768 0.071075
0.060150 0.513428 0.079742
0.099213 0.517395 0.078003
0.155060 0.521332 0.076294
0.247131 0.525330 0.074524
0.393555 0.529205 0.072845
0.564758 0.533173 0.071136
0.699982 0.536957 0.069519
0.799469 0.540741 0.067902
0.068329 0.652679 0.076355
0.110352 0.655701 0.074554
0.172455 0.658691 0.072876
0.276794 0.661743 0.071198
0.433441 0.664612 0.069580
0.599365 0.667450 0.067993
0.724915 0.670227 0.066437
0.816864 0.672852 0.064941
0.077118 0.758118 0.072937
0.122498 0.760437 0.071259
0.191833 0.762665 0.069641
0.308624 0.764862 0.068054
0.472656 0.766907 0.066498
0.629852 0.768951 0.065033
0.746674 0.770813 0.063660
0.831604 0.772644 0.062378
0.032501 0.064117 0.138336
0.063080 0.064514 0.136993
0.100769 0.064941 0.135437
0.154541 0.065491 0.133728
0.242065 0.066071 0.131866
0.381683 0.066742 0.129791
0.550201 0.067413 0.127686
0.687592 0.068176 0.125458
0.036285 0.100159 0.135529
0.068115 0.100861 0.133820
0.108276 0.101624 0.131897
0.167053 0.102448 0.129852
0.264893 0.103333 0.127777
0.415375 0.104309 0.125519
0.582855 0.105347 0.123260
0.712830 0.106384 0.120911
0.041260 0.150543 0.131989
0.074432 0.151703 0.129944
0.117676 0.152985 0.127838
0.182800 0.154419 0.125610
0.292786 0.155884 0.123352
0.453278 0.157440 0.121002
0.615662 0.159058 0.118683
0.737732 0.160706 0.116302
0.047180 0.229858 0.127869
0.082123 0.232147 0.125671
0.129089 0.234528 0.123383
0.202179 0.237000 0.121094
0.325500 0.239655 0.118744
0.493683 0.242310 0.116364
0.647461 0.245056 0.114075
0.761414 0.247864 0.111755
0.054016 0.355896 0.123474
0.091064 0.359375 0.121155
0.142578 0.363068 0.118835
0.225464 0.366821 0.116486
0.361938 0.370605 0.114136
0.534027 0.374512 0.111816
0.677399 0.378326 0.109589
0.783356 0.382202 0.107391
0.061584 0.514923 0.118896
0.101227 0.518829 0.116547
0.158142 0.522797 0.114197
0.252441 0.526733 0.111908
0.401031 0.530731 0.109650
0.571503 0.534576 0.107422
0.704834 0.538391 0.105347
0.802856 0.542053 0.103302
0.069916 0.653778 0.114288
0.112549 0.656769 0.111969
0.175903 0.659851 0.109741
0.282623 0.662781 0.107544
0.440887 0.665710 0.105408
0.605347 0.668488 0.103333
0.729218 0.671204 0.101410
0.819824 0.673798 0.099579
0.078796 0.759003 0.109802
0.124908 0.761261 0.107574
0.195618 0.763489 0.105469
0.314667 0.765625 0.103424
0.479645 0.767670 0.101471
0.635040 0.769684 0.099609
0.750275 0.771454 0.097900
0.834045 0.773224 0.096283
0.033142 0.064240 0.205688
0.063904 0.064667 0.203430
0.102020 0.065125 0.200897
0.156647 0.065704 0.198090
0.245911 0.066284 0.195038
0.387573 0.067017 0.191833
0.556274 0.067688 0.188446
0.692261 0.068420 0.184937
0.037170 0.100403 0.200989
0.069183 0.101135 0.198181
0.109894 0.101929 0.195129
0.169739 0.102814 0.191925
0.269714 0.103699 0.188599
0.422150 0.104675 0.185089
0.588959 0.105682 0.181549
0.717499 0.106781 0.178040
0.042267 0.150940 0.195251
0.075775 0.152130 0.192047
0.119659 0.153503 0.188690
0.186188 0.154968 0.185181
0.298584 0.156464 0.181671
0.460693 0.158020 0.178070
0.621613 0.159637 0.174561
0.742310 0.161316 0.170990
0.048401 0.230713 0.188812
0.083679 0.233002 0.185364
0.131439 0.235413 0.181793
0.206207 0.237976 0.178253
0.331940 0.240631 0.174683
0.501312 0.243317 0.171143
0.653198 0.246063 0.167633
0.765747 0.248901 0.164215
0.055359 0.357178 0.181946
0.092865 0.360779 0.178375
0.145355 0.364410 0.174805
0.230194 0.368195 0.171234
0.369110 0.372009 0.167786
0.541229 0.375854 0.164398
0.682709 0.379791 0.161041
0.787140 0.383575 0.157806
0.063080 0.516357 0.174957
0.103210 0.520325 0.171387
0.161316 0.524323 0.167877
0.257843 0.528198 0.164459
0.408386 0.532166 0.161133
0.578094 0.536011 0.157928
0.709625 0.539703 0.154846
0.806244 0.543335 0.151917
0.071533 0.654907 0.168030
0.114777 0.657928 0.164581
0.179382 0.660889 0.161255
0.288422 0.663879 0.158020
0.448303 0.666718 0.154968
0.611176 0.669464 0.152008
0.733459 0.672180 0.149231
0.822693 0.674713 0.146637
0.080505 0.759796 0.161377
0.127289 0.762085 0.158112
0.199493 0.764282 0.155029
0.320740 0.766388 0.152100
0.486572 0.768402 0.149353
0.640106 0.770355 0.146698
0.753815 0.772125 0.144318
0.836395 0.773804 0.142090
0.033783 0.064392 0.312439
0.064758 0.064819 0.308838
0.103333 0.065308 0.304810
0.158783 0.065918 0.300262
0.250000 0.066559 0.295471
0.393677 0.067200 0.290314
0.562347 0.067963 0.284882
0.696960 0.068726 0.279388
0.037994 0.100647 0.304932
0.070312 0.101410 0.300446
0.111511 0.102203 0.295593
0.172546 0.103088 0.290466
0.274719 0.104034 0.285126
0.429077 0.105042 0.279572
0.595154 0.106049 0.273895
0.722229 0.107147 0.268250
0.043335 0.151398 0.295776
0.077179 0.152679 0.290619
0.121704 0.154053 0.285278
0.189636 0.155518 0.279755
0.304443 0.157013 0.274078
0.468231 0.158630 0.268402
0.627594 0.160278 0.262665
0.746765 0.161957 0.257019
0.049652 0.231476 0.285461
0.085327 0.233887 0.279938
0.133881 0.236298 0.274261
0.210419 0.238953 0.268585
0.338593 0.241608 0.262878
0.509033 0.244354 0.257172
0.658875 0.247101 0.251617
0.769897 0.249908 0.246094
0.056763 0.358459 0.274445
0.094696 0.362061 0.268799
0.148163 0.365814 0.263031
0.235046 0.369507 0.257385
0.376251 0.373413 0.251770
0.548462 0.377319 0.246277
0.687958 0.381165 0.240997
0.790955 0.385040 0.235901
0.064636 0.517822 0.263214
0.105316 0.521729 0.257599
0.164551 0.525757 0.251984
0.263367 0.529663 0.246460
0.415863 0.533508 0.241119
0.584534 0.537354 0.236053
0.714325 0.541077 0.231140
0.809479 0.544586 0.226471
0.073151 0.655945 0.252136
0.117004 0.659027 0.246613
0.183044 0.661987 0.241333
0.294373 0.664886 0.236176
0.455627 0.667786 0.231232
0.616882 0.670471 0.226654
0.737518 0.673126 0.222290
0.825439 0.675568 0.218201
0.082214 0.760681 0.241516
0.129700 0.762878 0.236298
0.203430 0.765045 0.231445
0.326782 0.767090 0.226807
0.493317 0.769165 0.222443
0.644958 0.770966 0.218292
0.757263 0.772797 0.214539
0.838593 0.774414 0.211151
0.034515 0.064575 0.456055
0.065674 0.065002 0.451508
0.104706 0.065521 0.446289
0.161133 0.066132 0.440674
0.254242 0.066833 0.434448
0.399811 0.067474 0.427979
0.568420 0.068268 0.421021
0.701691 0.069000 0.413849
0.038910 0.100922 0.446533
0.071503 0.101685 0.440887
0.113251 0.102509 0.434692
0.175446 0.103455 0.428131
0.279968 0.104401 0.421234
0.436066 0.105438 0.414093
0.601257 0.106445 0.406708
0.726837 0.107544 0.399200
0.044434 0.151825 0.434875
0.078583 0.153168 0.428375
0.123810 0.154541 0.421448
0.193176 0.156036 0.414337
0.310547 0.157593 0.407013
0.475677 0.159210 0.399445
0.633575 0.160828 0.391907
0.751221 0.162567 0.384216
0.050873 0.232391 0.421692
0.087006 0.234741 0.414520
0.136353 0.237213 0.407257
0.214722 0.239868 0.399658
0.345428 0.242584 0.392120
0.516571 0.245331 0.384491
0.664490 0.248138 0.376953
0.773987 0.250946 0.369476
0.058167 0.359741 0.407410
0.096588 0.363434 0.399963
0.151001 0.367157 0.392395
0.240143 0.371033 0.384705
0.383453 0.374847 0.377136
0.555511 0.378754 0.369720
0.693054 0.382599 0.362427
0.794586 0.386414 0.355255
0.066162 0.519287 0.392609
0.107391 0.523193 0.385040
0.167847 0.527191 0.377380
0.268951 0.531128 0.369965
0.423340 0.534973 0.362671
0.590912 0.538696 0.355560
0.718872 0.542389 0.348663
0.812714 0.545929 0.342072
0.074829 0.657104 0.377655
0.119324 0.660126 0.370209
0.186707 0.663086 0.362885
0.300323 0.665985 0.355774
0.462860 0.668793 0.348877
0.622406 0.671478 0.342316
0.741486 0.674011 0.336121
0.828064 0.676453 0.330322
0.083954 0.761444 0.363159
0.132202 0.763672 0.355988
0.207397 0.765839 0.349152
0.332886 0.767883 0.342529
0.500153 0.769867 0.336273
0.649658 0.771667 0.330505
0.760559 0.773407 0.325104
0.840759 0.774963 0.320190
0.035217 0.064697 0.600006
0.066650 0.065186 0.596069
0.106171 0.065765 0.591522
0.163574 0.066345 0.586487
0.258667 0.067078 0.581116
0.406281 0.067749 0.575226
0.574463 0.068512 0.568970
0.706390 0.069336 0.562408
0.039886 0.101166 0.591705
0.072723 0.101990 0.586761
0.115143 0.102875 0.581268
0.178467 0.103790 0.575439
0.285339 0.104767 0.569122
0.443237 0.105774 0.562592
0.607361 0.106873 0.555725
0.731445 0.108002 0.548615
0.045563 0.152313 0.581482
0.080048 0.153656 0.575653
0.125977 0.155090 0.569427
0.196899 0.156616 0.562775
0.316803 0.158203 0.555939
0.483307 0.159821 0.548828
0.639526 0.161530 0.541473
0.755615 0.163208 0.533966
0.052185 0.233215 0.569611
0.088684 0.235657 0.562988
0.138916 0.238220 0.556152
0.219147 0.240845 0.549042
0.352295 0.243591 0.541779
0.524078 0.246338 0.534271
0.669983 0.249176 0.526642
0.777985 0.252014 0.519012
0.059570 0.361084 0.556396
0.098541 0.364777 0.549255
0.153992 0.368561 0.541962
0.245270 0.372437 0.534454
0.390839 0.376251 0.526886
0.562347 0.380127 0.519165
0.698090 0.383942 0.511505
0.798187 0.387726 0.503937
0.067749 0.520691 0.542175
0.109528 0.524658 0.534760
0.171204 0.528625 0.527130
0.274719 0.532562 0.519409
0.430756 0.536346 0.511749
0.597137 0.540131 0.504181
0.723358 0.543640 0.496674
0.815796 0.547180 0.489471
0.076508 0.658234 0.527405
0.121674 0.661163 0.519714
0.190430 0.664154 0.511993
0.306366 0.667023 0.504425
0.470001 0.669800 0.496918
0.627808 0.672394 0.489716
0.745300 0.674957 0.482819
0.830688 0.677307 0.476196
0.085693 0.762299 0.512268
0.134674 0.764465 0.504669
0.211456 0.766571 0.497162
0.338898 0.768585 0.489990
0.506592 0.770538 0.483002
0.654236 0.772339 0.476471
0.763672 0.774017 0.470337
0.842804 0.775513 0.464783
0.036041 0.064850 0.712128
0.067688 0.065399 0.708923
0.107697 0.065979 0.705292
0.166077 0.066589 0.701294
0.263214 0.067291 0.696991
0.412964 0.068054 0.692322
0.580627 0.068787 0.687469
0.711151 0.069641 0.682312
0.040894 0.101501 0.705383
0.073975 0.102295 0.701447
0.116974 0.103210 0.697113
0.181610 0.104156 0.692505
0.290802 0.105164 0.687653
0.450500 0.106171 0.682495
0.613434 0.107269 0.677124
0.736053 0.108398 0.671600
0.046722 0.152802 0.697296
0.081573 0.154175 0.692688
0.128235 0.155640 0.687744
0.200775 0.157166 0.682617
0.323120 0.158783 0.677307
0.490906 0.160431 0.671783
0.645355 0.162140 0.666077
0.759888 0.163849 0.660278
0.053497 0.234100 0.687958
0.090424 0.236572 0.682800
0.141510 0.239197 0.677429
0.223694 0.241852 0.671967
0.359283 0.244598 0.666290
0.531403 0.247406 0.660492
0.675446 0.250244 0.654633
0.781891 0.253021 0.648773
0.061066 0.362427 0.677704
0.100494 0.366211 0.672119
0.157013 0.369965 0.666443
0.250519 0.373871 0.660675
0.398193 0.377655 0.654846
0.569061 0.381561 0.648895
0.703033 0.385376 0.643066
0.801666 0.389130 0.637207
0.069336 0.522186 0.666626
0.111755 0.526093 0.660858
0.174622 0.530090 0.654968
0.280426 0.533966 0.649078
0.438141 0.537720 0.643250
0.603241 0.541412 0.637390
0.727661 0.544952 0.631714
0.818756 0.548370 0.626129
0.078156 0.659332 0.655212
0.123993 0.662292 0.649353
0.194244 0.665192 0.643433
0.312439 0.668060 0.637604
0.477112 0.670715 0.631897
0.633118 0.673340 0.626312
0.748993 0.675842 0.621033
0.833130 0.678162 0.615906
0.087463 0.763123 0.643616
0.137177 0.765289 0.637787
0.215546 0.767334 0.632050
0.344849 0.769318 0.626526
0.512878 0.771179 0.621155
0.658661 0.772919 0.616089
0.766693 0.774536 0.611328
0.844757 0.776031 0.606964
0.036835 0.065033 0.797882
0.068756 0.065613 0.795349
0.109283 0.066193 0.792572
0.168701 0.066864 0.789429
0.267944 0.067566 0.786102
0.419647 0.068329 0.782532
0.586761 0.069092 0.778687
0.715820 0.069916 0.774689
0.041870 0.101776 0.792664
0.075287 0.102631 0.789551
0.118927 0.103546 0.786194
0.184906 0.104523 0.782654
0.296509 0.105530 0.778839
0.457947 0.106598 0.774872
0.619507 0.107697 0.770721
0.740631 0.108826 0.766418
0.047974 0.153290 0.786285
0.083130 0.154694 0.782776
0.130615 0.156189 0.778931
0.204742 0.157745 0.775024
0.329620 0.159363 0.770813
0.498535 0.161041 0.766602
0.651154 0.162750 0.762238
0.764160 0.164459 0.757751
0.054871 0.235016 0.779114
0.092224 0.237549 0.775146
0.144287 0.240143 0.770966
0.228455 0.242859 0.766754
0.366486 0.245636 0.762390
0.538635 0.248444 0.757904
0.680847 0.251251 0.753387
0.785736 0.254059 0.748901
0.062531 0.363770 0.771118
0.102509 0.367554 0.766876
0.160156 0.371399 0.762543
0.255890 0.375275 0.758026
0.405731 0.379089 0.753571
0.575745 0.382904 0.749084
0.707916 0.386780 0.744568
0.805023 0.390472 0.740112
0.070953 0.523621 0.762665
0.113983 0.527649 0.758179
0.178131 0.531525 0.753693
0.286316 0.535309 0.749207
0.445526 0.539032 0.744690
0.609070 0.542725 0.740234
0.731873 0.546234 0.735901
0.821655 0.549500 0.731720
0.079895 0.660461 0.753845
0.126373 0.663391 0.749359
0.198120 0.666260 0.744843
0.318512 0.669067 0.740417
0.484070 0.671722 0.736115
0.638245 0.674255 0.731842
0.752563 0.676697 0.727844
0.835541 0.678955 0.724030
0.089203 0.763885 0.744965
0.139679 0.766022 0.740601
0.219635 0.768066 0.736206
0.350800 0.770020 0.732025
0.519012 0.771851 0.727966
0.662903 0.773560 0.724121
0.769653 0.775146 0.720551
0.846649 0.776520 0.717285
