3d-lut/luts/McKinnon 75.CUBE
#Created by: Adobe Photoshop Export Color Lookup Plugin
#Copyright: (C) Copyright 2017 RocketStock
TITLE "Cool Contrast"
#LUT size
LUT_3D_SIZE 32
#data domain
DOMAIN_MIN 0.0 0.0 0.0
DOMAIN_MAX 1.0 1.0 1.0
#LUT data points
0.031952 0.063995 0.093445
0.039215 0.064056 0.093231
0.046631 0.064148 0.092987
0.054291 0.064270 0.092773
0.062286 0.064362 0.092560
0.070740 0.064453 0.092316
0.079681 0.064575 0.092010
0.089264 0.064667 0.091766
0.099640 0.064758 0.091492
0.110962 0.064880 0.091217
0.123352 0.065002 0.090912
0.137146 0.065155 0.090607
0.152557 0.065277 0.090332
0.169922 0.065430 0.089996
0.189667 0.065582 0.089661
0.212341 0.065704 0.089325
0.238342 0.065887 0.089020
0.267914 0.066010 0.088684
0.300842 0.066162 0.088318
0.337006 0.066315 0.087921
0.375977 0.066467 0.087585
0.417145 0.066650 0.087219
0.459839 0.066833 0.086853
0.502930 0.067017 0.086456
0.544189 0.067169 0.086090
0.582825 0.067352 0.085693
0.618652 0.067535 0.085297
0.651886 0.067688 0.084900
0.682922 0.067902 0.084503
0.711700 0.068085 0.084106
0.738556 0.068268 0.083679
0.763397 0.068481 0.083282
0.032715 0.072083 0.093018
0.040039 0.072205 0.092804
0.047516 0.072327 0.092560
0.055237 0.072418 0.092316
0.063324 0.072571 0.092041
0.071869 0.072662 0.091766
0.080963 0.072784 0.091492
0.090668 0.072937 0.091248
0.101227 0.073059 0.090942
0.112732 0.073181 0.090637
0.125397 0.073334 0.090332
0.139496 0.073486 0.089996
0.155243 0.073608 0.089661
0.173004 0.073792 0.089355
0.193329 0.073914 0.089020
0.216583 0.074066 0.088684
0.243347 0.074249 0.088318
0.273621 0.074432 0.087921
0.307281 0.074554 0.087585
0.344086 0.074738 0.087250
0.383636 0.074921 0.086884
0.425232 0.075104 0.086487
0.468323 0.075287 0.086090
0.511383 0.075500 0.085693
0.552277 0.075684 0.085327
0.590332 0.075867 0.084900
0.625763 0.076050 0.084534
0.658539 0.076263 0.084106
0.689178 0.076447 0.083679
0.717560 0.076630 0.083313
0.744019 0.076843 0.082855
0.768585 0.077087 0.082458
0.033569 0.080750 0.092560
0.040924 0.080872 0.092316
0.048523 0.080994 0.092072
0.056305 0.081146 0.091766
0.064484 0.081238 0.091522
0.073120 0.081360 0.091248
0.082306 0.081512 0.090942
0.092194 0.081635 0.090637
0.102936 0.081818 0.090332
0.114685 0.081970 0.090027
0.127594 0.082123 0.089691
0.141998 0.082275 0.089355
0.158142 0.082458 0.089050
0.176361 0.082611 0.088684
0.197235 0.082794 0.088348
0.221191 0.082977 0.087952
0.248657 0.083160 0.087616
0.279755 0.083344 0.087250
0.314026 0.083496 0.086914
0.351532 0.083679 0.086487
0.391693 0.083893 0.086090
0.433716 0.084106 0.085724
0.476990 0.084290 0.085327
0.520020 0.084534 0.084930
0.560364 0.084717 0.084534
0.597900 0.084930 0.084137
0.632721 0.085144 0.083679
0.665283 0.085327 0.083313
0.695496 0.085571 0.082886
0.723480 0.085785 0.082458
0.749603 0.085999 0.082062
0.773682 0.086243 0.081573
0.034515 0.089966 0.092072
0.041901 0.090149 0.091766
0.049530 0.090271 0.091522
0.057465 0.090424 0.091248
0.065704 0.090576 0.090942
0.074463 0.090729 0.090668
0.083801 0.090881 0.090332
0.093872 0.091003 0.090027
0.104767 0.091187 0.089691
0.116730 0.091370 0.089386
0.129944 0.091553 0.089050
0.144623 0.091736 0.088684
0.161224 0.091919 0.088348
0.179932 0.092102 0.087982
0.201355 0.092316 0.087646
0.226044 0.092468 0.087250
0.254303 0.092712 0.086914
0.286163 0.092926 0.086517
0.321167 0.093140 0.086090
0.359344 0.093323 0.085754
0.400085 0.093536 0.085327
0.442505 0.093750 0.084930
0.485992 0.093994 0.084534
0.528717 0.094208 0.084137
0.568512 0.094452 0.083679
0.605621 0.094666 0.083313
0.640015 0.094910 0.082916
0.671997 0.095154 0.082458
0.701874 0.095367 0.082062
0.729401 0.095612 0.081635
0.755096 0.095856 0.081207
0.778839 0.096130 0.080780
0.035522 0.099945 0.091522
0.042969 0.100067 0.091248
0.050629 0.100281 0.090973
0.058655 0.100433 0.090668
0.067017 0.100586 0.090363
0.075897 0.100769 0.090027
0.085388 0.100922 0.089691
0.095612 0.101135 0.089417
0.106750 0.101318 0.089081
0.118927 0.101532 0.088684
0.132416 0.101715 0.088379
0.147522 0.101929 0.088013
0.164429 0.102112 0.087646
0.183716 0.102325 0.087280
0.205811 0.102570 0.086914
0.231201 0.102814 0.086548
0.260254 0.103027 0.086121
0.292786 0.103241 0.085754
0.328613 0.103455 0.085327
0.367493 0.103729 0.084930
0.408722 0.103943 0.084564
0.451599 0.104187 0.084167
0.495148 0.104431 0.083710
0.537354 0.104675 0.083344
0.576782 0.104980 0.082916
0.613251 0.105225 0.082489
0.647186 0.105469 0.082062
0.678772 0.105713 0.081635
0.708130 0.105957 0.081207
0.735352 0.106232 0.080780
0.760620 0.106506 0.080353
0.783966 0.106781 0.079926
0.036591 0.110748 0.090973
0.044098 0.110962 0.090668
0.051880 0.111115 0.090363
0.059967 0.111298 0.090027
0.068420 0.111511 0.089752
0.077423 0.111725 0.089417
0.087067 0.111908 0.089081
0.097473 0.112122 0.088715
0.108826 0.112366 0.088379
0.121246 0.112549 0.088013
0.135071 0.112793 0.087646
0.150543 0.113037 0.087280
0.167938 0.113251 0.086914
0.187744 0.113495 0.086548
0.210541 0.113739 0.086151
0.236725 0.113983 0.085754
0.266541 0.114258 0.085327
0.299927 0.114502 0.084961
0.336456 0.114746 0.084564
0.375916 0.115021 0.084167
0.417664 0.115326 0.083740
0.460815 0.115540 0.083344
0.504486 0.115845 0.082916
0.546112 0.116119 0.082520
0.584961 0.116364 0.082092
0.621033 0.116669 0.081635
0.654419 0.116974 0.081238
0.685577 0.117279 0.080780
0.714478 0.117554 0.080383
0.741241 0.117859 0.079956
0.766144 0.118134 0.079529
0.789001 0.118439 0.079071
0.037720 0.122589 0.090363
0.045319 0.122772 0.090057
0.053131 0.122986 0.089752
0.061310 0.123199 0.089417
0.069946 0.123413 0.089081
0.079041 0.123718 0.088715
0.088837 0.123901 0.088409
0.099487 0.124146 0.088013
0.111023 0.124420 0.087646
0.123718 0.124634 0.087311
0.137848 0.124939 0.086914
0.153717 0.125183 0.086548
0.171631 0.125427 0.086151
0.192047 0.125732 0.085754
0.215515 0.125977 0.085358
0.242462 0.126251 0.084961
0.273193 0.126556 0.084595
0.307281 0.126831 0.084167
0.344513 0.127136 0.083771
0.384583 0.127441 0.083344
0.426758 0.127747 0.082947
0.470337 0.128052 0.082520
0.513885 0.128357 0.082092
0.554962 0.128662 0.081665
0.593140 0.128998 0.081238
0.628693 0.129303 0.080811
0.661621 0.129608 0.080414
0.692291 0.129944 0.079956
0.720734 0.130280 0.079559
0.747131 0.130615 0.079102
0.771545 0.130920 0.078674
0.794006 0.131256 0.078247
0.038940 0.135590 0.089752
0.046600 0.135834 0.089417
0.054504 0.136078 0.089081
0.062775 0.136353 0.088715
0.071533 0.136627 0.088409
0.080780 0.136841 0.088013
0.090759 0.137177 0.087646
0.101532 0.137390 0.087311
0.113342 0.137726 0.086945
0.126343 0.138000 0.086578
0.140839 0.138275 0.086151
0.157104 0.138611 0.085785
0.175476 0.138885 0.085388
0.196564 0.139221 0.084991
0.220795 0.139557 0.084595
0.248596 0.139832 0.084167
0.280060 0.140167 0.083771
0.314941 0.140503 0.083374
0.352905 0.140839 0.082977
0.393677 0.141174 0.082550
0.436218 0.141479 0.082092
0.479980 0.141876 0.081696
0.523224 0.142212 0.081238
0.563721 0.142548 0.080841
0.601471 0.142914 0.080414
0.636414 0.143280 0.079956
0.668793 0.143646 0.079559
0.698944 0.143982 0.079102
0.727020 0.144379 0.078674
0.752930 0.144714 0.078247
0.776886 0.145111 0.077789
0.798981 0.145447 0.077362
0.040253 0.150055 0.089081
0.047974 0.150391 0.088745
0.055969 0.150635 0.088409
0.064362 0.150970 0.088043
0.073151 0.151245 0.087677
0.082581 0.151581 0.087311
0.092712 0.151855 0.086945
0.103729 0.152191 0.086578
0.115784 0.152527 0.086182
0.129089 0.152863 0.085785
0.143951 0.153198 0.085419
0.160645 0.153534 0.084991
0.179596 0.153931 0.084595
0.201294 0.154236 0.084198
0.226349 0.154602 0.083771
0.254974 0.154968 0.083374
0.287262 0.155365 0.082977
0.322968 0.155701 0.082550
0.361603 0.156097 0.082123
0.402893 0.156525 0.081696
0.445892 0.156860 0.081299
0.489807 0.157257 0.080841
0.532654 0.157684 0.080414
0.572479 0.158051 0.079987
0.609558 0.158447 0.079559
0.644012 0.158875 0.079102
0.675934 0.159271 0.078705
0.705658 0.159698 0.078247
0.733185 0.160065 0.077820
0.758606 0.160461 0.077393
0.782227 0.160950 0.076965
0.803802 0.161377 0.076538
0.041595 0.166290 0.088409
0.049377 0.166595 0.088043
0.057495 0.166962 0.087708
0.065948 0.167328 0.087311
0.074921 0.167633 0.086975
0.084473 0.168030 0.086578
0.094788 0.168396 0.086182
0.106018 0.168732 0.085815
0.118347 0.169128 0.085419
0.131989 0.169495 0.085022
0.147247 0.169922 0.084625
0.164429 0.170319 0.084198
0.183899 0.170746 0.083801
0.206329 0.171112 0.083405
0.232208 0.171570 0.082977
0.261627 0.171967 0.082550
0.294769 0.172363 0.082153
0.331146 0.172791 0.081726
0.370605 0.173248 0.081299
0.412415 0.173706 0.080841
0.455719 0.174133 0.080444
0.499634 0.174561 0.079987
0.542053 0.175049 0.079590
0.581207 0.175476 0.079102
0.617737 0.175934 0.078705
0.651611 0.176392 0.078247
0.683014 0.176849 0.077850
0.712219 0.177307 0.077393
0.739227 0.177795 0.076965
0.764343 0.178253 0.076538
0.787506 0.178772 0.076111
0.808655 0.179230 0.075684
0.043030 0.184570 0.087708
0.050842 0.184906 0.087341
0.059021 0.185394 0.086975
0.067627 0.185760 0.086578
0.076721 0.186188 0.086182
0.086456 0.186615 0.085815
0.096985 0.187042 0.085419
0.108429 0.187439 0.085022
0.121033 0.187927 0.084625
0.135040 0.188385 0.084229
0.150665 0.188812 0.083801
0.168365 0.189240 0.083405
0.188507 0.189697 0.083008
0.211639 0.190186 0.082550
0.238281 0.190643 0.082153
0.268677 0.191162 0.081726
0.302643 0.191650 0.081299
0.339722 0.192139 0.080872
0.379791 0.192657 0.080444
0.422150 0.193146 0.080017
0.465668 0.193665 0.079590
0.509613 0.194153 0.079132
0.551361 0.194672 0.078705
0.589905 0.195221 0.078308
0.625824 0.195709 0.077850
0.659119 0.196228 0.077393
0.689972 0.196777 0.076965
0.718719 0.197327 0.076538
0.745361 0.197876 0.076141
0.769958 0.198425 0.075684
0.792664 0.198975 0.075256
0.813354 0.199493 0.074829
0.044495 0.205383 0.086975
0.052399 0.205811 0.086609
0.060669 0.206268 0.086212
0.069397 0.206757 0.085876
0.078613 0.207245 0.085419
0.088531 0.207733 0.085022
0.099213 0.208221 0.084656
0.110962 0.208740 0.084229
0.123871 0.209259 0.083832
0.138184 0.209778 0.083405
0.154266 0.210297 0.083008
0.172516 0.210846 0.082581
0.193237 0.211365 0.082153
0.217194 0.211914 0.081726
0.244690 0.212463 0.081299
0.275940 0.213043 0.080902
0.310699 0.213593 0.080444
0.348602 0.214142 0.080048
0.389221 0.214752 0.079620
0.432007 0.215332 0.079163
0.475861 0.215942 0.078735
0.519531 0.216522 0.078308
0.560547 0.217133 0.077881
0.598450 0.217712 0.077423
0.633759 0.218292 0.076996
0.666443 0.218964 0.076569
0.696960 0.219543 0.076141
0.725159 0.220184 0.075684
0.751312 0.220795 0.075256
0.775482 0.221375 0.074829
0.797668 0.222015 0.074402
0.817993 0.222626 0.073975
0.045990 0.229095 0.086212
0.054016 0.229614 0.085876
0.062378 0.230194 0.085449
0.071198 0.230713 0.085022
0.080627 0.231293 0.084656
0.090698 0.231873 0.084229
0.101624 0.232452 0.083832
0.113586 0.233032 0.083405
0.126831 0.233612 0.083038
0.141479 0.234222 0.082611
0.158112 0.234863 0.082153
0.176788 0.235443 0.081726
0.198273 0.236084 0.081329
0.223053 0.236725 0.080902
0.251404 0.237335 0.080505
0.283447 0.238007 0.080048
0.319061 0.238678 0.079620
0.357666 0.239288 0.079193
0.398956 0.239990 0.078735
0.442108 0.240631 0.078308
0.486053 0.241333 0.077881
0.529297 0.242004 0.077454
0.569672 0.242676 0.076996
0.606964 0.243347 0.076569
0.641663 0.244019 0.076141
0.673798 0.244720 0.075714
0.703766 0.245422 0.075287
0.731537 0.246094 0.074829
0.757141 0.246796 0.074432
0.780884 0.247559 0.073975
0.802643 0.248260 0.073578
0.822479 0.248901 0.073120
0.047607 0.255981 0.085480
0.055695 0.256592 0.085052
0.064178 0.257202 0.084656
0.073120 0.257843 0.084259
0.082642 0.258453 0.083832
0.092957 0.259155 0.083435
0.104095 0.259796 0.083069
0.116333 0.260529 0.082611
0.129883 0.261169 0.082153
0.144989 0.261841 0.081726
0.162018 0.262604 0.081360
0.181305 0.263245 0.080933
0.203552 0.264008 0.080536
0.229156 0.264679 0.080048
0.258362 0.265442 0.079651
0.291321 0.266205 0.079193
0.327667 0.266907 0.078766
0.366974 0.267639 0.078339
0.408752 0.268402 0.077911
0.452301 0.269104 0.077484
0.496307 0.269867 0.077057
0.539001 0.270660 0.076599
0.578522 0.271423 0.076172
0.615387 0.272186 0.075714
0.649475 0.272980 0.075287
0.681030 0.273712 0.074829
0.710449 0.274445 0.074432
0.737732 0.275299 0.073975
0.762878 0.276031 0.073578
0.786194 0.276794 0.073120
0.807495 0.277618 0.072723
0.826904 0.278381 0.072296
0.049255 0.285950 0.084656
0.057434 0.286682 0.084290
0.066010 0.287354 0.083862
0.075043 0.288086 0.083466
0.084778 0.288818 0.083069
0.095276 0.289612 0.082611
0.106659 0.290314 0.082214
0.119202 0.291107 0.081757
0.133087 0.291840 0.081360
0.148590 0.292603 0.080963
0.166138 0.293457 0.080536
0.186096 0.294159 0.080048
0.209076 0.294983 0.079681
0.235535 0.295776 0.079193
0.265625 0.296600 0.078796
0.299377 0.297394 0.078339
0.336548 0.298248 0.077911
0.376495 0.299011 0.077484
0.418762 0.299866 0.077057
0.462616 0.300751 0.076599
0.506531 0.301544 0.076172
0.548615 0.302368 0.075745
0.587433 0.303192 0.075317
0.623566 0.304077 0.074860
0.657104 0.304932 0.074432
0.688202 0.305695 0.074005
0.717072 0.306641 0.073608
0.743866 0.307465 0.073151
0.768555 0.308289 0.072754
0.791321 0.309143 0.072327
0.812164 0.310028 0.071899
0.831177 0.310852 0.071472
0.050903 0.318909 0.083893
0.059174 0.319702 0.083496
0.067902 0.320526 0.083069
0.077148 0.321289 0.082642
0.087006 0.322113 0.082214
0.097717 0.322906 0.081787
0.109375 0.323730 0.081360
0.122192 0.324615 0.080963
0.136383 0.325439 0.080536
0.152374 0.326294 0.080078
0.170471 0.327148 0.079681
0.191040 0.328033 0.079224
0.214783 0.328857 0.078796
0.242157 0.329773 0.078339
0.273102 0.330658 0.077942
0.307770 0.331543 0.077484
0.345612 0.332428 0.077057
0.386139 0.333374 0.076630
0.428925 0.334259 0.076202
0.472900 0.335175 0.075775
0.516724 0.335999 0.075317
0.557953 0.336914 0.074890
0.596191 0.337830 0.074463
0.631622 0.338715 0.074036
0.664642 0.339691 0.073608
0.695160 0.340576 0.073181
0.723511 0.341492 0.072754
0.749817 0.342407 0.072327
0.774048 0.343323 0.071899
0.796387 0.344299 0.071503
0.816742 0.345184 0.071075
0.835419 0.346039 0.070679
0.052673 0.354584 0.083069
0.061035 0.355530 0.082642
0.069885 0.356323 0.082214
0.079254 0.357178 0.081818
0.089294 0.358124 0.081390
0.100220 0.359009 0.080963
0.112091 0.359863 0.080536
0.125275 0.360809 0.080109
0.139862 0.361664 0.079681
0.156311 0.362610 0.079254
0.174988 0.363525 0.078827
0.196198 0.364471 0.078369
0.220795 0.365417 0.077942
0.249054 0.366364 0.077484
0.280884 0.367279 0.077087
0.316284 0.368225 0.076630
0.354919 0.369263 0.076202
0.396057 0.370209 0.075775
0.439240 0.371155 0.075348
0.483307 0.372131 0.074921
0.526672 0.373077 0.074463
0.567261 0.374023 0.074036
0.604736 0.375000 0.073608
0.639679 0.375977 0.073212
0.672028 0.376923 0.072754
0.702026 0.377869 0.072357
0.729858 0.378845 0.071930
0.755676 0.379822 0.071533
0.779449 0.380768 0.071075
0.801270 0.381714 0.070679
0.821259 0.382690 0.070251
0.839478 0.383636 0.069885
0.054474 0.392517 0.082245
0.062958 0.393494 0.081818
0.071899 0.394379 0.081390
0.081421 0.395294 0.080994
0.091675 0.396271 0.080536
0.102814 0.397217 0.080109
0.114990 0.398132 0.079681
0.128479 0.399109 0.079254
0.143494 0.400085 0.078827
0.160400 0.401062 0.078369
0.179626 0.402100 0.077942
0.201660 0.403015 0.077515
0.227020 0.403992 0.077087
0.256165 0.405029 0.076630
0.288818 0.406036 0.076202
0.325104 0.407043 0.075775
0.364410 0.408051 0.075348
0.406036 0.409027 0.074921
0.449615 0.410095 0.074493
0.493561 0.411072 0.074066
0.536530 0.412048 0.073639
0.576355 0.413116 0.073212
0.613220 0.414093 0.072784
0.647461 0.415131 0.072388
0.679260 0.416138 0.071930
0.708710 0.417145 0.071533
0.736115 0.418091 0.071075
0.761383 0.419098 0.070679
0.784668 0.420105 0.070312
0.806061 0.421112 0.069885
0.825562 0.422058 0.069458
0.843445 0.423065 0.069061
0.056305 0.432159 0.081421
0.064880 0.433136 0.080994
0.073975 0.434113 0.080566
0.083679 0.435150 0.080109
0.094116 0.436066 0.079681
0.105469 0.437103 0.079285
0.117981 0.438110 0.078827
0.131805 0.439087 0.078369
0.147217 0.440094 0.078003
0.164642 0.441162 0.077545
0.184479 0.442169 0.077118
0.207214 0.443176 0.076660
0.233551 0.444183 0.076233
0.263550 0.445312 0.075775
0.297058 0.446289 0.075378
0.334076 0.447296 0.074921
0.374023 0.448334 0.074493
0.416138 0.449371 0.074066
0.459961 0.450409 0.073639
0.503937 0.451385 0.073212
0.546173 0.452484 0.072815
0.585297 0.453522 0.072388
0.621429 0.454559 0.071930
0.655121 0.455566 0.071533
0.686371 0.456604 0.071106
0.715271 0.457581 0.070740
0.742126 0.458588 0.070312
0.766907 0.459625 0.069885
0.789764 0.460632 0.069489
0.810669 0.461639 0.069061
0.829712 0.462616 0.068695
0.847290 0.463654 0.068298
0.058197 0.472900 0.080566
0.066925 0.473907 0.080139
0.076141 0.474823 0.079712
0.085999 0.475861 0.079285
0.096649 0.476837 0.078857
0.108246 0.477844 0.078430
0.121033 0.478912 0.078003
0.135254 0.479980 0.077545
0.151062 0.480896 0.077118
0.169037 0.481995 0.076660
0.189545 0.483002 0.076233
0.213074 0.484009 0.075806
0.240234 0.485077 0.075409
0.271149 0.486115 0.074921
0.305450 0.487122 0.074524
0.343201 0.488190 0.074066
0.383636 0.489227 0.073669
0.426300 0.490265 0.073212
0.470337 0.491272 0.072815
0.514130 0.492279 0.072418
0.555603 0.493408 0.071960
0.593994 0.494415 0.071533
0.629486 0.495392 0.071136
0.662598 0.496429 0.070740
0.693268 0.497437 0.070312
0.721588 0.498444 0.069916
0.748016 0.499451 0.069519
0.772278 0.500488 0.069092
0.794708 0.501434 0.068695
0.815155 0.502411 0.068329
0.833801 0.503387 0.067902
0.851013 0.504364 0.067535
0.060150 0.513428 0.079742
0.068970 0.514435 0.079285
0.078308 0.515442 0.078888
0.088379 0.516388 0.078430
0.099213 0.517395 0.078003
0.111115 0.518372 0.077576
0.124176 0.519379 0.077148
0.138763 0.520386 0.076691
0.155060 0.521332 0.076294
0.173645 0.522339 0.075836
0.194763 0.523407 0.075409
0.219086 0.524384 0.074951
0.247131 0.525330 0.074524
0.278809 0.526306 0.074097
0.314026 0.527283 0.073669
0.352509 0.528229 0.073212
0.393555 0.529205 0.072845
0.436584 0.530273 0.072418
0.480621 0.531281 0.071991
0.524139 0.532227 0.071594
0.564758 0.533173 0.071136
0.602539 0.534149 0.070740
0.637390 0.535065 0.070343
0.669861 0.536072 0.069916
0.699982 0.536957 0.069519
0.727844 0.537964 0.069092
0.753693 0.538910 0.068695
0.777496 0.539795 0.068329
0.799469 0.540741 0.067902
0.819458 0.541626 0.067535
0.837799 0.542480 0.067139
0.854614 0.543335 0.066772
0.062164 0.551971 0.078888
0.071075 0.552887 0.078430
0.080566 0.553833 0.078033
0.090820 0.554718 0.077576
0.101929 0.555634 0.077148
0.114014 0.556580 0.076721
0.127441 0.557526 0.076294
0.142456 0.558441 0.075836
0.159210 0.559326 0.075439
0.178284 0.560303 0.074951
0.200195 0.561188 0.074524
0.225433 0.562134 0.074097
0.254303 0.563080 0.073700
0.286804 0.564026 0.073273
0.322784 0.564880 0.072845
0.361908 0.565826 0.072418
0.403473 0.566711 0.071991
0.446838 0.567688 0.071594
0.490906 0.568573 0.071136
0.533752 0.569489 0.070770
0.573792 0.570343 0.070343
0.610809 0.571289 0.069916
0.645050 0.572144 0.069550
0.676941 0.573059 0.069092
0.706482 0.573883 0.068726
0.733887 0.574738 0.068329
0.759277 0.575653 0.067932
0.782593 0.576477 0.067566
0.804016 0.577271 0.067139
0.823639 0.578094 0.066803
0.841583 0.578918 0.066376
0.858093 0.579742 0.066040
0.064148 0.587891 0.078033
0.073212 0.588776 0.077576
0.082886 0.589600 0.077148
0.093323 0.590454 0.076721
0.104645 0.591339 0.076294
0.117035 0.592163 0.075867
0.130798 0.593048 0.075439
0.146210 0.593964 0.074982
0.163513 0.594818 0.074554
0.183197 0.595673 0.074127
0.205750 0.596558 0.073700
0.231873 0.597382 0.073273
0.261627 0.598267 0.072845
0.294922 0.599152 0.072418
0.331696 0.599976 0.071991
0.371429 0.600891 0.071594
0.413422 0.601685 0.071136
0.457062 0.602539 0.070770
0.501129 0.603363 0.070343
0.543304 0.604218 0.069946
0.582581 0.605011 0.069550
0.618896 0.605865 0.069122
0.652588 0.606659 0.068726
0.683868 0.607452 0.068329
0.712769 0.608246 0.067963
0.739746 0.609070 0.067566
0.764648 0.609802 0.067169
0.787476 0.610596 0.066803
0.808502 0.611420 0.066406
0.827667 0.612122 0.066040
0.845215 0.612915 0.065674
0.861420 0.613647 0.065308
0.066193 0.621338 0.077179
0.075439 0.622192 0.076721
0.085266 0.623047 0.076324
0.095886 0.623840 0.075867
0.107452 0.624603 0.075439
0.120148 0.625427 0.075012
0.134308 0.626221 0.074554
0.150055 0.627045 0.074127
0.167908 0.627869 0.073700
0.188263 0.628662 0.073273
0.211548 0.629456 0.072845
0.238464 0.630249 0.072449
0.269104 0.631042 0.071991
0.303223 0.631836 0.071625
0.340729 0.632690 0.071167
0.381012 0.633484 0.070770
0.423492 0.634247 0.070374
0.467224 0.635040 0.069946
0.511169 0.635803 0.069550
0.552582 0.636536 0.069153
0.591095 0.637299 0.068726
0.626709 0.638092 0.068359
0.659821 0.638824 0.067963
0.690552 0.639587 0.067566
0.718964 0.640320 0.067200
0.745392 0.641083 0.066833
0.769806 0.641815 0.066437
0.792175 0.642487 0.066071
0.812775 0.643188 0.065674
0.831573 0.643921 0.065308
0.848755 0.644592 0.064941
0.864655 0.645233 0.064636
0.068329 0.652679 0.076355
0.077667 0.653381 0.075867
0.087677 0.654144 0.075470
0.098511 0.654938 0.075012
0.110352 0.655701 0.074554
0.123352 0.656433 0.074127
0.137817 0.657196 0.073700
0.154083 0.657959 0.073303
0.172455 0.658691 0.072876
0.193451 0.659485 0.072479
0.217529 0.660217 0.072021
0.245331 0.660950 0.071625
0.276794 0.661743 0.071198
0.311707 0.662445 0.070801
0.349823 0.663208 0.070374
0.390656 0.663910 0.069946
0.433441 0.664612 0.069580
0.477356 0.665344 0.069153
0.520874 0.666077 0.068756
0.561523 0.666779 0.068390
0.599365 0.667450 0.067993
0.634277 0.668152 0.067566
0.666809 0.668884 0.067200
0.696991 0.669556 0.066833
0.724915 0.670227 0.066437
0.750824 0.670868 0.066071
0.774750 0.671539 0.065704
0.796722 0.672180 0.065308
0.816864 0.672852 0.064941
0.835297 0.673462 0.064636
0.852173 0.674103 0.064301
0.867737 0.674744 0.063934
0.070496 0.681793 0.075470
0.079956 0.682526 0.075012
0.090149 0.683258 0.074615
0.101166 0.683960 0.074158
0.113281 0.684692 0.073730
0.126587 0.685394 0.073334
0.141479 0.686096 0.072906
0.158142 0.686798 0.072510
0.177063 0.687500 0.072052
0.198730 0.688202 0.071625
0.223663 0.688873 0.071198
0.252319 0.689636 0.070801
0.284576 0.690308 0.070404
0.320221 0.690948 0.070007
0.359009 0.691620 0.069580
0.400330 0.692291 0.069183
0.443359 0.692963 0.068787
0.487305 0.693665 0.068390
0.530182 0.694275 0.067993
0.570251 0.694977 0.067566
0.607361 0.695587 0.067200
0.641724 0.696259 0.066833
0.673645 0.696838 0.066437
0.703247 0.697510 0.066071
0.730682 0.698090 0.065735
0.756073 0.698761 0.065338
0.779602 0.699371 0.064972
0.801086 0.699890 0.064667
0.820831 0.700531 0.064301
0.838837 0.701080 0.063965
0.855377 0.701691 0.063629
0.870667 0.702209 0.063263
0.072662 0.709106 0.074615
0.082306 0.709747 0.074158
0.092682 0.710419 0.073792
0.103912 0.711060 0.073364
0.116333 0.711700 0.072937
0.129944 0.712402 0.072510
0.145203 0.713013 0.072052
0.162354 0.713715 0.071655
0.181854 0.714325 0.071228
0.204254 0.715027 0.070801
0.229950 0.715576 0.070435
0.259491 0.716278 0.070007
0.292480 0.716949 0.069611
0.328827 0.717499 0.069183
0.368195 0.718170 0.068787
0.409973 0.718781 0.068420
0.453247 0.719391 0.068024
0.497070 0.720001 0.067596
0.539337 0.720642 0.067200
0.578705 0.721191 0.066864
0.615143 0.721802 0.066437
0.648865 0.722412 0.066071
0.680176 0.722992 0.065735
0.709290 0.723572 0.065369
0.736206 0.724121 0.065002
0.761169 0.724670 0.064667
0.784210 0.725281 0.064301
0.805298 0.725769 0.063995
0.824615 0.726288 0.063660
0.842224 0.726837 0.063293
0.858490 0.727356 0.062988
0.873535 0.727875 0.062653
0.074829 0.734497 0.073792
0.084656 0.735107 0.073364
0.095245 0.735687 0.072937
0.106750 0.736359 0.072510
0.119354 0.736938 0.072083
0.133331 0.737549 0.071655
0.149017 0.738159 0.071228
0.166656 0.738770 0.070862
0.186798 0.739319 0.070435
0.209900 0.739990 0.070007
0.236389 0.740601 0.069611
0.266693 0.741150 0.069214
0.300537 0.741730 0.068787
0.337524 0.742371 0.068420
0.377411 0.742920 0.068024
0.419373 0.743469 0.067627
