3d-lut/luts/McKinnon 75.CUBE
#Created by: Adobe Photoshop Export Color Lookup Plugin
#Copyright: (C) Copyright 2017 RocketStock
TITLE "Cool Contrast"
#LUT size
LUT_3D_SIZE 5
#data domain
#LUT data points
DOMAIN_MIN 0.000000 0.000000 0.000000
DOMAIN_MAX 0.903226 0.903226 0.903226
0.031952 0.063995 0.093445
0.089264 0.064667 0.091766
0.189667 0.065582 0.089661
0.417145 0.066650 0.087219
0.682922 0.067902 0.084503
0.038940 0.135590 0.089752
0.101532 0.137390 0.087311
0.220795 0.139557 0.084595
0.479980 0.141876 0.081696
0.727020 0.144379 0.078674
0.049255 0.285950 0.084656
0.119202 0.291107 0.081757
0.265625 0.296600 0.078796
0.548615 0.302368 0.075745
0.768555 0.308289 0.072754
0.062164 0.551971 0.078888
0.142456 0.558441 0.075836
0.322784 0.564880 0.072845
0.610809 0.571289 0.069916
0.804016 0.577271 0.067139
0.077118 0.758118 0.072937
0.171082 0.762115 0.070007
0.386627 0.765900 0.067230
0.662354 0.769440 0.064667
0.831604 0.772644 0.062378
0.032990 0.064209 0.185822
0.091125 0.064941 0.182251
0.194458 0.065948 0.177826
0.427887 0.067108 0.172913
0.691071 0.068390 0.167603
0.040649 0.136230 0.178040
0.104401 0.138153 0.173096
0.228027 0.140381 0.167816
0.492828 0.142761 0.162292
0.735016 0.145355 0.156738
0.051453 0.287750 0.167999
0.123108 0.293091 0.162445
0.275482 0.298706 0.156891
0.560883 0.304535 0.151428
0.775696 0.310486 0.146149
0.064758 0.554352 0.157104
0.147339 0.560822 0.151581
0.334442 0.567261 0.146332
0.621246 0.573456 0.141327
0.809845 0.579407 0.136719
0.080048 0.759583 0.146484
0.177002 0.763519 0.141479
0.398560 0.767242 0.136810
0.670624 0.770630 0.132690
0.835754 0.773651 0.129059
0.034149 0.064484 0.380981
0.093231 0.065277 0.373260
0.199707 0.066345 0.364075
0.439087 0.067566 0.353638
0.699310 0.068878 0.342407
0.042419 0.136902 0.364380
0.107483 0.138947 0.353973
0.235901 0.141205 0.342834
0.505768 0.143707 0.331085
0.742981 0.146301 0.319275
0.053772 0.289703 0.343201
0.127197 0.295105 0.331543
0.285797 0.300842 0.319672
0.572754 0.306702 0.307953
0.782684 0.312714 0.296600
0.067474 0.556702 0.320038
0.152496 0.563202 0.308350
0.346344 0.569611 0.296967
0.631409 0.575745 0.286255
0.815277 0.581390 0.276428
0.083069 0.761047 0.297363
0.183014 0.764893 0.286560
0.410248 0.768494 0.276733
0.678436 0.771820 0.267853
0.839661 0.774689 0.260162
0.035431 0.064728 0.630829
0.095459 0.065674 0.623932
0.205414 0.066772 0.615570
0.450897 0.068054 0.605927
0.707581 0.069397 0.595337
0.044312 0.137573 0.615875
0.110718 0.139740 0.606354
0.244141 0.142090 0.595703
0.518616 0.144623 0.584229
0.750763 0.147278 0.572174
0.056152 0.291626 0.596069
0.131470 0.297180 0.584625
0.296356 0.302917 0.572632
0.584473 0.308899 0.560120
0.789276 0.314819 0.547607
0.070282 0.559052 0.573059
0.157837 0.565582 0.560547
0.358215 0.571869 0.548004
0.641144 0.577911 0.535553
0.820435 0.583435 0.523682
0.086121 0.762512 0.548370
0.189209 0.766266 0.536011
0.421814 0.769775 0.524078
0.685699 0.772888 0.513000
0.843323 0.775635 0.503113
0.036835 0.065033 0.797882
0.097900 0.066071 0.793304
0.211578 0.067200 0.787781
0.462921 0.068512 0.781555
0.715820 0.069916 0.774689
0.046326 0.138367 0.787964
0.114166 0.140594 0.781799
0.252960 0.142975 0.774963
0.531494 0.145569 0.767639
0.758392 0.148254 0.760010
0.058624 0.293610 0.775208
0.135956 0.299225 0.767883
0.307373 0.305176 0.760254
0.595856 0.311096 0.752350
0.795715 0.316986 0.744476
0.073120 0.561493 0.760468
0.163361 0.567902 0.752594
0.370239 0.574066 0.744720
0.650360 0.579956 0.737030
0.825348 0.585358 0.729706
0.089203 0.763885 0.744965
0.195465 0.767578 0.737305
0.433136 0.770966 0.729950
0.692657 0.773987 0.723206
0.846649 0.776520 0.717285
