3d-lut/luts/Milo 5.CUBE
#Created by: Adobe Photoshop Export Color Lookup Plugin
#Copyright: (C) Copyright 2017 RocketStock
TITLE "Untitled"
#LUT size
LUT_3D_SIZE 32
#data domain
DOMAIN_MIN 0.0 0.0 0.0
DOMAIN_MAX 1.0 1.0 1.0
#LUT data points
0.020813 0.004913 0.071564
0.048523 0.006226 0.072388
0.075928 0.007782 0.073425
0.104675 0.011139 0.076324
0.132904 0.014587 0.079163
0.160614 0.017944 0.081970
0.187805 0.021393 0.084808
0.214508 0.024872 0.087708
0.240662 0.028351 0.090546
0.266327 0.031891 0.093414
0.291473 0.035431 0.096252
0.316132 0.039001 0.099152
0.340179 0.042572 0.102020
0.363770 0.046112 0.104828
0.386810 0.049744 0.107666
0.409363 0.053375 0.110565
0.431519 0.057007 0.113342
0.453369 0.060669 0.116272
0.474945 0.064331 0.119080
0.497101 0.068115 0.121948
0.520081 0.071991 0.125061
0.544037 0.075958 0.128082
0.569122 0.080048 0.131378
0.595490 0.084259 0.134674
0.623383 0.088562 0.138062
0.653229 0.093140 0.141693
0.685333 0.097870 0.145477
0.720459 0.102753 0.149506
0.759705 0.108093 0.153748
0.804932 0.113739 0.158447
0.860352 0.120178 0.163910
0.939941 0.128326 0.171112
0.024445 0.035919 0.074432
0.053070 0.038116 0.076172
0.080505 0.039764 0.077362
0.109222 0.043213 0.080292
0.137451 0.046661 0.083191
0.165100 0.050110 0.086090
0.192261 0.053589 0.089050
0.218872 0.057068 0.091919
0.245056 0.060577 0.094849
0.270630 0.064148 0.097778
0.295685 0.067688 0.100708
0.320251 0.071228 0.103577
0.344269 0.074829 0.106537
0.367737 0.078369 0.109375
0.390656 0.082001 0.112305
0.413116 0.085571 0.115173
0.435181 0.089203 0.118103
0.456970 0.092865 0.120941
0.478516 0.096466 0.123901
0.500641 0.100220 0.126801
0.523590 0.104095 0.129913
0.547455 0.107971 0.132965
0.572510 0.112061 0.136230
0.598846 0.116211 0.139648
0.626678 0.120483 0.143097
0.656403 0.124939 0.146729
0.688477 0.129639 0.150513
0.723511 0.134460 0.154602
0.762604 0.139679 0.158844
0.807678 0.145233 0.163666
0.862915 0.151611 0.169159
0.942108 0.159668 0.176300
0.027191 0.065277 0.076263
0.056854 0.068665 0.079224
0.085266 0.071320 0.081360
0.113922 0.074768 0.084351
0.142090 0.078247 0.087341
0.169678 0.081696 0.090302
0.196808 0.085205 0.093323
0.223389 0.088715 0.096283
0.249481 0.092255 0.099243
0.274963 0.095825 0.102203
0.299957 0.099335 0.105164
0.324432 0.102905 0.108154
0.348328 0.106506 0.111115
0.371735 0.110016 0.114044
0.394592 0.113617 0.116974
0.416931 0.117157 0.119873
0.438904 0.120728 0.122833
0.460602 0.124359 0.125763
0.482056 0.127930 0.128693
0.504150 0.131653 0.131744
0.527008 0.135437 0.134766
0.550812 0.139160 0.137848
0.575745 0.143250 0.141113
0.601959 0.147247 0.144440
0.629700 0.151428 0.147888
0.659302 0.155701 0.151489
0.691162 0.160187 0.155212
0.726074 0.164886 0.159210
0.765015 0.169983 0.163513
0.809875 0.175415 0.168213
0.864838 0.181732 0.173645
0.943542 0.189484 0.180725
0.031311 0.095428 0.079437
0.061005 0.098877 0.082489
0.089783 0.101959 0.085175
0.117493 0.104523 0.087280
0.145569 0.107971 0.090302
0.173096 0.111420 0.093292
0.200134 0.114929 0.096313
0.226562 0.118347 0.099274
0.252533 0.121887 0.102264
0.277924 0.125397 0.105286
0.302765 0.128815 0.108215
0.327118 0.132355 0.111206
0.350922 0.135895 0.114166
0.374115 0.139374 0.117096
0.396851 0.142822 0.120056
0.419006 0.146301 0.122955
0.440887 0.149811 0.125885
0.462402 0.153351 0.128845
0.483765 0.156799 0.131714
0.505768 0.160431 0.134705
0.528595 0.164154 0.137817
0.552338 0.167847 0.140930
0.577240 0.171814 0.144226
0.603394 0.175751 0.147614
0.631042 0.179871 0.151031
0.660583 0.184174 0.154663
0.692383 0.188568 0.158447
0.727173 0.193176 0.162445
0.765961 0.198242 0.166779
0.810699 0.203491 0.171509
0.865417 0.209717 0.176941
0.943787 0.217377 0.183990
0.036469 0.125885 0.083527
0.066071 0.129303 0.086609
0.094788 0.132385 0.089355
0.121490 0.134003 0.090576
0.148529 0.136475 0.092712
0.176025 0.139984 0.095734
0.202942 0.143463 0.098846
0.229340 0.146912 0.101898
0.255188 0.150421 0.104919
0.280487 0.153870 0.107971
0.305267 0.157318 0.110992
0.329468 0.160797 0.113983
0.353149 0.164246 0.116974
0.376282 0.167725 0.119965
0.398895 0.171204 0.122955
0.420959 0.174591 0.125885
0.442719 0.178131 0.128876
0.464172 0.181580 0.131836
0.485474 0.185059 0.134796
0.507416 0.188629 0.137817
0.530243 0.192200 0.140961
0.553925 0.195923 0.144104
0.578766 0.199738 0.147400
0.604828 0.203674 0.150787
0.632416 0.207642 0.154297
0.661926 0.211823 0.157928
0.693634 0.216125 0.161713
0.728302 0.220703 0.165771
0.767029 0.225616 0.170105
0.811554 0.230957 0.174835
0.866058 0.237030 0.180267
0.944000 0.244598 0.187317
0.041748 0.155731 0.087738
0.071289 0.159210 0.090912
0.099915 0.162231 0.093628
0.126556 0.163849 0.094879
0.152618 0.165497 0.096222
0.179077 0.167999 0.098389
0.205963 0.171478 0.101501
0.232208 0.174866 0.104553
0.257965 0.178345 0.107697
0.283203 0.181793 0.110779
0.307800 0.185211 0.113800
0.331940 0.188660 0.116882
0.355499 0.192078 0.119873
0.378510 0.195465 0.122894
0.401031 0.198944 0.125946
0.422974 0.202301 0.128937
0.444641 0.205688 0.131927
0.466003 0.209106 0.134918
0.487213 0.212524 0.137909
0.509125 0.216003 0.140961
0.531891 0.219574 0.144135
0.555542 0.223145 0.147308
0.580322 0.226929 0.150665
0.606354 0.230743 0.153992
0.633881 0.234680 0.157593
0.663269 0.238831 0.161255
0.694855 0.243042 0.165039
0.729462 0.247620 0.169098
0.768005 0.252411 0.173431
0.812408 0.257446 0.178162
0.866730 0.263519 0.183624
0.944244 0.270905 0.190704
0.047241 0.185089 0.092072
0.076691 0.188538 0.095276
0.105133 0.191467 0.097961
0.131714 0.193085 0.099304
0.157745 0.194702 0.100647
0.183258 0.196381 0.102051
0.209076 0.198853 0.104279
0.235229 0.202271 0.107391
0.260864 0.205688 0.110535
0.285950 0.209045 0.113647
0.310486 0.212463 0.116730
0.334473 0.215851 0.119843
0.357910 0.219238 0.122894
0.380829 0.222595 0.125977
0.403198 0.225952 0.129028
0.425018 0.229218 0.132019
0.446564 0.232635 0.135071
0.467834 0.235962 0.138062
0.489014 0.239288 0.141083
0.510895 0.242798 0.144226
0.533569 0.246155 0.147339
0.557220 0.249786 0.150604
0.581879 0.253510 0.153931
0.607849 0.257202 0.157349
0.635315 0.261078 0.160889
0.664612 0.265076 0.164612
0.696136 0.269287 0.168396
0.730652 0.273621 0.172516
0.769043 0.278381 0.176880
0.813293 0.283356 0.181580
0.867371 0.289154 0.187012
0.944458 0.296417 0.194000
0.052826 0.213837 0.096466
0.082214 0.217255 0.099731
0.110504 0.220093 0.102356
0.137024 0.221710 0.103790
0.162872 0.223267 0.105194
0.188354 0.224945 0.106659
0.213287 0.226624 0.108154
0.238342 0.229004 0.110321
0.263885 0.232391 0.113495
0.288818 0.235718 0.116608
0.313263 0.239105 0.119781
0.337128 0.242432 0.122925
0.360382 0.245728 0.126007
0.383209 0.249084 0.129089
0.405426 0.252319 0.132172
0.427155 0.255585 0.135193
0.448578 0.258881 0.138275
0.469727 0.262146 0.141327
0.490845 0.265411 0.144379
0.512665 0.268738 0.147491
0.535309 0.272156 0.150635
0.558899 0.275665 0.153961
0.583527 0.279236 0.157288
0.609436 0.282867 0.160736
0.636810 0.286682 0.164276
0.666016 0.290680 0.167999
0.697479 0.294617 0.171814
0.731812 0.299011 0.175934
0.770111 0.303680 0.180267
0.814148 0.308472 0.184967
0.868073 0.314209 0.190460
0.944702 0.321503 0.197449
0.058563 0.241913 0.100952
0.087860 0.245331 0.104248
0.115936 0.248077 0.106842
0.142334 0.249664 0.108307
0.168213 0.251221 0.109772
0.193481 0.252838 0.111267
0.218262 0.254456 0.112762
0.242584 0.256134 0.114349
0.266968 0.258453 0.116577
0.291809 0.261780 0.119720
0.316071 0.265045 0.122894
0.339813 0.268311 0.126068
0.363007 0.271545 0.129181
0.385651 0.274811 0.132324
0.407715 0.278015 0.135406
0.429321 0.281189 0.138458
0.450653 0.284393 0.141541
0.471680 0.287628 0.144623
0.492737 0.290802 0.147644
0.514496 0.294128 0.150818
0.537079 0.297394 0.154022
0.560577 0.300873 0.157318
0.585175 0.304321 0.160675
0.611023 0.307831 0.164124
0.638336 0.311584 0.167725
0.667450 0.315430 0.171448
0.698792 0.319458 0.175293
0.732971 0.323578 0.179352
0.771149 0.328156 0.183746
0.815063 0.333008 0.188446
0.868713 0.338531 0.193878
0.944946 0.345612 0.200836
0.064453 0.269440 0.105499
0.093628 0.272766 0.108765
0.121552 0.275391 0.111389
0.147827 0.276947 0.112885
0.173492 0.278473 0.114410
0.198730 0.280060 0.115967
0.223358 0.281616 0.117523
0.247528 0.283264 0.119110
0.271210 0.284912 0.120728
0.294830 0.287109 0.122925
0.319000 0.290314 0.126099
0.342590 0.293579 0.129303
0.365601 0.296722 0.132416
0.388092 0.299927 0.135590
0.410065 0.303070 0.138702
0.431549 0.306183 0.141754
0.452728 0.309265 0.144897
0.473602 0.312347 0.147919
0.494659 0.315491 0.151062
0.516388 0.318695 0.154236
0.538879 0.321899 0.157440
0.562347 0.325256 0.160736
0.586884 0.328735 0.164124
0.612640 0.332184 0.167572
0.639862 0.335846 0.171173
0.668884 0.339508 0.174896
0.700104 0.343445 0.178741
0.734222 0.347473 0.182831
0.772217 0.351837 0.187134
0.815948 0.356598 0.191895
0.869324 0.362030 0.197327
0.945160 0.369049 0.204254
0.070404 0.296295 0.110046
0.099487 0.299591 0.113464
0.127167 0.302094 0.115997
0.153320 0.303528 0.117523
0.178925 0.305054 0.119080
0.203949 0.306580 0.120667
0.228485 0.308075 0.122223
0.252502 0.309662 0.123871
0.276001 0.311218 0.125519
0.298950 0.312836 0.127167
0.321960 0.314941 0.129395
0.345398 0.318115 0.132599
0.368286 0.321228 0.135742
0.390625 0.324310 0.138916
0.412415 0.327332 0.142029
0.433777 0.330414 0.145142
0.454865 0.333435 0.148254
0.475586 0.336395 0.151306
0.496582 0.339478 0.154449
0.518250 0.342621 0.157654
0.540741 0.345795 0.160889
0.564117 0.349030 0.164185
0.588562 0.352386 0.167572
0.614227 0.355743 0.171051
0.641388 0.359253 0.174652
0.670319 0.362854 0.178375
0.701447 0.366669 0.182251
0.735443 0.370636 0.186310
0.773315 0.374847 0.190613
0.816864 0.379608 0.195404
0.870026 0.384918 0.200775
0.945404 0.391754 0.207672
0.076477 0.322418 0.114716
0.105408 0.325684 0.118103
0.132935 0.328033 0.120636
0.158844 0.329468 0.122131
0.184326 0.330902 0.123749
0.209320 0.332397 0.125427
0.233612 0.333862 0.127014
0.257538 0.335388 0.128693
0.280884 0.336914 0.130371
0.303680 0.338409 0.132019
0.326019 0.339966 0.133759
0.348297 0.342010 0.135986
0.371002 0.345032 0.139130
0.393188 0.348053 0.142303
0.414856 0.350983 0.145416
0.436096 0.353973 0.148560
0.457001 0.356903 0.151672
0.477661 0.359802 0.154785
0.498596 0.362793 0.157928
0.520172 0.365784 0.161102
0.542603 0.368896 0.164368
0.565918 0.372040 0.167664
0.590302 0.375275 0.171082
0.615906 0.378632 0.174530
0.642944 0.381958 0.178162
0.671783 0.385559 0.181854
0.702820 0.389221 0.185730
0.736664 0.393158 0.189819
0.774384 0.397278 0.194122
0.817749 0.401764 0.198822
0.870667 0.406982 0.204254
0.945648 0.413727 0.211090
0.082611 0.347931 0.119415
0.111420 0.351135 0.122833
0.138702 0.353333 0.125275
0.164520 0.354706 0.126862
0.189819 0.356110 0.128540
0.214630 0.357513 0.130157
0.238861 0.358917 0.131775
0.262604 0.360352 0.133514
0.285797 0.361816 0.135223
0.308472 0.363281 0.136932
0.330597 0.364777 0.138672
0.352173 0.366241 0.140350
0.373749 0.368164 0.142578
0.395782 0.371063 0.145752
0.417267 0.373962 0.148865
0.438385 0.376862 0.152039
0.459229 0.379730 0.155151
0.479706 0.382538 0.158234
0.500549 0.385376 0.161407
0.522156 0.388336 0.164642
0.544495 0.391296 0.167847
0.567719 0.394318 0.171173
0.592041 0.397491 0.174622
0.617554 0.400696 0.178040
0.644531 0.404053 0.181671
0.673248 0.407501 0.185364
0.704163 0.411011 0.189240
0.737885 0.414948 0.193298
0.775482 0.418945 0.197571
0.818665 0.423370 0.202301
0.871368 0.428375 0.207672
0.945892 0.435028 0.214508
0.088837 0.372711 0.124115
0.117493 0.375854 0.127594
0.144501 0.377930 0.129974
0.170135 0.379211 0.131561
0.195312 0.380585 0.133240
0.220001 0.381927 0.134979
0.244049 0.383240 0.136627
0.267639 0.384674 0.138336
0.290680 0.386017 0.140076
0.313171 0.387390 0.141785
0.335175 0.388824 0.143555
0.356628 0.390228 0.145294
0.377594 0.391632 0.147095
0.398438 0.393463 0.149231
0.419739 0.396240 0.152374
0.440735 0.399017 0.155487
0.461426 0.401855 0.158691
0.481812 0.404541 0.161774
0.502594 0.407379 0.164917
0.524109 0.410156 0.168121
0.546387 0.413086 0.171387
0.569580 0.416016 0.174713
0.593781 0.419128 0.178101
0.619232 0.422211 0.181610
0.646118 0.425446 0.185181
0.674744 0.428711 0.188843
0.705536 0.432220 0.192688
0.739166 0.435944 0.196808
0.776550 0.439789 0.201080
0.819580 0.444183 0.205750
0.871979 0.449097 0.211121
0.946106 0.455566 0.217865
0.095123 0.396851 0.128876
0.123657 0.399963 0.132355
0.150330 0.401825 0.134674
0.175842 0.403076 0.136322
0.200897 0.404358 0.138031
0.225433 0.405609 0.139740
0.249268 0.406891 0.141418
0.272705 0.408203 0.143158
0.295471 0.409485 0.144897
0.317871 0.410797 0.146637
0.339722 0.412140 0.148438
0.361023 0.413483 0.150177
0.381775 0.414825 0.151978
0.402161 0.416199 0.153778
0.422241 0.417816 0.155884
0.443085 0.420532 0.159027
0.463623 0.423218 0.162201
0.483887 0.425873 0.165283
0.504669 0.428589 0.168457
0.526093 0.431335 0.171692
0.548279 0.434143 0.174896
0.571442 0.437042 0.178253
0.595520 0.440002 0.181580
0.620911 0.442993 0.185059
0.647675 0.446106 0.188721
0.676239 0.449432 0.192352
0.706909 0.452820 0.196228
0.740387 0.456329 0.200226
0.777679 0.460175 0.204529
0.820496 0.464417 0.209198
0.872711 0.469391 0.214539
0.946350 0.475647 0.221283
0.101532 0.420319 0.133667
0.129791 0.423340 0.137177
0.156311 0.425079 0.139435
0.181610 0.426239 0.141083
0.206482 0.427460 0.142822
0.230804 0.428711 0.144562
0.254486 0.429901 0.146240
0.277740 0.431122 0.147980
0.300385 0.432373 0.149750
0.322632 0.433655 0.151520
0.344269 0.434875 0.153320
0.365387 0.436127 0.155060
0.385986 0.437439 0.156891
0.406158 0.438690 0.158691
0.425812 0.439941 0.160461
0.445465 0.441528 0.162598
0.465851 0.444153 0.165741
0.486053 0.446716 0.168823
0.506714 0.449341 0.171967
0.528076 0.451996 0.175171
0.550201 0.454712 0.178436
0.573273 0.457520 0.181763
0.597321 0.460358 0.185120
0.622620 0.463379 0.188629
0.649292 0.466400 0.192230
0.677704 0.469482 0.195862
0.708282 0.472870 0.199707
0.741638 0.476349 0.203735
0.778748 0.480133 0.207977
0.821411 0.484192 0.212646
0.873352 0.488953 0.217865
0.946564 0.495148 0.224579
0.107941 0.443359 0.138489
0.136078 0.446289 0.141998
0.162262 0.447876 0.144165
0.187378 0.449005 0.145874
0.212067 0.450134 0.147583
0.236206 0.451294 0.149384
0.259735 0.452454 0.151062
0.282837 0.453644 0.152863
0.305267 0.454773 0.154602
0.327301 0.455933 0.156372
0.348846 0.457153 0.158203
0.369751 0.458313 0.159973
0.390259 0.459534 0.161774
0.410187 0.460754 0.163574
0.429718 0.461945 0.165375
0.448853 0.463165 0.167206
0.468109 0.464600 0.169281
0.488159 0.467102 0.172363
0.508789 0.469727 0.175537
0.530121 0.472321 0.178772
0.552155 0.474884 0.181976
0.575134 0.477692 0.185333
0.599121 0.480469 0.188660
0.624268 0.483307 0.192108
0.650848 0.486267 0.195679
0.679199 0.489288 0.199341
0.709625 0.492493 0.203156
0.742889 0.495972 0.207184
0.779816 0.499634 0.211395
0.822327 0.503632 0.216034
0.874023 0.508270 0.221252
0.946808 0.514343 0.227905
0.114410 0.465912 0.143341
0.142334 0.468781 0.146881
0.168243 0.470215 0.148956
0.193176 0.471252 0.150665
0.217712 0.472321 0.152405
0.241669 0.473450 0.154205
0.264984 0.474548 0.155914
0.287903 0.475677 0.157715
0.310211 0.476746 0.159454
0.332001 0.477875 0.161255
0.353363 0.479004 0.163116
0.374115 0.480103 0.164825
0.394440 0.481232 0.166626
0.414215 0.482422 0.168488
0.433563 0.483521 0.170227
0.452637 0.484680 0.172089
0.471405 0.485809 0.173889
0.490326 0.487183 0.175934
0.510895 0.489685 0.179077
0.532104 0.492218 0.182281
0.554077 0.494873 0.185486
0.576996 0.497498 0.188843
0.600891 0.500214 0.192169
0.625977 0.503052 0.195618
0.652496 0.505981 0.199188
0.680664 0.508942 0.202820
0.710999 0.512115 0.206604
0.744049 0.515472 0.210571
0.780914 0.519135 0.214752
0.823242 0.523071 0.219360
0.874634 0.527679 0.224518
0.947021 0.533691 0.231171
0.120911 0.488312 0.148193
0.148682 0.491119 0.151764
0.174347 0.492432 0.153748
0.199036 0.493469 0.155457
0.223389 0.494537 0.157257
0.247040 0.495605 0.159027
0.270264 0.496643 0.160797
0.293030 0.497742 0.162598
0.315094 0.498840 0.164368
0.336792 0.499939 0.166168
0.357910 0.501007 0.167969
0.378540 0.502106 0.169769
0.398621 0.503235 0.171570
0.418274 0.504303 0.173401
0.437469 0.505432 0.175171
0.456360 0.506561 0.177002
0.474976 0.507660 0.178833
0.493652 0.508789 0.180603
0.513000 0.510101 0.182648
0.534119 0.512604 0.185791
0.556061 0.515198 0.189026
0.578857 0.517792 0.192352
0.602661 0.520477 0.195648
0.627686 0.523254 0.199127
0.654053 0.526093 0.202606
0.682129 0.529114 0.206238
0.712341 0.532196 0.210022
0.745300 0.535553 0.213959
0.782013 0.539032 0.218109
0.824097 0.543060 0.222687
0.875275 0.547607 0.227814
0.947266 0.553619 0.234436
0.127563 0.511353 0.153229
0.155090 0.514130 0.156769
0.180389 0.515289 0.158630
0.204987 0.516296 0.160400
0.229126 0.517365 0.162170
0.252625 0.518372 0.163910
0.275635 0.519409 0.165710
0.298187 0.520508 0.167542
0.320129 0.521515 0.169312
0.341553 0.522614 0.171112
0.362518 0.523682 0.172943
0.382935 0.524719 0.174683
0.402863 0.525818 0.176544
0.422333 0.526917 0.178345
0.441345 0.527954 0.180145
0.460175 0.529053 0.181976
0.478607 0.530121 0.183716
0.497223 0.531219 0.185547
0.516296 0.532288 0.187347
0.536163 0.533539 0.189331
0.558014 0.536072 0.192535
0.580750 0.538635 0.195831
0.604431 0.541290 0.199127
0.629333 0.544006 0.202545
0.655640 0.546875 0.206055
0.683624 0.549744 0.209625
0.713715 0.552826 0.213379
0.746521 0.556061 0.217255
0.783020 0.559540 0.221405
0.824982 0.563477 0.225952
0.875885 0.567963 0.231049
0.947479 0.573822 0.237579
0.134338 0.535156 0.158325
0.161621 0.537903 0.161804
0.186584 0.538879 0.163574
0.210999 0.539886 0.165375
0.234985 0.540955 0.167175
0.258240 0.541901 0.168915
0.281067 0.542938 0.170746
0.303375 0.543945 0.172516
0.325134 0.544952 0.174286
0.346436 0.545990 0.176147
0.367218 0.547058 0.177979
0.387390 0.548096 0.179749
0.407166 0.549133 0.181549
0.426483 0.550140 0.183350
0.445374 0.551178 0.185120
0.463959 0.552246 0.186951
0.482361 0.553284 0.188721
0.500763 0.554321 0.190521
0.519806 0.555359 0.192322
0.539459 0.556366 0.194061
0.559937 0.557617 0.196014
0.582581 0.560120 0.199280
0.606201 0.562744 0.202545
0.631012 0.565430 0.205933
0.657227 0.568115 0.209412
0.685089 0.570984 0.212982
0.715057 0.574036 0.216705
0.747772 0.577240 0.220581
0.784088 0.580597 0.224701
0.825836 0.584442 0.229156
0.876587 0.588989 0.234253
0.947693 0.594727 0.240723
0.141174 0.559814 0.163452
0.168121 0.562408 0.166870
0.192932 0.563385 0.168640
0.217072 0.564362 0.170441
0.240875 0.565338 0.172241
0.263947 0.566284 0.174011
0.286591 0.567322 0.175812
0.308685 0.568268 0.177643
0.330261 0.569244 0.179413
0.351318 0.570251 0.181213
0.371948 0.571259 0.183044
0.391937 0.572205 0.184814
0.411530 0.573212 0.186615
0.430634 0.574188 0.188354
0.449341 0.575226 0.190155
0.467865 0.576233 0.191956
0.486115 0.577209 0.193726
0.504486 0.578217 0.195526
0.523376 0.579224 0.197327
0.542999 0.580231 0.199036
0.563171 0.581177 0.200806
0.584442 0.582306 0.202667
0.607971 0.584900 0.205933
0.632660 0.587494 0.209320
0.658722 0.590118 0.212738
0.686554 0.592987 0.216309
0.716370 0.595917 0.219971
0.748932 0.599060 0.223785
0.785126 0.602570 0.227905
0.826691 0.606262 0.232330
0.877167 0.610535 0.237366
0.947906 0.616302 0.243774
0.148163 0.585449 0.168671
0.174774 0.587891 0.172028
0.199310 0.588806 0.173767
0.223297 0.589783 0.175568
0.246826 0.590729 0.177399
0.269684 0.591644 0.179138
0.292145 0.592590 0.181000
0.314056 0.593567 0.182770
0.335388 0.594482 0.184570
0.356232 0.595428 0.186371
0.376587 0.596375 0.188110
0.396515 0.597321 0.189941
0.415955 0.598297 0.191711
0.434875 0.599213 0.193481
0.453491 0.600189 0.195251
0.471802 0.601135 0.197052
0.489838 0.602081 0.198822
0.508209 0.603027 0.200562
0.527008 0.604004 0.202332
0.546600 0.604919 0.204041
0.566681 0.605835 0.205780
0.587708 0.606812 0.207489
0.609711 0.607849 0.209320
0.634308 0.610413 0.212646
0.660309 0.613007 0.216034
0.687927 0.615784 0.219543
0.717712 0.618713 0.223206
0.750092 0.621735 0.226990
0.786133 0.625122 0.231049
0.827545 0.628784 0.235443
0.877747 0.632996 0.240417
0.948090 0.638702 0.246765
0.155182 0.612274 0.174042
0.181396 0.614563 0.177246
0.205750 0.615417 0.179016
0.229614 0.616364 0.180817
0.252869 0.617218 0.182617
0.275574 0.618134 0.184387
0.297791 0.619019 0.186188
0.319489 0.619934 0.187988
0.340668 0.620819 0.189758
0.361298 0.621735 0.191589
0.381470 0.622620 0.193329
0.401154 0.623505 0.195099
0.420380 0.624451 0.196899
0.439148 0.625305 0.198608
0.457611 0.626221 0.200409
0.475739 0.627106 0.202179
0.493713 0.627991 0.203888
0.511932 0.628906 0.205627
0.530823 0.629822 0.207397
0.550171 0.630676 0.209076
0.570251 0.631592 0.210785
0.591125 0.632446 0.212463
0.612946 0.633301 0.214142
0.635925 0.634277 0.215912
0.661835 0.636871 0.219299
0.689362 0.639587 0.222748
0.718994 0.642395 0.226379
0.751251 0.645386 0.230072
0.787170 0.648651 0.234161
0.828369 0.652222 0.238464
0.878387 0.656525 0.243378
0.948303 0.662079 0.249664
0.162354 0.640472 0.179504
0.188324 0.642578 0.182587
0.212341 0.643402 0.184326
0.235901 0.644257 0.186127
0.259033 0.645111 0.187927
0.281494 0.645966 0.189697
0.303467 0.646820 0.191528
0.324951 0.647644 0.193298
0.345947 0.648499 0.195068
0.366455 0.649353 0.196869
0.386383 0.650208 0.198608
0.405884 0.651031 0.200348
0.424957 0.651917 0.202148
0.443542 0.652740 0.203857
0.461884 0.653595 0.205627
0.479889 0.654419 0.207367
0.497650 0.655273 0.209076
0.515839 0.656097 0.210785
0.534546 0.656952 0.212494
0.553894 0.657745 0.214142
0.573914 0.658539 0.215820
0.594635 0.659363 0.217468
0.616394 0.660217 0.219116
0.639160 0.660980 0.220764
0.663330 0.661926 0.222473
0.690765 0.664551 0.225922
0.720245 0.667297 0.229492
0.752380 0.670227 0.233185
0.788147 0.673401 0.237122
0.829193 0.676941 0.241455
0.879028 0.681152 0.246307
0.948486 0.686646 0.252533
0.169647 0.670349 0.185181
0.195251 0.672272 0.188049
0.219025 0.673035 0.189758
0.242432 0.673828 0.191559
0.265289 0.674622 0.193390
0.287537 0.675415 0.195129
0.309387 0.676239 0.196930
0.330505 0.677002 0.198669
0.351349 0.677795 0.200439
0.371674 0.678589 0.202240
0.391418 0.679382 0.203949
0.410736 0.680176 0.205719
0.429657 0.680969 0.207458
0.447998 0.681732 0.209167
0.466156 0.682495 0.210876
0.484039 0.683319 0.212616
0.501709 0.684052 0.214294
0.519775 0.684845 0.216003
0.538422 0.685577 0.217590
0.557587 0.686340 0.219269
0.577637 0.687134 0.220947
0.598236 0.687866 0.222534
0.619904 0.688629 0.224182
0.642609 0.689362 0.225769
0.666595 0.690094 0.227325
0.692108 0.690857 0.229004
0.721497 0.693573 0.232483
0.753479 0.696503 0.236145
0.789124 0.699585 0.240082
0.829956 0.703003 0.244324
0.879517 0.707153 0.249115
0.948700 0.712524 0.255280
0.177032 0.702271 0.190765
0.202332 0.704010 0.193604
0.225830 0.704773 0.195374
0.249023 0.705444 0.197144
0.271637 0.706207 0.198944
0.293640 0.706909 0.200714
0.315186 0.707672 0.202454
0.336365 0.708374 0.204163
0.356842 0.709137 0.205994
0.377014 0.709839 0.207703
0.396484 0.710571 0.209412
0.415680 0.711304 0.211151
0.434326 0.712067 0.212891
0.452576 0.712738 0.214569
0.470551 0.713440 0.216248
0.488220 0.714172 0.217957
0.505890 0.714844 0.219574
0.523804 0.715576 0.221252
0.542450 0.716278 0.222870
0.561615 0.716949 0.224518
0.581451 0.717651 0.226135
0.601990 0.718292 0.227661
0.623566 0.718964 0.229279
0.646179 0.719696 0.230865
0.670044 0.720306 0.232361
0.695404 0.720978 0.233856
0.722717 0.721771 0.235474
0.754639 0.724548 0.239075
0.790039 0.727539 0.242920
0.830750 0.730865 0.247101
0.880127 0.734863 0.251862
0.948883 0.740234 0.257965
0.184631 0.736938 0.196777
0.209503 0.738495 0.199371
0.232788 0.739136 0.201141
0.255737 0.739807 0.202911
0.278168 0.740448 0.204651
0.299988 0.741119 0.206390
0.321411 0.741791 0.208191
0.342133 0.742432 0.209900
0.362488 0.743073 0.211578
0.382477 0.743744 0.213348
0.401764 0.744354 0.215027
0.420807 0.745056 0.216766
0.439178 0.745667 0.218445
0.457245 0.746277 0.220093
0.475098 0.746948 0.221741
0.492676 0.747620 0.223419
