3d-lut/luts/Milo 5.CUBE
#Created by: Adobe Photoshop Export Color Lookup Plugin
#Copyright: (C) Copyright 2017 RocketStock
TITLE "Untitled"
#LUT size
LUT_3D_SIZE 5
#data domain
#LUT data points
DOMAIN_MIN 0.000000 0.000000 0.000000
DOMAIN_MAX 0.903226 0.903226 0.903226
0.020813 0.004913 0.071564
0.214508 0.024872 0.087708
0.386810 0.049744 0.107666
0.544037 0.075958 0.128082
0.759705 0.108093 0.153748
0.052826 0.213837 0.096466
0.238342 0.229004 0.110321
0.405426 0.252319 0.132172
0.558899 0.275665 0.153961
0.770111 0.303680 0.180267
0.095123 0.396851 0.128876
0.272705 0.408203 0.143158
0.422241 0.417816 0.155884
0.571442 0.437042 0.178253
0.777679 0.460175 0.204529
0.141174 0.559814 0.163452
0.308685 0.568268 0.177643
0.449341 0.575226 0.190155
0.584442 0.582306 0.202667
0.785126 0.602570 0.227905
0.192474 0.775269 0.202850
0.348297 0.780090 0.215759
0.479797 0.784027 0.227478
0.610016 0.787720 0.238373
0.791870 0.791199 0.248383
0.035980 0.020294 0.246613
0.220062 0.031891 0.252045
0.389374 0.055359 0.267883
0.546112 0.082214 0.285950
0.761108 0.114868 0.308929
0.060944 0.220764 0.259613
0.253326 0.244202 0.278961
0.417328 0.266052 0.296265
0.570190 0.289703 0.315033
0.780640 0.317841 0.338165
0.101593 0.400208 0.284302
0.287079 0.421204 0.305084
0.436218 0.431976 0.315613
0.584259 0.450928 0.334290
0.789246 0.473755 0.356750
0.148132 0.562439 0.312714
0.323242 0.580505 0.333038
0.462860 0.587952 0.342651
0.596741 0.594757 0.351440
0.796204 0.614563 0.372986
0.199280 0.776886 0.345245
0.362701 0.791351 0.364471
0.492493 0.795135 0.372650
0.621613 0.798523 0.380127
0.802307 0.801697 0.386902
0.050171 0.034760 0.401794
0.233856 0.047333 0.405853
0.393402 0.062439 0.410736
0.548248 0.088745 0.425415
0.762573 0.121735 0.445923
0.076721 0.235229 0.411591
0.267731 0.258911 0.428528
0.421417 0.271942 0.434296
0.572540 0.294861 0.449493
0.782104 0.322998 0.469818
0.109558 0.404877 0.422943
0.293030 0.425690 0.440735
0.448669 0.444611 0.456482
0.595245 0.462952 0.471680
0.799225 0.485657 0.491241
0.155151 0.565125 0.444702
0.328186 0.583099 0.462006
0.474884 0.599335 0.477539
0.607910 0.606049 0.483459
0.806091 0.625427 0.502045
0.205994 0.778564 0.471588
0.367249 0.792786 0.487762
0.503937 0.805115 0.501801
0.632111 0.808289 0.506592
0.811707 0.811127 0.510864
0.064270 0.049133 0.549408
0.247467 0.062622 0.552673
0.406067 0.078461 0.556519
0.551208 0.096191 0.560852
0.764099 0.128845 0.579224
0.092285 0.249420 0.557343
0.281921 0.273376 0.572937
0.434235 0.286621 0.577301
0.575409 0.300476 0.581879
0.783569 0.328186 0.600250
0.125916 0.417999 0.566101
0.307465 0.438751 0.582245
0.461334 0.457458 0.596344
0.597809 0.466492 0.600830
0.800568 0.488861 0.618683
0.162659 0.568359 0.575928
0.333496 0.586060 0.591553
0.478210 0.602020 0.605316
0.619202 0.617462 0.618652
0.816315 0.636627 0.635834
0.212677 0.780182 0.599365
0.371674 0.794281 0.613922
0.506836 0.806549 0.626770
0.642853 0.818359 0.639038
0.821533 0.821045 0.642181
0.082916 0.068085 0.758728
0.265503 0.082428 0.761047
0.423065 0.098938 0.763733
0.567505 0.117065 0.766693
0.765839 0.136383 0.769867
0.112335 0.268066 0.764587
0.300415 0.292206 0.778656
0.451294 0.305603 0.781433
0.591522 0.319489 0.784363
0.785187 0.333496 0.787292
0.146515 0.435486 0.770447
0.326172 0.455933 0.784729
0.478180 0.474487 0.796967
0.613678 0.483368 0.799561
0.801880 0.492065 0.802185
0.183319 0.584686 0.776825
0.351868 0.602203 0.790436
0.494659 0.617828 0.802307
0.634613 0.632965 0.813721
0.817474 0.638733 0.815979
0.219330 0.781891 0.783264
0.376007 0.795654 0.795959
0.509460 0.807739 0.807007
0.644928 0.819702 0.817993
0.835388 0.834961 0.832397
