3d-lut/luts/Milo 5.CUBE
#Created by: Adobe Photoshop Export Color Lookup Plugin
#Copyright: (C) Copyright 2017 RocketStock
TITLE "Untitled"
#LUT size
LUT_3D_SIZE 8
#data domain
#LUT data points
DOMAIN_MIN 0.000000 0.000000 0.000000
DOMAIN_MAX 0.903226 0.903226 0.903226
0.020813 0.004913 0.071564
0.132904 0.014587 0.079163
0.240662 0.028351 0.090546
0.340179 0.042572 0.102020
0.431519 0.057007 0.113342
0.520081 0.071991 0.125061
0.623383 0.088562 0.138062
0.759705 0.108093 0.153748
0.036469 0.125885 0.083527
0.148529 0.136475 0.092712
0.255188 0.150421 0.104919
0.353149 0.164246 0.116974
0.442719 0.178131 0.128876
0.530243 0.192200 0.140961
0.632416 0.207642 0.154297
0.767029 0.225616 0.170105
0.058563 0.241913 0.100952
0.168213 0.251221 0.109772
0.266968 0.258453 0.116577
0.363007 0.271545 0.129181
0.450653 0.284393 0.141541
0.537079 0.297394 0.154022
0.638336 0.311584 0.167725
0.771149 0.328156 0.183746
0.082611 0.347931 0.119415
0.189819 0.356110 0.128540
0.285797 0.361816 0.135223
0.373749 0.368164 0.142578
0.459229 0.379730 0.155151
0.544495 0.391296 0.167847
0.644531 0.404053 0.181671
0.775482 0.418945 0.197571
0.107941 0.443359 0.138489
0.212067 0.450134 0.147583
0.305267 0.454773 0.154602
0.390259 0.459534 0.161774
0.468109 0.464600 0.169281
0.552155 0.474884 0.181976
0.650848 0.486267 0.195679
0.779816 0.499634 0.211395
0.134338 0.535156 0.158325
0.234985 0.540955 0.167175
0.325134 0.544952 0.174286
0.407166 0.549133 0.181549
0.482361 0.553284 0.188721
0.559937 0.557617 0.196014
0.657227 0.568115 0.209412
0.784088 0.580597 0.224701
0.162354 0.640472 0.179504
0.259033 0.645111 0.187927
0.345947 0.648499 0.195068
0.424957 0.651917 0.202148
0.497650 0.655273 0.209076
0.573914 0.658539 0.215820
0.663330 0.661926 0.222473
0.788147 0.673401 0.237122
0.192474 0.775269 0.202850
0.284912 0.778351 0.210602
0.368439 0.780609 0.217468
0.444336 0.782898 0.224182
0.514648 0.785095 0.230652
0.589569 0.787201 0.236877
0.677307 0.789246 0.242767
0.791870 0.791199 0.248383
0.029633 0.013824 0.174042
0.137695 0.019836 0.177277
0.242432 0.031067 0.185242
0.341766 0.045563 0.196136
0.432800 0.060242 0.206787
0.521271 0.075500 0.217743
0.624451 0.092285 0.229889
0.760468 0.111908 0.244598
0.042694 0.131866 0.182007
0.156860 0.144989 0.192810
0.260651 0.156494 0.201752
0.358459 0.170715 0.213196
0.447845 0.184784 0.224274
0.535278 0.199188 0.235626
0.637543 0.214905 0.248138
0.771881 0.233124 0.262970
0.061676 0.244232 0.194489
0.175232 0.257935 0.206818
0.275970 0.267609 0.215057
0.371490 0.280701 0.226624
0.458679 0.293549 0.237946
0.544830 0.306519 0.249298
0.645782 0.320679 0.261810
0.778229 0.337097 0.276581
0.086151 0.349976 0.211365
0.197388 0.362762 0.224030
0.294800 0.370422 0.231659
0.382233 0.376770 0.237885
0.467133 0.388214 0.249298
0.552094 0.399750 0.260773
0.651825 0.412384 0.273315
0.782318 0.427155 0.287994
0.111755 0.445099 0.228607
0.220032 0.456635 0.241333
0.314301 0.462860 0.248810
0.398560 0.467529 0.254791
0.475922 0.472565 0.261047
0.559662 0.482666 0.272491
0.658020 0.493866 0.284912
0.786530 0.507141 0.299347
0.138275 0.536682 0.246246
0.243225 0.547455 0.258972
0.333954 0.552612 0.266113
0.415375 0.556702 0.272125
0.489960 0.560791 0.278015
0.567261 0.564972 0.284027
0.664215 0.575439 0.296234
0.790619 0.587830 0.310211
0.166321 0.641785 0.265350
0.267517 0.651611 0.277740
0.354553 0.655731 0.284393
0.432922 0.659027 0.290222
0.505096 0.662262 0.295898
0.580963 0.665497 0.301422
0.670074 0.668732 0.306854
0.794464 0.680115 0.320343
0.196350 0.776245 0.286255
0.293579 0.784729 0.298370
0.376740 0.787262 0.304352
0.451965 0.789429 0.309814
0.521790 0.791534 0.315094
0.596375 0.793549 0.320160
0.683838 0.795502 0.324890
0.797974 0.797394 0.329437
0.038086 0.022430 0.269989
0.146149 0.028778 0.272797
0.246460 0.036102 0.276093
0.343353 0.048706 0.284149
0.434174 0.063599 0.294128
0.522522 0.079071 0.304382
0.625549 0.096100 0.315704
0.761322 0.115814 0.329498
0.051758 0.140594 0.277069
0.165649 0.153931 0.287231
0.264771 0.161285 0.291107
0.360291 0.173676 0.299835
0.449341 0.187897 0.310120
0.536621 0.202423 0.320557
0.638641 0.218231 0.332153
0.772736 0.236542 0.345978
0.067474 0.249146 0.284546
0.180542 0.262878 0.295990
0.283936 0.275696 0.306458
0.377502 0.287384 0.315613
0.464355 0.300354 0.326019
0.550446 0.313507 0.336517
0.651245 0.327789 0.348175
0.783478 0.344330 0.361908
0.089722 0.352081 0.297302
0.200439 0.364868 0.309082
0.302032 0.377289 0.320404
0.390259 0.384888 0.326904
0.474670 0.396301 0.337219
0.559296 0.407776 0.347565
0.658722 0.420288 0.358978
0.788788 0.434937 0.372528
0.115601 0.446869 0.312775
0.223297 0.458405 0.324493
0.321747 0.469421 0.335785
0.406464 0.475098 0.341614
0.483337 0.480042 0.346771
0.566742 0.490082 0.357025
0.664795 0.501221 0.368347
0.792816 0.514282 0.381561
0.142212 0.538269 0.328430
0.246521 0.548981 0.340149
0.341644 0.559174 0.351196
0.423096 0.563873 0.356689
0.497223 0.567871 0.361511
0.574219 0.572021 0.366364
0.670746 0.582306 0.377380
0.796692 0.594543 0.390228
0.170258 0.643097 0.345367
0.270782 0.652954 0.356812
0.362335 0.662140 0.367462
0.440491 0.665741 0.372559
0.512115 0.668945 0.377106
0.587708 0.672028 0.381531
0.676483 0.675140 0.385895
0.800385 0.686401 0.398285
0.200256 0.777161 0.364349
0.296692 0.785583 0.375244
0.384521 0.793457 0.385406
0.459167 0.795624 0.389923
0.528656 0.797607 0.394073
0.602844 0.799561 0.398102
0.689972 0.801361 0.401855
0.803711 0.803131 0.405396
0.046234 0.030731 0.359467
0.154175 0.037415 0.361877
0.254303 0.045013 0.364655
0.346649 0.053497 0.367737
0.435577 0.067108 0.375488
0.523743 0.082733 0.384949
0.626678 0.099945 0.395599
0.762115 0.119751 0.408478
0.060486 0.149078 0.365631
0.174072 0.162506 0.375153
0.272888 0.170013 0.378387
0.363556 0.178101 0.381866
0.450867 0.191071 0.389984
0.537964 0.205719 0.399506
0.639832 0.221649 0.410309
0.773621 0.239960 0.423279
0.076599 0.257385 0.371857
0.189240 0.271210 0.382507
0.292114 0.284058 0.392090
0.380646 0.291168 0.395782
0.465942 0.303070 0.404175
0.551819 0.316284 0.413818
0.652435 0.330566 0.424377
0.784271 0.347137 0.437317
0.095062 0.355865 0.378937
0.205139 0.368591 0.389740
0.306030 0.380920 0.400055
0.397552 0.392303 0.409393
0.480682 0.402893 0.417908
0.565186 0.414490 0.427399
0.664429 0.427032 0.437927
0.794189 0.441742 0.450531
0.119446 0.448608 0.391083
0.226532 0.460144 0.401855
0.324432 0.471191 0.412140
0.413391 0.481628 0.421814
0.490295 0.487091 0.426544
0.573456 0.497131 0.435791
0.671143 0.508118 0.446014
0.798706 0.521118 0.458191
0.146271 0.539856 0.404938
0.249786 0.550568 0.415588
0.344269 0.560699 0.425629
0.430084 0.570251 0.435089
0.504059 0.574585 0.439240
0.580750 0.578644 0.443085
0.676941 0.588806 0.453033
0.802429 0.600952 0.464905
0.174286 0.644440 0.420044
0.274048 0.654236 0.430359
0.364929 0.663391 0.440063
0.447388 0.671936 0.449127
0.518768 0.675201 0.452789
0.593994 0.678223 0.456238
0.682465 0.681213 0.459625
0.805939 0.692322 0.471100
0.204071 0.778076 0.436981
0.299805 0.786469 0.446899
0.386963 0.794281 0.456085
0.466003 0.801392 0.464600
0.535004 0.803284 0.467834
0.609009 0.805145 0.470947
0.695740 0.806885 0.473846
0.809082 0.808502 0.476532
0.054138 0.038757 0.442841
0.161957 0.045715 0.444855
0.261932 0.053650 0.447174
0.353882 0.062286 0.449677
0.438110 0.071716 0.452423
0.524994 0.086426 0.460114
0.627777 0.103821 0.470062
0.763000 0.123779 0.482391
0.068848 0.157104 0.448120
0.182159 0.170776 0.457092
0.280670 0.178436 0.459686
0.370911 0.186646 0.462494
0.453369 0.195251 0.465454
0.539337 0.209045 0.473389
0.640991 0.225037 0.483276
0.774384 0.243378 0.495514
0.085388 0.265350 0.453186
0.197571 0.279144 0.463165
0.299927 0.292023 0.472015
0.388000 0.299194 0.474976
0.468323 0.306549 0.477997
0.553223 0.319061 0.486115
0.653595 0.333374 0.495972
0.785126 0.349945 0.508026
0.104095 0.363403 0.458984
0.213684 0.376129 0.469025
0.313904 0.388336 0.478424
0.404846 0.399719 0.486938
0.482788 0.405640 0.489990
0.566589 0.416687 0.498138
0.665588 0.429260 0.507904
0.794983 0.443878 0.519653
0.124329 0.451447 0.465271
0.230713 0.462830 0.475189
0.327881 0.473755 0.484589
0.416229 0.484070 0.493347
0.496735 0.493652 0.501373
0.579376 0.503357 0.509552
0.676849 0.514343 0.519073
0.804108 0.527374 0.530548
0.150208 0.541412 0.476654
0.253082 0.552094 0.486542
0.346954 0.562225 0.495728
0.432129 0.571747 0.504364
0.510406 0.580811 0.512482
0.587006 0.584930 0.515747
0.682892 0.595032 0.524933
0.807983 0.607117 0.536072
0.178314 0.645813 0.490234
0.277283 0.655518 0.499725
0.367493 0.664642 0.508606
0.449371 0.673126 0.516937
0.525116 0.681152 0.524719
0.600128 0.684082 0.527435
0.688263 0.687042 0.530182
0.811310 0.697968 0.540955
0.207886 0.778992 0.505554
0.302856 0.787354 0.514709
0.389343 0.795105 0.523163
0.467926 0.802216 0.531097
0.541168 0.808746 0.538391
0.614838 0.810516 0.540833
0.701294 0.812164 0.543152
0.814301 0.813782 0.545258
0.062164 0.046936 0.526428
0.169830 0.054230 0.528259
0.269531 0.062408 0.530334
0.361267 0.071320 0.532532
0.445190 0.080902 0.535004
0.527100 0.091003 0.537567
0.628906 0.107727 0.546326
0.763855 0.127808 0.558258
0.077393 0.165375 0.531281
0.190369 0.179169 0.539948
0.288513 0.187042 0.542267
0.378357 0.195312 0.544708
0.460449 0.204010 0.547272
0.541351 0.213013 0.549988
0.642181 0.228455 0.558960
0.775269 0.246826 0.570770
0.094330 0.273346 0.535767
0.206055 0.287231 0.545380
0.307953 0.300201 0.553833
0.395477 0.307404 0.556396
0.475433 0.314880 0.559082
0.555115 0.322388 0.561768
0.654816 0.336212 0.570801
0.785889 0.352692 0.582397
0.113342 0.371155 0.540863
0.222290 0.383820 0.550476
0.322021 0.396057 0.559479
0.412354 0.407379 0.567596
0.489868 0.413269 0.570251
0.568390 0.419220 0.572937
0.666748 0.431396 0.581940
0.795746 0.446014 0.593292
0.133698 0.458679 0.546448
0.239471 0.470093 0.555939
0.335999 0.480927 0.564850
0.423645 0.491180 0.573181
0.503723 0.500702 0.580811
0.580963 0.505188 0.583374
0.677948 0.515961 0.592316
0.804840 0.528961 0.603455
0.154877 0.543671 0.552307
0.256927 0.554169 0.561615
0.350037 0.564209 0.570343
0.434570 0.573608 0.578461
0.512268 0.582520 0.586090
0.593506 0.591492 0.593811
0.689117 0.601562 0.602661
0.813904 0.613617 0.613464
0.182251 0.647125 0.564392
0.280457 0.656769 0.573425
0.370026 0.665863 0.582001
0.451294 0.674286 0.589905
0.526611 0.682312 0.597321
0.606598 0.690399 0.604858
0.694427 0.693268 0.607178
0.817108 0.704193 0.617584
0.211731 0.779968 0.579102
0.305908 0.788208 0.587799
0.391754 0.795929 0.595917
0.469727 0.803009 0.603333
0.542725 0.809662 0.610443
0.621124 0.816376 0.617432
0.707367 0.817963 0.619385
0.819946 0.819519 0.621216
0.071320 0.056305 0.625885
0.178802 0.063904 0.627472
0.278320 0.072327 0.629272
0.369781 0.081482 0.631256
0.453369 0.091278 0.633362
0.535065 0.101562 0.635590
0.630615 0.112274 0.637939
0.764740 0.131958 0.649017
0.087158 0.174805 0.630249
0.199799 0.188690 0.638580
0.297516 0.196747 0.640594
0.386932 0.205139 0.642670
0.468658 0.213959 0.644897
0.549316 0.222992 0.647186
0.643768 0.232300 0.649567
0.776123 0.250275 0.660583
0.104462 0.282532 0.634155
0.215698 0.296509 0.643372
0.317108 0.309509 0.651459
0.404144 0.316711 0.653595
0.483643 0.324219 0.655853
0.563141 0.331726 0.658112
0.656311 0.339355 0.660461
0.786743 0.355469 0.671356
0.123688 0.379852 0.638550
0.232086 0.392609 0.647736
0.331177 0.404755 0.656281
0.420959 0.416107 0.663879
0.498077 0.421967 0.666077
0.576294 0.427917 0.668335
0.668121 0.433807 0.670563
0.796509 0.448090 0.681335
0.144226 0.467010 0.643341
0.249298 0.478485 0.652344
0.345123 0.489227 0.660736
0.432190 0.499359 0.668579
0.511719 0.508820 0.675629
0.588776 0.513306 0.677795
0.679108 0.517670 0.679871
0.805573 0.530548 0.690491
0.165375 0.551727 0.648285
0.266754 0.562286 0.657104
0.359100 0.572205 0.665253
0.442963 0.581512 0.672882
0.520172 0.590302 0.679962
0.601166 0.599243 0.687225
0.690125 0.602936 0.689240
0.814545 0.614899 0.699615
0.186523 0.648773 0.653320
0.283966 0.658356 0.661865
0.372742 0.667297 0.669769
0.453308 0.675598 0.677063
0.528168 0.683472 0.683960
0.607971 0.691589 0.691162
0.701660 0.700500 0.699158
0.823914 0.711334 0.709106
0.215515 0.780884 0.666748
0.308929 0.789124 0.674927
0.394073 0.796722 0.682495
0.471436 0.803680 0.689545
0.544067 0.810333 0.696106
0.622467 0.817261 0.703033
0.714386 0.824768 0.710480
0.826660 0.826172 0.711884
0.082916 0.068085 0.758728
0.190186 0.075958 0.760010
0.289551 0.084686 0.761414
0.380615 0.094025 0.762909
0.463745 0.103943 0.764526
0.545349 0.114410 0.766235
0.640747 0.125214 0.768036
0.765839 0.136383 0.769867
0.099274 0.186523 0.762390
0.211456 0.200623 0.770233
0.308807 0.208740 0.771729
0.397797 0.217255 0.773285
0.479095 0.226135 0.774933
0.559479 0.235229 0.776642
0.653778 0.244568 0.778381
0.777191 0.253998 0.780151
0.116974 0.294098 0.765350
0.227570 0.308014 0.773956
0.328461 0.321045 0.781433
0.414978 0.328278 0.782990
0.494019 0.335785 0.784637
0.573212 0.343292 0.786285
0.666168 0.350861 0.787933
0.787689 0.358398 0.789581
0.136353 0.390930 0.768677
0.244110 0.403656 0.777161
0.342560 0.415802 0.785034
0.431793 0.427063 0.791992
0.508331 0.432892 0.793518
0.586304 0.438751 0.795074
0.677826 0.444550 0.796600
0.797394 0.450256 0.798157
0.156952 0.477661 0.772247
0.261292 0.488983 0.780548
0.356476 0.499634 0.788239
0.442902 0.509674 0.795349
0.521973 0.519135 0.801758
0.598694 0.523499 0.803192
0.688751 0.527863 0.804657
0.806274 0.532074 0.806000
0.178009 0.562073 0.775940
0.278687 0.572449 0.784027
0.370331 0.582245 0.791473
0.453552 0.591522 0.798370
0.530243 0.600220 0.804749
0.610962 0.609100 0.811249
0.699554 0.612610 0.812561
0.815186 0.616089 0.813934
0.199005 0.658691 0.779602
0.295685 0.668182 0.787384
0.383759 0.677094 0.794647
0.463715 0.685181 0.801208
0.538055 0.692993 0.807404
0.617554 0.701019 0.813904
0.710846 0.709747 0.821228
0.824677 0.712402 0.822479
0.219330 0.781891 0.783264
0.311951 0.790039 0.790741
0.396362 0.797546 0.797638
0.473175 0.804474 0.803894
0.545380 0.811035 0.809998
0.623566 0.817871 0.816315
0.715424 0.825592 0.823517
0.835388 0.834961 0.832397
