3d-lut/luts/Paladin 1875.CUBE
#Created by: Adobe Photoshop Export Color Lookup Plugin
#Copyright: (C) Copyright 2017 RocketStock
TITLE "Untitled"
#LUT size
LUT_3D_SIZE 32
#data domain
DOMAIN_MIN 0.0 0.0 0.0
DOMAIN_MAX 1.0 1.0 1.0
#LUT data points
0.070587 0.070587 0.070587
0.075378 0.072418 0.071442
0.080475 0.074341 0.072327
0.085938 0.076477 0.073273
0.091766 0.078766 0.074249
0.097809 0.081085 0.075256
0.104309 0.083679 0.076416
0.110992 0.086304 0.077515
0.118164 0.089142 0.078735
0.125671 0.092163 0.079987
0.133362 0.095184 0.081299
0.141571 0.098419 0.082703
0.150177 0.101837 0.084137
0.158997 0.105255 0.085632
0.168427 0.108917 0.087219
0.178314 0.112732 0.088898
0.188477 0.116577 0.090607
0.199310 0.120667 0.092407
0.210510 0.124756 0.094238
0.222534 0.129150 0.096191
0.235168 0.133667 0.098236
0.248199 0.138184 0.100311
0.262115 0.143036 0.102539
0.276672 0.148010 0.104828
0.291473 0.153046 0.107178
0.307098 0.158386 0.109650
0.323120 0.163910 0.112213
0.339111 0.169464 0.114838
0.353210 0.174194 0.117126
0.361481 0.176361 0.118134
0.370087 0.178711 0.119232
0.378845 0.181122 0.120392
0.076965 0.075989 0.072296
0.082428 0.078094 0.073242
0.088135 0.080322 0.074188
0.094238 0.082733 0.075226
0.100739 0.085297 0.076385
0.107361 0.087952 0.077484
0.114471 0.090790 0.078705
0.121796 0.093689 0.079926
0.129547 0.096832 0.081238
0.137695 0.100098 0.082642
0.146027 0.103394 0.084076
0.154907 0.106934 0.085632
0.164246 0.110596 0.087189
0.173767 0.114288 0.088806
0.183960 0.118256 0.090546
0.194427 0.122223 0.092285
0.205627 0.126465 0.094177
0.217438 0.130859 0.096130
0.229553 0.135254 0.098114
0.242615 0.139954 0.100250
0.256256 0.144775 0.102478
0.270294 0.149658 0.104706
0.285156 0.154846 0.107086
0.300537 0.160217 0.109558
0.316010 0.165619 0.112091
0.332184 0.171356 0.114807
0.346344 0.176239 0.117096
0.354523 0.178406 0.118134
0.363007 0.180756 0.119232
0.371582 0.183105 0.120331
0.380463 0.185638 0.121521
0.389526 0.188202 0.122711
0.084625 0.081970 0.074158
0.090698 0.084381 0.075226
0.097015 0.086914 0.076294
0.103729 0.089600 0.077484
0.110687 0.092377 0.078644
0.118042 0.095337 0.079895
0.125793 0.098450 0.081207
0.133667 0.101654 0.082581
0.142090 0.105042 0.084045
0.150879 0.108582 0.085571
0.159851 0.112122 0.087097
0.169464 0.115967 0.088776
0.179504 0.119904 0.090515
0.189850 0.123901 0.092285
0.200867 0.128143 0.094147
0.212189 0.132446 0.096039
0.224335 0.136993 0.098083
0.237091 0.141693 0.100220
0.250244 0.146423 0.102356
0.264282 0.151489 0.104645
0.278931 0.156677 0.107025
0.293762 0.161926 0.109467
0.309296 0.167480 0.112030
0.325256 0.173218 0.114746
0.339386 0.178192 0.117035
0.347656 0.180450 0.118073
0.355927 0.182739 0.119171
0.364532 0.185211 0.120300
0.373322 0.187683 0.121490
0.382172 0.190247 0.122681
0.391357 0.192932 0.123932
0.400665 0.195740 0.125244
0.093445 0.088562 0.076263
0.100159 0.091248 0.077423
0.107056 0.094025 0.078613
0.114349 0.096985 0.079865
0.121887 0.100037 0.081146
0.129852 0.103302 0.082581
0.138184 0.106689 0.083984
0.146667 0.110138 0.085510
0.155762 0.113831 0.087067
0.165222 0.117645 0.088715
0.174957 0.121490 0.090424
0.185303 0.125641 0.092224
0.196167 0.129883 0.094086
0.207245 0.134186 0.095978
0.219208 0.138733 0.098022
0.231476 0.143341 0.100098
0.244598 0.148224 0.102295
0.258392 0.153259 0.104584
0.272430 0.158386 0.106934
0.287354 0.163788 0.109375
0.302734 0.169373 0.111969
0.318176 0.175018 0.114594
0.332642 0.180237 0.117004
0.340790 0.182526 0.118042
0.348969 0.184814 0.119141
0.357544 0.187286 0.120270
0.366150 0.189758 0.121429
0.375061 0.192383 0.122620
0.384094 0.195068 0.123871
0.393219 0.197815 0.125153
0.402679 0.200714 0.126465
0.412170 0.203674 0.127869
0.103424 0.095642 0.078583
0.110596 0.098572 0.079803
0.118134 0.101685 0.081116
0.126068 0.104950 0.082520
0.134155 0.108246 0.083923
0.142731 0.111816 0.085449
0.151672 0.115479 0.087036
0.160889 0.119232 0.088654
0.170624 0.123199 0.090363
0.180847 0.127319 0.092194
0.191284 0.131470 0.093994
0.202454 0.135925 0.095947
0.213928 0.140381 0.097931
0.226196 0.145111 0.100037
0.239075 0.149994 0.102234
0.252319 0.154938 0.104462
0.266449 0.160187 0.106873
0.281067 0.165649 0.109344
0.295929 0.171112 0.111877
0.311462 0.176941 0.114532
0.325958 0.182312 0.116974
0.333923 0.184540 0.118011
0.342133 0.186920 0.119110
0.350464 0.189331 0.120209
0.359131 0.191864 0.121399
0.367981 0.194519 0.122620
0.376862 0.197174 0.123840
0.385986 0.199982 0.125122
0.395355 0.202911 0.126434
0.404694 0.205811 0.127777
0.414368 0.208893 0.129181
0.424103 0.212067 0.130585
0.114441 0.103333 0.081085
0.122131 0.106506 0.082428
0.130341 0.109955 0.083893
0.138824 0.113464 0.085388
0.147522 0.117096 0.086945
0.156738 0.120911 0.088623
0.166382 0.124878 0.090302
0.176239 0.128937 0.092072
0.186737 0.133209 0.093964
0.197693 0.137634 0.095917
0.208954 0.142120 0.097870
0.221039 0.146881 0.099976
0.233368 0.151672 0.102112
0.246613 0.156799 0.104401
0.260498 0.162079 0.106781
0.274597 0.167389 0.109222
0.289520 0.173035 0.111786
0.304871 0.178894 0.114441
0.319214 0.184326 0.116913
0.327209 0.186615 0.117950
0.335358 0.189026 0.119080
0.343628 0.191437 0.120209
0.352173 0.194000 0.121399
0.360779 0.196594 0.122559
0.369690 0.199310 0.123810
0.378815 0.202179 0.125092
0.387909 0.205048 0.126373
0.397369 0.208038 0.127747
0.406982 0.211151 0.129150
0.416565 0.214294 0.130524
0.426392 0.217560 0.131989
0.436371 0.220947 0.133453
0.126495 0.111603 0.083862
0.134796 0.115051 0.085297
0.143585 0.118774 0.086914
0.152679 0.122620 0.088562
0.161987 0.126495 0.090210
0.171936 0.130615 0.092010
0.182251 0.134918 0.093903
0.192841 0.139252 0.095825
0.204132 0.143890 0.097809
0.215698 0.148560 0.099854
0.228088 0.153503 0.102081
0.241089 0.158600 0.104370
0.254364 0.163788 0.106659
0.268494 0.169250 0.109161
0.283173 0.174957 0.111694
0.298004 0.180664 0.114319
0.312744 0.186401 0.116882
0.320618 0.188751 0.117950
0.328491 0.191071 0.119019
0.336792 0.193542 0.120148
0.345154 0.196075 0.121307
0.353821 0.198761 0.122528
0.362640 0.201538 0.123749
0.371521 0.204315 0.125000
0.380768 0.207245 0.126343
0.390167 0.210297 0.127686
0.399536 0.213348 0.129028
0.409180 0.216614 0.130493
0.419006 0.219879 0.131927
0.428772 0.223267 0.133392
0.438843 0.226715 0.134888
0.448822 0.230225 0.136444
0.139618 0.120453 0.086884
0.148468 0.124237 0.088501
0.157867 0.128235 0.090179
0.167633 0.132385 0.091949
0.177612 0.136566 0.093811
0.188232 0.140991 0.095764
0.199341 0.145660 0.097778
0.210754 0.150360 0.099823
0.222900 0.155304 0.101990
0.235382 0.160309 0.104218
0.248657 0.165680 0.106598
0.262573 0.171143 0.109100
0.276672 0.176727 0.111572
0.291595 0.182648 0.114227
0.306274 0.188507 0.116882
0.313904 0.190765 0.117889
0.321899 0.193207 0.119019
0.330048 0.195709 0.120148
0.338318 0.198242 0.121277
0.346954 0.200958 0.122498
0.355530 0.203674 0.123688
0.364502 0.206543 0.124969
0.373627 0.209503 0.126312
0.382812 0.212494 0.127625
0.392242 0.215668 0.129028
0.401855 0.218903 0.130463
0.411499 0.222168 0.131866
0.421326 0.225616 0.133362
0.431366 0.229126 0.134857
0.441315 0.232666 0.136383
0.451538 0.236420 0.137970
0.461670 0.240082 0.139526
0.153778 0.129944 0.090118
0.163208 0.133972 0.091858
0.173248 0.138306 0.093750
0.183746 0.142792 0.095673
0.194458 0.147308 0.097656
0.205872 0.152161 0.099762
0.217529 0.157013 0.101929
0.230011 0.162170 0.104187
0.243073 0.167511 0.106537
0.256439 0.172913 0.108917
0.270569 0.178619 0.111511
0.285278 0.184631 0.114166
0.299805 0.190552 0.116821
0.307465 0.192902 0.117889
0.315308 0.195312 0.118988
0.323303 0.197815 0.120087
0.331573 0.200470 0.121246
0.340057 0.203156 0.122467
0.348602 0.205902 0.123688
0.357513 0.208801 0.124969
0.366394 0.211731 0.126251
0.375610 0.214813 0.127594
0.384979 0.218018 0.128998
0.394409 0.221191 0.130402
0.404114 0.224548 0.131836
0.414001 0.228027 0.133331
0.423767 0.231476 0.134796
0.433838 0.235107 0.136353
0.444031 0.238892 0.137909
0.454132 0.242676 0.139496
0.464478 0.246613 0.141113
0.474731 0.250549 0.142731
0.168945 0.140045 0.093689
0.179108 0.144440 0.095581
0.189850 0.149078 0.097626
0.201050 0.153931 0.099701
0.212524 0.158844 0.101837
0.224792 0.164032 0.104126
0.237305 0.169281 0.106415
0.250671 0.174866 0.108887
0.264587 0.180603 0.111450
0.278717 0.186462 0.114044
0.293549 0.192688 0.116821
0.301086 0.195038 0.117859
0.308746 0.197449 0.118927
0.316742 0.199982 0.120056
0.324921 0.202637 0.121216
0.333160 0.205322 0.122406
0.341736 0.208130 0.123657
0.350403 0.210999 0.124878
0.359375 0.213989 0.126221
0.368500 0.217102 0.127533
0.377686 0.220245 0.128937
0.387177 0.223541 0.130341
0.396820 0.226929 0.131805
0.406433 0.230347 0.133240
0.416351 0.233917 0.134735
0.426392 0.237610 0.136322
0.436371 0.241333 0.137817
0.446594 0.245209 0.139435
0.456818 0.249054 0.141022
0.467194 0.253143 0.142700
0.477631 0.257294 0.144379
0.488007 0.261505 0.146057
0.185303 0.150909 0.097565
0.196136 0.155640 0.099609
0.207611 0.160675 0.101807
0.219391 0.165771 0.104004
0.231934 0.171173 0.106384
0.245026 0.176758 0.108826
0.258423 0.182434 0.111328
0.272583 0.188477 0.113983
0.287170 0.194733 0.116730
0.294678 0.197144 0.117798
0.302338 0.199615 0.118896
0.310242 0.202209 0.120026
0.318176 0.204803 0.121155
0.326477 0.207520 0.122375
0.334839 0.210327 0.123596
0.343506 0.213257 0.124847
0.352417 0.216309 0.126190
0.361359 0.219360 0.127472
0.370575 0.222595 0.128876
0.380005 0.225922 0.130310
0.389374 0.229248 0.131714
0.399109 0.232788 0.133209
0.408966 0.236389 0.134705
0.418793 0.240051 0.136230
0.428894 0.243835 0.137817
0.439148 0.247803 0.139404
0.449249 0.251678 0.140961
0.459686 0.255798 0.142639
0.469940 0.259918 0.144287
0.480408 0.264221 0.145996
0.490967 0.268585 0.147736
0.501373 0.272949 0.149445
0.202820 0.162537 0.101746
0.214355 0.167664 0.103943
0.226654 0.173096 0.106323
0.239227 0.178589 0.108704
0.252655 0.184418 0.111237
0.266571 0.190521 0.113892
0.280609 0.196625 0.116577
0.288483 0.199310 0.117798
0.296051 0.201813 0.118866
0.303680 0.204315 0.119965
0.311646 0.207031 0.121124
0.319855 0.209808 0.122345
0.328094 0.212585 0.123566
0.336700 0.215576 0.124817
0.345367 0.218536 0.126099
0.354309 0.221710 0.127472
0.363495 0.224976 0.128876
0.372681 0.228241 0.130249
0.382172 0.231689 0.131683
0.391846 0.235260 0.133179
0.401489 0.238800 0.134644
0.411438 0.242554 0.136169
0.421478 0.246429 0.137756
0.431488 0.250244 0.139343
0.441803 0.254303 0.140930
0.451935 0.258392 0.142578
0.462372 0.262604 0.144257
0.472839 0.266968 0.145935
0.483215 0.271271 0.147644
0.493805 0.275787 0.149384
0.504425 0.280365 0.151184
0.514862 0.284912 0.152893
0.221252 0.174896 0.106201
0.233826 0.180542 0.108643
0.246979 0.186401 0.111206
0.260345 0.192383 0.113739
0.274475 0.198730 0.116516
0.282410 0.201538 0.117737
0.289734 0.203979 0.118774
0.297363 0.206573 0.119934
0.305206 0.209259 0.121094
0.313202 0.211975 0.122253
0.321472 0.214905 0.123535
0.329834 0.217834 0.124786
0.338501 0.220917 0.126099
0.347443 0.224091 0.127411
0.356354 0.227295 0.128784
0.365601 0.230682 0.130188
0.375061 0.234131 0.131622
0.384460 0.237640 0.133118
0.394165 0.241333 0.134613
0.404083 0.245117 0.136139
0.413910 0.248901 0.137695
0.424042 0.252899 0.139252
0.434265 0.256989 0.140900
0.444458 0.261078 0.142517
0.454865 0.265320 0.144196
0.465118 0.269562 0.145874
0.475677 0.274048 0.147614
0.486237 0.278534 0.149353
0.496643 0.283081 0.151093
0.507263 0.287811 0.152893
0.517944 0.292603 0.154694
0.528412 0.297363 0.156525
0.241150 0.188293 0.111084
0.254517 0.194427 0.113678
0.268402 0.200806 0.116425
0.276276 0.203674 0.117706
0.283569 0.206238 0.118774
0.291107 0.208801 0.119904
0.298767 0.211487 0.121033
0.306763 0.214294 0.122223
0.314911 0.217194 0.123505
0.323181 0.220154 0.124725
0.331757 0.223297 0.126038
0.340424 0.226410 0.127380
0.349396 0.229706 0.128784
0.358582 0.233093 0.130157
0.367767 0.236542 0.131561
0.377289 0.240143 0.133026
0.386993 0.243866 0.134552
0.396606 0.247589 0.136078
0.406555 0.251526 0.137634
0.416626 0.255554 0.139252
0.426666 0.259521 0.140808
0.436951 0.263763 0.142456
0.447144 0.267944 0.144104
0.457581 0.272369 0.145813
0.468079 0.276855 0.147552
0.478485 0.281342 0.149261
0.489105 0.285980 0.151031
0.499695 0.290710 0.152832
0.510193 0.295380 0.154602
0.520813 0.300293 0.156464
0.531433 0.305267 0.158325
0.541931 0.310181 0.160156
0.262177 0.202759 0.116272
0.270355 0.205902 0.117676
0.277588 0.208466 0.118774
0.284851 0.211029 0.119843
0.292542 0.213776 0.121002
0.300354 0.216614 0.122192
0.308319 0.219452 0.123444
0.316650 0.222504 0.124695
0.324951 0.225586 0.125977
0.333618 0.228821 0.127319
0.342529 0.232147 0.128723
0.351440 0.235504 0.130096
0.360718 0.239044 0.131531
0.370178 0.242706 0.133026
0.379608 0.246368 0.134491
0.389343 0.250183 0.136047
0.399261 0.254120 0.137604
0.409088 0.258087 0.139160
0.419220 0.262238 0.140778
0.429474 0.266479 0.142456
0.439636 0.270721 0.144073
0.450043 0.275146 0.145782
0.460358 0.279572 0.147491
0.470917 0.284180 0.149231
0.481506 0.288849 0.151001
0.491943 0.293549 0.152740
0.502625 0.298340 0.154572
0.513275 0.303284 0.156403
0.523712 0.308167 0.158234
0.534393 0.313232 0.160095
0.544983 0.318359 0.161987
0.555450 0.323425 0.163849
0.271515 0.210663 0.118683
0.278778 0.213318 0.119812
0.286346 0.216064 0.120972
0.293976 0.218842 0.122131
0.301880 0.221832 0.123383
0.310120 0.224884 0.124664
0.318359 0.227966 0.125946
0.326965 0.231262 0.127319
0.335602 0.234497 0.128632
0.344574 0.237976 0.130066
0.353760 0.241547 0.131500
0.362915 0.245148 0.132935
0.372437 0.248932 0.134430
0.382111 0.252808 0.135986
0.391785 0.256683 0.137512
0.401764 0.260803 0.139130
0.411804 0.264954 0.140747
0.421875 0.269135 0.142365
0.432159 0.273499 0.144043
0.442352 0.277863 0.145691
0.452850 0.282410 0.147430
0.463379 0.287048 0.149170
0.473785 0.291656 0.150909
0.484375 0.296448 0.152710
0.495056 0.301361 0.154541
0.505524 0.306183 0.156342
0.516144 0.311218 0.158173
0.526855 0.316284 0.160034
0.537323 0.321320 0.161896
0.547882 0.326508 0.163818
0.558350 0.331726 0.165680
0.568878 0.336945 0.167664
0.280121 0.218353 0.120911
0.287750 0.221222 0.122101
0.295593 0.224213 0.123352
0.303528 0.227234 0.124634
0.311859 0.230377 0.125916
0.320312 0.233673 0.127258
0.328827 0.237000 0.128632
0.337769 0.240509 0.130005
0.346649 0.243988 0.131439
0.355927 0.247711 0.132904
0.365387 0.251526 0.134399
0.374786 0.255371 0.135956
0.384552 0.259369 0.137482
0.394440 0.263519 0.139099
0.404327 0.267609 0.140656
0.414459 0.271912 0.142303
0.424683 0.276337 0.144012
0.434875 0.280701 0.145660
0.445343 0.285309 0.147369
0.455811 0.289948 0.149109
0.466217 0.294617 0.150879
0.476868 0.299438 0.152649
0.487274 0.304199 0.154449
0.497925 0.309174 0.156281
0.508636 0.314270 0.158142
0.519104 0.319244 0.159973
0.529724 0.324432 0.161865
0.540375 0.329681 0.163757
0.550781 0.334869 0.165680
0.561401 0.340240 0.167572
0.571899 0.345581 0.169556
0.582184 0.350891 0.171448
0.289276 0.226532 0.123322
0.297272 0.229645 0.124573
0.305389 0.232849 0.125885
0.313599 0.236084 0.127228
0.322235 0.239532 0.128571
0.330994 0.243042 0.129974
0.339874 0.246582 0.131409
0.348999 0.250305 0.132874
0.358185 0.254059 0.134338
0.367706 0.258026 0.135895
0.377380 0.262085 0.137451
0.387054 0.266083 0.139008
0.397003 0.270386 0.140594
0.407074 0.274719 0.142303
0.417114 0.279022 0.143921
0.427429 0.283569 0.145630
0.437805 0.288177 0.147339
0.448151 0.292786 0.149017
0.458618 0.297516 0.150818
0.469086 0.302277 0.152588
0.479706 0.307251 0.154388
0.490326 0.312256 0.156219
0.500824 0.317230 0.158020
0.511505 0.322388 0.159912
0.522186 0.327576 0.161804
0.532654 0.332733 0.163666
0.543274 0.338013 0.165619
0.553864 0.343414 0.167542
0.564240 0.348694 0.169464
0.574738 0.354126 0.171417
0.585022 0.359497 0.173340
0.595367 0.364990 0.175323
0.298889 0.235260 0.125824
0.307190 0.238586 0.127167
0.315643 0.242065 0.128540
0.324158 0.245514 0.129913
0.333069 0.249176 0.131378
0.341980 0.252869 0.132812
0.351196 0.256714 0.134308
0.360626 0.260712 0.135834
0.370056 0.264679 0.137360
0.379852 0.268860 0.138947
0.389709 0.273132 0.140564
0.399597 0.277405 0.142212
0.409729 0.281891 0.143860
0.419983 0.286438 0.145599
0.430206 0.290924 0.147247
0.440643 0.295715 0.148987
0.451172 0.300507 0.150787
0.461548 0.305298 0.152527
0.472168 0.310272 0.154358
0.482605 0.315186 0.156158
0.493286 0.320312 0.157990
0.503937 0.325470 0.159821
0.514465 0.330597 0.161682
0.525085 0.335876 0.163635
0.535736 0.341217 0.165527
0.546173 0.346497 0.167450
0.556732 0.351929 0.169403
0.567291 0.357452 0.171356
0.577576 0.362732 0.173279
0.587982 0.368317 0.175262
0.598175 0.373749 0.177246
0.608398 0.379303 0.179230
0.309021 0.244507 0.128479
0.317596 0.248077 0.129883
0.326355 0.251801 0.131317
0.335175 0.255524 0.132782
0.344360 0.259430 0.134247
0.353516 0.263336 0.135773
0.363007 0.267426 0.137329
0.372681 0.271637 0.138916
0.382324 0.275848 0.140472
0.392303 0.280243 0.142151
0.402374 0.284760 0.143829
0.412445 0.289215 0.145508
0.422729 0.293915 0.147186
0.433105 0.298676 0.148956
0.443420 0.303375 0.150726
0.454010 0.308319 0.152496
0.464386 0.313202 0.154266
0.475037 0.318268 0.156097
0.485687 0.323425 0.157928
0.496216 0.328461 0.159790
0.506866 0.333771 0.161652
0.517548 0.339020 0.163574
0.528015 0.344330 0.165466
0.538666 0.349701 0.167389
0.549255 0.355194 0.169342
0.559631 0.360565 0.171265
0.570068 0.366089 0.173248
0.580383 0.371521 0.175201
0.590729 0.377106 0.177155
0.601013 0.382690 0.179199
0.611053 0.388092 0.181152
0.621185 0.393799 0.183167
0.319611 0.254333 0.131226
0.328430 0.258179 0.132721
0.337372 0.262024 0.134186
0.346588 0.266022 0.135712
0.356018 0.270172 0.137299
0.365417 0.274323 0.138824
0.375183 0.278687 0.140442
0.385040 0.283081 0.142120
0.394928 0.287506 0.143738
0.405090 0.292145 0.145477
0.415344 0.296844 0.147156
0.425507 0.301544 0.148865
0.435944 0.306396 0.150665
0.446289 0.311218 0.152405
0.456879 0.316284 0.154205
0.467499 0.321411 0.156036
0.477966 0.326385 0.157837
0.488647 0.331604 0.159729
0.499329 0.336914 0.161591
0.509796 0.342133 0.163483
0.520477 0.347565 0.165405
0.531067 0.352997 0.167358
0.541565 0.358337 0.169250
0.552094 0.363892 0.171204
0.562592 0.369415 0.173187
0.572937 0.374817 0.175140
0.583313 0.380463 0.177124
0.593475 0.385895 0.179077
0.603760 0.391571 0.181091
0.613892 0.397156 0.183105
0.623749 0.402679 0.185089
0.633728 0.408295 0.187103
0.330597 0.264740 0.134155
0.339752 0.268799 0.135681
0.348938 0.272858 0.137207
0.358398 0.277130 0.138794
0.368042 0.281494 0.140411
0.377686 0.285889 0.142029
0.387634 0.290405 0.143707
0.397736 0.295105 0.145416
0.407745 0.299713 0.147095
0.418030 0.304535 0.148804
0.428497 0.309418 0.150604
0.438782 0.314301 0.152344
0.449310 0.319366 0.154144
0.459747 0.324310 0.155945
0.470398 0.329529 0.157806
0.481049 0.334808 0.159668
0.491577 0.339996 0.161499
0.502228 0.345398 0.163422
0.512878 0.350800 0.165344
0.523346 0.356140 0.167236
0.534027 0.361633 0.169189
0.544586 0.367218 0.171143
0.554932 0.372620 0.173096
0.565460 0.378204 0.175079
0.575684 0.383698 0.177032
0.586090 0.389313 0.179016
0.596375 0.394989 0.181030
0.606354 0.400452 0.183014
0.616486 0.406128 0.185028
0.626495 0.411743 0.187073
0.636200 0.417206 0.189056
0.645966 0.422821 0.191071
0.342041 0.275726 0.137146
0.351410 0.279999 0.138763
0.360840 0.284271 0.140320
0.370575 0.288788 0.141998
0.380432 0.293365 0.143646
0.390289 0.297913 0.145294
0.400452 0.302673 0.147034
0.410675 0.307495 0.148743
0.420898 0.312317 0.150513
0.431274 0.317413 0.152283
0.441620 0.322296 0.154083
0.452209 0.327454 0.155914
0.462799 0.332733 0.157745
0.473267 0.337860 0.159576
0.483948 0.343170 0.161469
0.494659 0.348602 0.163361
0.505157 0.353912 0.165253
0.515778 0.359406 0.167206
0.526459 0.364960 0.169159
0.536865 0.370331 0.171051
0.547455 0.375946 0.173065
0.557983 0.381561 0.175018
0.568207 0.387085 0.176971
0.578613 0.392761 0.178986
0.588776 0.398224 0.180939
0.599030 0.403900 0.182953
0.609131 0.409576 0.184998
0.619019 0.415039 0.186981
0.628998 0.420715 0.188995
0.638794 0.426331 0.191040
0.648376 0.431763 0.193024
0.657959 0.437286 0.195007
0.353851 0.287170 0.140259
0.363495 0.291656 0.141937
0.373108 0.296173 0.143585
0.383087 0.300903 0.145264
0.393097 0.305695 0.146973
0.403137 0.310425 0.148682
0.413483 0.315430 0.150452
0.423828 0.320496 0.152252
0.434143 0.325439 0.154022
0.444702 0.330597 0.155853
0.455109 0.335724 0.157654
0.465729 0.341034 0.159515
0.476440 0.346436 0.161438
0.486908 0.351715 0.163269
0.497559 0.357178 0.165192
0.508209 0.362671 0.167145
0.518738 0.368103 0.169037
0.529358 0.373688 0.170990
0.539948 0.379303 0.173004
0.550262 0.384827 0.174927
0.560791 0.390472 0.176941
0.571014 0.395996 0.178894
0.581360 0.401703 0.180908
0.591644 0.407318 0.182922
0.601624 0.412903 0.184875
0.611725 0.418518 0.186920
0.621674 0.424164 0.188934
0.631378 0.429657 0.190948
0.641144 0.435303 0.192932
0.650818 0.440826 0.194977
0.660187 0.446259 0.196960
0.669617 0.451721 0.198944
0.365997 0.299164 0.143555
0.375885 0.303864 0.145233
0.385742 0.308594 0.146912
0.395813 0.313507 0.148651
0.406067 0.318481 0.150421
0.416229 0.323456 0.152161
0.426697 0.328552 0.153961
0.437195 0.333832 0.155823
0.447540 0.338928 0.157593
0.458221 0.344299 0.159485
0.468658 0.349548 0.161316
0.479340 0.355011 0.163208
0.489990 0.360443 0.165161
0.500488 0.365906 0.167053
0.511139 0.371490 0.168976
0.521729 0.377045 0.170959
0.532196 0.382599 0.172882
0.542725 0.388214 0.174896
0.553253 0.393921 0.176880
0.563507 0.399414 0.178802
0.573883 0.405121 0.180847
0.584015 0.410675 0.182800
0.594299 0.416351 0.184814
0.604370 0.422058 0.186890
0.614227 0.427551 0.188843
0.624146 0.433167 0.190887
0.633942 0.438843 0.192902
0.643524 0.444244 0.194885
0.653076 0.449768 0.196869
0.662476 0.455261 0.198914
0.671722 0.460541 0.200897
0.680878 0.465942 0.202881
0.378571 0.311646 0.146851
0.388611 0.316559 0.148590
0.398621 0.321472 0.150330
0.408844 0.326538 0.152130
0.419250 0.331726 0.153931
0.429535 0.336853 0.155701
0.440063 0.342102 0.157562
0.450439 0.347412 0.159393
0.461151 0.352783 0.161285
0.471741 0.358276 0.163177
0.482239 0.363617 0.165070
0.492889 0.369171 0.166962
0.503571 0.374786 0.168945
0.514008 0.380249 0.170868
0.524658 0.385925 0.172852
0.535217 0.391602 0.174805
0.545593 0.397156 0.176758
0.556030 0.402863 0.178802
0.566284 0.408447 0.180725
0.576599 0.414154 0.182739
0.586853 0.419830 0.184753
0.596863 0.425385 0.186737
0.606873 0.431061 0.188812
0.616852 0.436707 0.190826
0.626556 0.442169 0.192780
0.636261 0.447754 0.194855
0.645905 0.453278 0.196808
0.655273 0.458649 0.198792
0.664612 0.464111 0.200836
0.673737 0.469360 0.202789
0.682861 0.474701 0.204773
0.691864 0.479980 0.206757
0.391327 0.324585 0.150299
0.401520 0.329712 0.152100
0.411713 0.334778 0.153839
0.422089 0.340027 0.155670
0.432587 0.345367 0.157532
0.442963 0.350616 0.159332
0.453552 0.356049 0.161255
0.464020 0.361420 0.163086
0.474640 0.366974 0.165009
0.485352 0.372528 0.166931
0.495789 0.377991 0.168854
0.506470 0.383636 0.170837
0.517059 0.389313 0.172791
0.527466 0.394897 0.174713
0.538086 0.400604 0.176727
0.548492 0.406281 0.178711
0.558777 0.411865 0.180664
0.569153 0.417633 0.182709
0.579254 0.423187 0.184662
0.589478 0.428894 0.186707
0.599518 0.434570 0.188751
0.609344 0.440125 0.190704
0.619263 0.445709 0.192749
0.629059 0.451294 0.194794
0.638611 0.456726 0.196747
0.648102 0.462250 0.198761
0.657532 0.467651 0.200806
0.666687 0.472900 0.202759
0.675842 0.478271 0.204742
0.684753 0.483398 0.206665
0.693634 0.488586 0.208618
0.702362 0.493713 0.210632
0.404327 0.337921 0.153778
0.414642 0.343262 0.155609
0.424927 0.348480 0.157410
0.435455 0.353851 0.159302
0.445862 0.359161 0.161133
0.456512 0.364716 0.163055
0.467133 0.370270 0.164978
0.477600 0.375763 0.166870
0.488220 0.381348 0.168793
0.498871 0.387054 0.170746
0.509369 0.392639 0.172699
0.519928 0.398285 0.174683
0.530487 0.404053 0.176697
0.540833 0.409607 0.178619
0.551239 0.415375 0.180634
0.561493 0.420959 0.182587
