3d-lut/luts/Paladin 1875.CUBE
#Created by: Adobe Photoshop Export Color Lookup Plugin
#Copyright: (C) Copyright 2017 RocketStock
TITLE "Untitled"
#LUT size
LUT_3D_SIZE 8
#data domain
#LUT data points
DOMAIN_MIN 0.000000 0.000000 0.000000
DOMAIN_MAX 0.903226 0.903226 0.903226
0.070587 0.070587 0.070587
0.091766 0.078766 0.074249
0.118164 0.089142 0.078735
0.150177 0.101837 0.084137
0.188477 0.116577 0.090607
0.235168 0.133667 0.098236
0.291473 0.153046 0.107178
0.353210 0.174194 0.117126
0.103424 0.095642 0.078583
0.134155 0.108246 0.083923
0.170624 0.123199 0.090363
0.213928 0.140381 0.097931
0.266449 0.160187 0.106873
0.325958 0.182312 0.116974
0.359131 0.191864 0.121399
0.395355 0.202911 0.126434
0.153778 0.129944 0.090118
0.194458 0.147308 0.097656
0.243073 0.167511 0.106537
0.299805 0.190552 0.116821
0.331573 0.200470 0.121246
0.366394 0.211731 0.126251
0.404114 0.224548 0.131836
0.444031 0.238892 0.137909
0.221252 0.174896 0.106201
0.274475 0.198730 0.116516
0.305206 0.209259 0.121094
0.338501 0.220917 0.126099
0.375061 0.234131 0.131622
0.413910 0.248901 0.137695
0.454865 0.265320 0.144196
0.496643 0.283081 0.151093
0.280121 0.218353 0.120911
0.311859 0.230377 0.125916
0.346649 0.243988 0.131439
0.384552 0.259369 0.137482
0.424683 0.276337 0.144012
0.466217 0.294617 0.150879
0.508636 0.314270 0.158142
0.550781 0.334869 0.165680
0.319611 0.254333 0.131226
0.356018 0.270172 0.137299
0.394928 0.287506 0.143738
0.435944 0.306396 0.150665
0.477966 0.326385 0.157837
0.520477 0.347565 0.165405
0.562592 0.369415 0.173187
0.603760 0.391571 0.181091
0.365997 0.299164 0.143555
0.406067 0.318481 0.150421
0.447540 0.338928 0.157593
0.489990 0.360443 0.165161
0.532196 0.382599 0.172882
0.573883 0.405121 0.180847
0.614227 0.427551 0.188843
0.653076 0.449768 0.196869
0.417542 0.351715 0.157379
0.459412 0.373505 0.164886
0.501770 0.396027 0.172638
0.543732 0.418793 0.180573
0.584595 0.441437 0.188599
0.624115 0.463806 0.196625
0.661621 0.485291 0.204590
0.697144 0.505798 0.212372
0.075195 0.073303 0.078644
0.098328 0.082306 0.082611
0.126495 0.093536 0.087372
0.160522 0.106995 0.093231
0.201141 0.122528 0.100128
0.250702 0.140442 0.108276
0.309662 0.160858 0.117889
0.360443 0.177490 0.125854
0.111511 0.100037 0.087219
0.144165 0.113525 0.093048
0.182465 0.129242 0.099854
0.228516 0.147430 0.108032
0.283478 0.168121 0.117523
0.332886 0.185638 0.125702
0.366974 0.195740 0.130432
0.403992 0.207245 0.135773
0.164978 0.136047 0.099670
0.207794 0.154358 0.107727
0.258942 0.175659 0.117218
0.306396 0.194000 0.125549
0.339081 0.204407 0.130249
0.374908 0.216309 0.135590
0.413208 0.229584 0.141418
0.453613 0.244507 0.147827
0.236145 0.183289 0.116882
0.281403 0.202637 0.125397
0.312347 0.213348 0.130096
0.346527 0.225555 0.135406
0.383850 0.239380 0.141205
0.423340 0.254700 0.147552
0.464630 0.271698 0.154388
0.506714 0.289917 0.161530
0.286957 0.222656 0.129944
0.319489 0.235229 0.135193
0.355347 0.249542 0.141022
0.393799 0.265350 0.147339
0.434448 0.282867 0.154144
0.476257 0.301636 0.161316
0.518738 0.321716 0.168854
0.560822 0.342590 0.176697
0.327698 0.259949 0.140808
0.364960 0.276367 0.147125
0.404480 0.294250 0.153900
0.445862 0.313599 0.161072
0.488220 0.334167 0.168640
0.530548 0.355438 0.176422
0.572479 0.377502 0.184509
0.613220 0.399719 0.192688
0.375275 0.306061 0.153687
0.415863 0.325897 0.160858
0.457611 0.346680 0.168335
0.500153 0.368500 0.176178
0.542114 0.390778 0.184174
0.583557 0.413391 0.192413
0.623413 0.435699 0.200684
0.661713 0.457733 0.208984
0.427429 0.359619 0.168091
0.469604 0.381805 0.175934
0.511749 0.404327 0.183929
0.553497 0.427155 0.192169
0.593933 0.449707 0.200439
0.632904 0.471771 0.208710
0.669769 0.492859 0.216888
0.704620 0.512909 0.224854
0.080536 0.076294 0.086823
0.105499 0.086182 0.091095
0.135529 0.098206 0.096283
0.171509 0.112427 0.102539
0.214539 0.128845 0.109955
0.267120 0.147644 0.118713
0.328552 0.169159 0.129028
0.368011 0.180939 0.134827
0.120209 0.104706 0.096100
0.154602 0.119019 0.102325
0.195038 0.135559 0.109680
0.243713 0.154694 0.118439
0.301117 0.176514 0.128632
0.340149 0.189178 0.134674
0.375061 0.199768 0.139679
0.412811 0.211853 0.145355
0.176758 0.142456 0.109406
0.221802 0.161774 0.118042
0.275482 0.184174 0.128296
0.313385 0.197693 0.134521
0.346893 0.208588 0.139526
0.383484 0.221008 0.145172
0.422424 0.234833 0.151306
0.463348 0.250336 0.157990
0.251526 0.192078 0.127930
0.287872 0.206360 0.134338
0.319824 0.217651 0.139343
0.354858 0.230408 0.144928
0.392914 0.244843 0.151093
0.432922 0.260742 0.157715
0.474609 0.278259 0.164886
0.516968 0.297089 0.172394
0.294037 0.227020 0.139160
0.327454 0.240234 0.144775
0.364075 0.255157 0.150909
0.403137 0.271576 0.157532
0.444336 0.289581 0.164673
0.486298 0.308807 0.172119
0.528809 0.329285 0.180023
0.570740 0.350464 0.188110
0.336151 0.265778 0.150665
0.374054 0.282776 0.157288
0.414307 0.301300 0.164429
0.455841 0.320953 0.171906
0.498352 0.341888 0.179779
0.540558 0.363434 0.187866
0.582275 0.385651 0.196289
0.622559 0.407867 0.204742
0.384735 0.313110 0.164154
0.425720 0.333405 0.171631
0.467712 0.354553 0.179443
0.510162 0.376648 0.187592
0.552155 0.399139 0.195984
0.593079 0.421631 0.204498
0.632629 0.443970 0.213074
0.670135 0.465546 0.221588
0.437408 0.367615 0.179230
0.479675 0.390015 0.187317
0.521667 0.412659 0.195679
0.563141 0.435455 0.204193
0.603119 0.457825 0.212769
0.641510 0.479645 0.221313
0.677704 0.500336 0.229675
0.711823 0.519897 0.237823
0.086578 0.079651 0.095123
0.113312 0.090332 0.099762
0.145142 0.103119 0.105347
0.183228 0.118195 0.112091
0.229095 0.135529 0.120148
0.284332 0.155182 0.129517
0.341675 0.175110 0.139343
0.375793 0.184570 0.144073
0.129456 0.109650 0.105164
0.165680 0.124817 0.111877
0.208344 0.142242 0.119781
0.259674 0.162384 0.129211
0.314758 0.183136 0.139160
0.347595 0.192932 0.143921
0.383514 0.204102 0.149323
0.421844 0.216614 0.155273
0.189209 0.149231 0.119537
0.236877 0.169708 0.128876
0.289307 0.191498 0.139038
0.320526 0.201508 0.143738
0.354919 0.212952 0.149078
0.392303 0.225922 0.155029
0.431854 0.240326 0.161530
0.473114 0.256378 0.168579
0.265320 0.200073 0.138916
0.294647 0.210327 0.143585
0.327484 0.222168 0.148895
0.363556 0.235565 0.154846
0.402100 0.250458 0.161316
0.442841 0.267059 0.168335
0.484619 0.284973 0.175781
0.527069 0.304260 0.183655
0.301361 0.231689 0.148712
0.335602 0.245483 0.154602
0.373047 0.260986 0.161102
0.412720 0.278015 0.168060
0.454254 0.296539 0.175537
0.496582 0.316315 0.183411
0.538818 0.336945 0.191589
0.580811 0.358551 0.200104
0.344879 0.271851 0.160919
0.383362 0.289337 0.167816
0.424103 0.308411 0.175293
0.465973 0.328461 0.183105
0.508514 0.349701 0.191315
0.550537 0.371521 0.199799
0.591949 0.393799 0.208527
0.631836 0.415985 0.217316
0.394287 0.320404 0.175018
0.435669 0.341034 0.182861
0.477997 0.362671 0.191071
0.520142 0.384827 0.199493
0.561951 0.407379 0.208221
0.602417 0.429810 0.217041
0.641449 0.451965 0.225952
0.678375 0.473236 0.234711
0.447418 0.375702 0.190735
0.489716 0.398254 0.199219
0.531555 0.420990 0.207886
0.572632 0.443695 0.216736
0.612122 0.465881 0.225616
0.649902 0.487396 0.234497
0.685577 0.507751 0.243134
0.718872 0.526642 0.251404
0.093353 0.083344 0.103668
0.121704 0.094788 0.108673
0.155579 0.108459 0.114777
0.195709 0.124237 0.122009
0.244354 0.142426 0.130615
0.302094 0.163055 0.140808
0.348846 0.178436 0.148590
0.383850 0.188385 0.153625
0.139252 0.114899 0.114532
0.177429 0.130951 0.121765
0.222412 0.149292 0.130310
0.276398 0.170410 0.140442
0.321777 0.186615 0.148438
0.355377 0.196808 0.153503
0.392090 0.208527 0.159210
0.431030 0.221558 0.165527
0.202301 0.156372 0.130005
0.252380 0.177917 0.140106
0.295807 0.194946 0.148254
0.328003 0.205536 0.153320
0.363190 0.217499 0.158997
0.401337 0.231018 0.165283
0.441437 0.245972 0.172119
0.483063 0.262573 0.179565
0.271423 0.203644 0.148102
0.301819 0.214539 0.153168
0.335419 0.226868 0.158783
0.372314 0.240845 0.165100
0.411499 0.256378 0.171936
0.452667 0.273499 0.179291
0.494659 0.291870 0.187134
0.537079 0.311584 0.195343
0.308868 0.236572 0.158600
0.344086 0.250977 0.164886
0.382141 0.267090 0.171692
0.422577 0.284729 0.179077
0.464264 0.303589 0.186859
0.506714 0.323792 0.195099
0.548920 0.344788 0.203674
0.590576 0.366516 0.212555
0.353729 0.278107 0.171478
0.392792 0.296143 0.178772
0.433990 0.315643 0.186615
0.476044 0.336151 0.194824
0.518555 0.357666 0.203369
0.560394 0.379639 0.212219
0.601501 0.401978 0.221313
0.641022 0.424194 0.230530
0.404144 0.327942 0.186340
0.445709 0.348846 0.194550
0.488068 0.370758 0.203125
0.530182 0.393005 0.211914
0.571594 0.415649 0.221008
0.611633 0.437927 0.230164
0.650146 0.459900 0.239441
0.686401 0.480835 0.248474
0.457458 0.383911 0.202759
0.499695 0.406616 0.211670
0.541290 0.429352 0.220673
0.582001 0.451935 0.229858
0.621155 0.473999 0.239136
0.658112 0.494995 0.248199
0.693085 0.514862 0.257111
0.725616 0.533142 0.265503
0.100616 0.087280 0.112396
0.130707 0.099518 0.117859
0.166534 0.114014 0.124420
0.208923 0.130585 0.132263
0.260406 0.149658 0.141602
0.320374 0.171326 0.152588
0.356354 0.181915 0.158142
0.392151 0.192383 0.163574
0.149658 0.120514 0.124146
0.189819 0.137390 0.131989
0.237518 0.156799 0.141266
0.293671 0.178894 0.152252
0.328918 0.190186 0.157959
0.363434 0.200958 0.163361
0.400909 0.213135 0.169495
0.440430 0.226685 0.176178
0.216064 0.163910 0.140900
0.268494 0.186615 0.151855
0.302582 0.198669 0.157745
0.335663 0.209778 0.163177
0.371887 0.222351 0.169281
0.410522 0.236359 0.175934
0.451294 0.251953 0.183228
0.493042 0.269012 0.191010
0.277740 0.207458 0.157593
0.309082 0.218842 0.163055
0.343689 0.231781 0.169037
0.381256 0.246368 0.175720
0.421021 0.262421 0.182983
0.462585 0.280060 0.190735
0.504761 0.298920 0.198914
0.547180 0.319031 0.207581
0.316711 0.241669 0.168854
0.352814 0.256714 0.175507
0.391510 0.273346 0.182709
0.432373 0.291443 0.190460
0.474304 0.310852 0.198669
0.516785 0.331421 0.207336
0.558868 0.352692 0.216278
0.600220 0.374512 0.225586
0.362701 0.284607 0.182465
0.402405 0.303131 0.190155
0.443939 0.323029 0.198425
0.486298 0.344055 0.207062
0.528564 0.365692 0.216003
0.570374 0.387878 0.225281
0.610840 0.410095 0.234680
0.649872 0.432190 0.244293
0.414001 0.335510 0.198151
0.455719 0.356750 0.206696
0.498138 0.378906 0.215729
0.540009 0.401245 0.224945
0.581146 0.423859 0.234406
0.620697 0.446045 0.243958
0.658539 0.467682 0.253540
0.694366 0.488312 0.262909
0.467651 0.392303 0.215393
0.509644 0.414948 0.224609
0.551117 0.437775 0.234100
0.591187 0.460022 0.243652
0.629761 0.481781 0.253204
0.666077 0.502380 0.262543
0.700348 0.521729 0.271606
0.732117 0.539429 0.280090
0.108551 0.091553 0.121399
0.140350 0.104553 0.127319
0.178101 0.119812 0.134430
0.222961 0.137268 0.142914
0.277252 0.157288 0.153107
0.330353 0.175995 0.162872
0.364075 0.185608 0.167999
0.400818 0.196594 0.173920
0.160858 0.126495 0.134216
0.202881 0.144135 0.142639
0.253113 0.164551 0.152740
0.303986 0.184052 0.162720
0.336365 0.194000 0.167816
0.371704 0.205231 0.173676
0.409851 0.217957 0.180206
0.449982 0.231995 0.187286
0.230499 0.171783 0.152344
0.279114 0.192383 0.162567
0.309784 0.202606 0.167694
0.343628 0.214172 0.173462
0.380646 0.227295 0.179962
0.419891 0.241852 0.187073
0.461121 0.258057 0.194763
0.503052 0.275574 0.202911
0.284424 0.211426 0.167450
0.316711 0.223450 0.173279
0.352081 0.236938 0.179718
0.390411 0.252045 0.186798
0.430725 0.268677 0.194458
0.472626 0.286865 0.202637
0.515045 0.306274 0.211334
0.557220 0.326569 0.220398
0.324738 0.247009 0.179504
0.361664 0.262665 0.186584
0.401001 0.279785 0.194183
0.442230 0.298462 0.202393
0.484375 0.318237 0.211029
0.526886 0.339111 0.220123
0.568756 0.360596 0.229523
0.609772 0.382599 0.239227
0.371918 0.291199 0.193939
0.412292 0.310364 0.202118
0.454010 0.330597 0.210754
0.496460 0.351868 0.219818
0.538544 0.373749 0.229218
0.580078 0.396027 0.238922
0.620087 0.418213 0.248779
0.658569 0.440186 0.258728
0.423859 0.343231 0.210449
0.465790 0.364746 0.219482
0.508118 0.387085 0.228912
0.549805 0.409546 0.238586
0.590576 0.432037 0.248444
0.629730 0.454224 0.258423
0.666809 0.475372 0.268219
0.701935 0.495544 0.277832
0.477692 0.400604 0.228607
0.519470 0.423248 0.238220
0.560608 0.446014 0.248169
0.600220 0.468079 0.258057
0.638153 0.489471 0.267944
0.673828 0.509644 0.277466
0.707367 0.528503 0.286652
0.738342 0.545502 0.295105
0.117004 0.096069 0.130646
0.150574 0.109863 0.137115
0.190430 0.125946 0.144867
0.238098 0.144379 0.154175
0.294678 0.165283 0.165192
0.337433 0.179352 0.172821
0.372101 0.189453 0.178345
0.409576 0.200989 0.184631
0.172424 0.132690 0.144592
0.216644 0.151245 0.153778
0.269440 0.172699 0.164825
0.310791 0.187500 0.172638
0.344055 0.197968 0.178162
0.380219 0.209717 0.184387
0.419067 0.222931 0.191315
0.459808 0.237640 0.198914
0.245880 0.180298 0.164429
0.285522 0.195984 0.172455
0.317078 0.206696 0.177979
0.351837 0.218750 0.184174
0.389587 0.232483 0.191101
0.429443 0.247620 0.198639
0.471039 0.264343 0.206787
0.513123 0.282349 0.215393
0.291321 0.215637 0.177765
0.324524 0.228210 0.183960
0.360779 0.242279 0.190857
0.399719 0.257996 0.198395
0.440704 0.275269 0.206512
0.482666 0.293823 0.215149
0.525116 0.313629 0.224335
0.567169 0.334259 0.233856
0.333069 0.252502 0.190613
0.370728 0.268768 0.198151
0.410614 0.286438 0.206207
0.452240 0.305542 0.214844
0.494720 0.325897 0.224030
0.536957 0.346954 0.233521
0.578705 0.368713 0.243469
0.619202 0.390625 0.253601
0.381287 0.298035 0.205963
0.422150 0.317627 0.214569
0.464050 0.338287 0.223663
0.506531 0.359863 0.233246
0.548462 0.381836 0.243103
0.589630 0.404236 0.253265
0.629211 0.426300 0.263519
0.667084 0.447998 0.273804
0.433777 0.351074 0.223389
0.475891 0.372864 0.232849
0.518066 0.395264 0.242767
0.559692 0.417908 0.252960
0.599823 0.440186 0.263184
0.638428 0.462036 0.273499
0.674866 0.482880 0.283539
0.709259 0.502594 0.293274
0.487671 0.408905 0.242462
0.529236 0.431641 0.252563
0.569977 0.454163 0.262909
0.609039 0.476013 0.273102
0.646332 0.497070 0.283203
0.681488 0.516785 0.292969
0.714081 0.534943 0.302124
0.744415 0.551422 0.310638
