3d-lut/luts/Paladin 1875.CUBE
#Created by: Adobe Photoshop Export Color Lookup Plugin
#Copyright: (C) Copyright 2017 RocketStock
TITLE "Untitled"
#LUT size
LUT_3D_SIZE 5
#data domain
#LUT data points
DOMAIN_MIN 0.000000 0.000000 0.000000
DOMAIN_MAX 0.903226 0.903226 0.903226
0.070587 0.070587 0.070587
0.110992 0.086304 0.077515
0.168427 0.108917 0.087219
0.248199 0.138184 0.100311
0.353210 0.174194 0.117126
0.139618 0.120453 0.086884
0.210754 0.150360 0.099823
0.306274 0.188507 0.116882
0.364502 0.206543 0.124969
0.431366 0.229126 0.134857
0.262177 0.202759 0.116272
0.316650 0.222504 0.124695
0.379608 0.246368 0.134491
0.450043 0.275146 0.145782
0.523712 0.308167 0.158234
0.330597 0.264740 0.134155
0.397736 0.295105 0.145416
0.470398 0.329529 0.157806
0.544586 0.367218 0.171143
0.616486 0.406128 0.185028
0.417542 0.351715 0.157379
0.491150 0.390289 0.170654
0.564301 0.430206 0.184570
0.633606 0.469177 0.198608
0.697144 0.505798 0.212372
0.079163 0.075562 0.084747
0.125305 0.093811 0.092651
0.188995 0.118896 0.103668
0.277344 0.150818 0.118469
0.366150 0.180115 0.132568
0.158142 0.130493 0.103210
0.236206 0.163330 0.117889
0.318115 0.194550 0.132294
0.379120 0.214294 0.141296
0.447784 0.238495 0.152100
0.274109 0.209930 0.131989
0.330200 0.230743 0.140961
0.395569 0.256378 0.151703
0.467499 0.286865 0.163971
0.541504 0.321228 0.177338
0.345642 0.275299 0.151337
0.414520 0.307220 0.163483
0.488159 0.343048 0.176849
0.561859 0.381287 0.191071
0.632751 0.420471 0.205872
0.435028 0.365692 0.176422
0.508789 0.404877 0.190613
0.581024 0.444733 0.205414
0.648682 0.483002 0.220215
0.710022 0.518127 0.234528
0.089813 0.081390 0.099365
0.141541 0.102234 0.108490
0.211731 0.129700 0.120941
0.308685 0.164581 0.137817
0.379761 0.186432 0.148804
0.178650 0.141602 0.120514
0.264008 0.177582 0.137207
0.330841 0.201324 0.148529
0.394470 0.222687 0.158630
0.464844 0.248566 0.170410
0.285706 0.216980 0.148224
0.344482 0.239502 0.158234
0.412140 0.267059 0.170013
0.485016 0.298981 0.183228
0.559113 0.334656 0.197723
0.361359 0.286530 0.169586
0.431885 0.320007 0.182770
0.505951 0.356903 0.197235
0.579071 0.395660 0.212494
0.648376 0.434479 0.228241
0.452454 0.379822 0.196686
0.526184 0.419556 0.212006
0.597107 0.458954 0.227722
0.663086 0.496368 0.243469
0.722260 0.529907 0.258423
0.102478 0.088287 0.114624
0.159729 0.111542 0.125122
0.237213 0.141571 0.139465
0.333160 0.175751 0.156860
0.394318 0.193451 0.166107
0.201202 0.153778 0.138916
0.287689 0.190063 0.156586
0.344574 0.208618 0.165771
0.410278 0.231598 0.176971
0.482239 0.259247 0.190033
0.298126 0.224701 0.165466
0.359589 0.249023 0.176605
0.428986 0.278198 0.189514
0.502747 0.311707 0.204010
0.576385 0.348206 0.219666
0.377411 0.298279 0.189056
0.449463 0.333252 0.203491
0.523407 0.370972 0.219147
0.595886 0.410034 0.235687
0.663605 0.448425 0.252594
0.470123 0.394287 0.218628
0.543274 0.434204 0.235199
0.612885 0.473022 0.252014
0.676758 0.509125 0.268494
0.733734 0.541046 0.283875
0.117004 0.096069 0.130646
0.179779 0.121674 0.142792
0.265350 0.154510 0.159454
0.345764 0.181763 0.174103
0.409576 0.200989 0.184631
0.225739 0.167145 0.158813
0.299377 0.196350 0.173798
0.358948 0.216553 0.184265
0.426849 0.241211 0.196747
0.499634 0.270386 0.211090
0.311249 0.232971 0.183868
0.375336 0.259216 0.196350
0.446350 0.290039 0.210602
0.520508 0.324860 0.226532
0.593567 0.362122 0.243591
0.394104 0.310669 0.210114
0.467163 0.346863 0.225952
0.540955 0.385254 0.243011
0.612091 0.424194 0.260864
0.678223 0.462036 0.278778
0.487671 0.408905 0.242462
0.559845 0.448578 0.260315
0.628052 0.486725 0.278229
0.689789 0.521393 0.295258
0.744415 0.551422 0.310638
