3d-lut/luts/Pasadena 21.CUBE
#Created by: Adobe Photoshop Export Color Lookup Plugin
#Copyright: (C) Copyright 2017 RocketStock
TITLE "Warm Pink"
#LUT size
LUT_3D_SIZE 32
#data domain
DOMAIN_MIN 0.0 0.0 0.0
DOMAIN_MAX 1.0 1.0 1.0
#LUT data points
0.049835 0.017914 0.085541
0.072083 0.018860 0.085266
0.094940 0.019836 0.084869
0.118744 0.020905 0.084351
0.143585 0.022095 0.083771
0.169159 0.023315 0.083130
0.194977 0.024689 0.082397
0.220215 0.026031 0.081604
0.244507 0.027557 0.080780
0.267181 0.029144 0.079926
0.288116 0.030731 0.079102
0.307678 0.032410 0.078247
0.326080 0.034149 0.077362
0.343414 0.035919 0.076569
0.360107 0.037750 0.075806
0.376251 0.039642 0.075073
0.392151 0.041473 0.074402
0.407898 0.043396 0.073944
0.423676 0.045319 0.073944
0.439819 0.047302 0.073944
0.456299 0.049286 0.073944
0.472992 0.051239 0.073944
0.489990 0.053223 0.073944
0.507080 0.055237 0.073944
0.524658 0.057190 0.073944
0.542938 0.059174 0.073944
0.561798 0.061096 0.073944
0.581146 0.063019 0.074646
0.601196 0.064972 0.075653
0.622192 0.066956 0.076752
0.644714 0.068970 0.078033
0.669403 0.071014 0.079437
0.052460 0.040466 0.084869
0.075073 0.041504 0.084351
0.098297 0.042694 0.083801
0.122528 0.043945 0.083160
0.147766 0.045288 0.082397
0.173676 0.046692 0.081635
0.199646 0.048248 0.080811
0.224945 0.049744 0.079987
0.249115 0.051422 0.079132
0.271576 0.053101 0.078247
0.292328 0.054810 0.077423
0.311707 0.056610 0.076599
0.329956 0.058472 0.075836
0.347198 0.060333 0.075104
0.363800 0.062286 0.074432
0.379852 0.064178 0.073944
0.395721 0.066162 0.073944
0.411530 0.068176 0.073944
0.427338 0.070129 0.073944
0.443573 0.072174 0.073944
0.460144 0.074188 0.073944
0.476837 0.076172 0.073944
0.493774 0.078217 0.073944
0.510895 0.080200 0.073944
0.528564 0.082184 0.073944
0.546967 0.084167 0.074615
0.565948 0.086212 0.075623
0.585449 0.088165 0.076721
0.605713 0.090271 0.077972
0.626984 0.092285 0.079376
0.649963 0.094360 0.080963
0.675262 0.096497 0.082581
0.055664 0.063477 0.083801
0.078644 0.064758 0.083160
0.102203 0.066132 0.082397
0.126831 0.067596 0.081665
0.152405 0.069092 0.080841
0.178650 0.070709 0.080017
0.204742 0.072357 0.079163
0.229980 0.074036 0.078278
0.253967 0.075836 0.077423
0.276154 0.077667 0.076630
0.296692 0.079498 0.075867
0.315857 0.081451 0.075104
0.333893 0.083405 0.074463
0.351013 0.085358 0.073944
0.367554 0.087402 0.073944
0.383514 0.089417 0.073944
0.399353 0.091461 0.073944
0.415131 0.093536 0.073944
0.431030 0.095581 0.073944
0.447296 0.097626 0.073944
0.463867 0.099731 0.073944
0.480591 0.101776 0.073944
0.497498 0.103821 0.073944
0.514679 0.105896 0.074615
0.532501 0.107910 0.075562
0.551025 0.110046 0.076691
0.570099 0.112061 0.077911
0.589813 0.114197 0.079346
0.610321 0.116364 0.080872
0.631958 0.118530 0.082489
0.655396 0.120728 0.084259
0.681335 0.122955 0.086151
0.059387 0.087372 0.082428
0.082642 0.088837 0.081665
0.106628 0.090393 0.080872
0.131653 0.092010 0.080017
0.157562 0.093689 0.079193
0.183960 0.095459 0.078308
0.210083 0.097290 0.077454
0.235260 0.099121 0.076660
0.258972 0.101074 0.075897
0.280884 0.103058 0.075134
0.301117 0.105042 0.074493
0.320038 0.107086 0.073944
0.337921 0.109192 0.073944
0.354858 0.111267 0.073944
0.371246 0.113373 0.073944
0.387177 0.115448 0.073944
0.402924 0.117645 0.073944
0.418732 0.119751 0.073944
0.434631 0.121887 0.073944
0.450928 0.124023 0.073944
0.467499 0.126160 0.073944
0.484222 0.128174 0.074585
0.501129 0.130371 0.075531
0.518494 0.132599 0.076660
0.536469 0.134674 0.077881
0.555176 0.136902 0.079315
0.574432 0.139099 0.080780
0.594269 0.141388 0.082428
0.615021 0.143646 0.084198
0.637024 0.145935 0.086060
0.660980 0.148285 0.088013
0.687653 0.150665 0.090088
0.063568 0.112274 0.080872
0.087097 0.113922 0.080078
0.111450 0.115662 0.079193
0.136841 0.117523 0.078308
0.163086 0.119354 0.077484
0.189606 0.121277 0.076691
0.215729 0.123291 0.075897
0.240631 0.125336 0.075165
0.264069 0.127411 0.074493
0.285614 0.129547 0.073944
0.305542 0.131653 0.073944
0.324219 0.133850 0.073944
0.341827 0.135956 0.073944
0.358673 0.138184 0.073944
0.374908 0.140442 0.073944
0.390747 0.142609 0.073944
0.406464 0.144836 0.073944
0.422241 0.147034 0.073944
0.438110 0.149170 0.073944
0.454468 0.151367 0.074554
0.471069 0.153595 0.075531
0.487854 0.155792 0.076599
0.504883 0.157990 0.077850
0.522339 0.160217 0.079224
0.540558 0.162506 0.080750
0.559387 0.164856 0.082397
0.578796 0.167053 0.084106
0.598877 0.169434 0.085999
0.619843 0.171814 0.087952
0.642242 0.174103 0.089996
0.666809 0.176544 0.092163
0.694183 0.178986 0.094360
0.068176 0.138428 0.079224
0.091980 0.140320 0.078400
0.116669 0.142242 0.077515
0.142395 0.144287 0.076691
0.168823 0.146271 0.075928
0.195435 0.148407 0.075195
0.221436 0.150543 0.074524
0.246155 0.152649 0.073944
0.269135 0.154877 0.073944
0.290344 0.157166 0.073944
0.309967 0.159302 0.073944
0.328339 0.161621 0.073944
0.345734 0.163788 0.073944
0.362366 0.166077 0.073944
0.378510 0.168335 0.073944
0.394257 0.170502 0.073944
0.409912 0.172760 0.073944
0.425629 0.174896 0.074554
0.441650 0.177094 0.075470
0.458038 0.179352 0.076569
0.474731 0.181580 0.077820
0.491577 0.183777 0.079193
0.508667 0.186066 0.080719
0.526337 0.188324 0.082336
0.544708 0.190613 0.084076
0.563721 0.192963 0.085968
0.583282 0.195251 0.087860
0.603485 0.197571 0.089935
0.624847 0.199951 0.092072
0.647675 0.202301 0.094238
0.672760 0.204742 0.096527
0.701019 0.207153 0.098938
0.073090 0.165680 0.077545
0.097168 0.167664 0.076752
0.122162 0.169800 0.075958
0.148224 0.171906 0.075195
0.174835 0.174011 0.074554
0.201416 0.176239 0.073944
0.227234 0.178467 0.073944
0.251587 0.180664 0.073944
0.274139 0.182892 0.073944
0.294922 0.185089 0.073944
0.314240 0.187347 0.073944
0.332397 0.189636 0.073944
0.349518 0.191803 0.073944
0.365967 0.194000 0.073944
0.381958 0.196198 0.073944
0.397614 0.198334 0.074493
0.413269 0.200531 0.075439
0.429108 0.202728 0.076538
0.445190 0.204865 0.077759
0.461700 0.207062 0.079193
0.478394 0.209259 0.080627
0.495361 0.211517 0.082275
0.512573 0.213745 0.084015
0.530396 0.215973 0.085876
0.548981 0.218231 0.087830
0.568115 0.220490 0.089874
0.587799 0.222748 0.091949
0.608276 0.225037 0.094208
0.629913 0.227356 0.096497
0.653198 0.229645 0.098816
0.678955 0.232025 0.101227
0.707947 0.234344 0.103607
0.078278 0.193329 0.075989
0.102600 0.195374 0.075256
0.127930 0.197479 0.074554
0.154297 0.199677 0.073944
0.180939 0.201813 0.073944
0.207397 0.203979 0.073944
0.232971 0.206207 0.073944
0.256958 0.208405 0.073944
0.279053 0.210571 0.073944
0.299438 0.212708 0.073944
0.318390 0.214905 0.073944
0.336273 0.217041 0.073944
0.353210 0.219147 0.073944
0.369446 0.221252 0.074463
0.385315 0.223328 0.075409
0.400970 0.225433 0.076477
0.416687 0.227539 0.077728
0.432587 0.229645 0.079132
0.448792 0.231750 0.080566
0.465393 0.233917 0.082245
0.482178 0.236023 0.083954
0.499176 0.238159 0.085815
0.516571 0.240265 0.087769
0.534546 0.242401 0.089783
0.553253 0.244568 0.091919
0.572571 0.246765 0.094147
0.592377 0.248871 0.096375
0.613098 0.251099 0.098755
0.635071 0.253326 0.101166
0.658875 0.255432 0.103546
0.685303 0.257690 0.106018
0.715332 0.259888 0.108521
0.083710 0.220398 0.074585
0.108276 0.222504 0.073944
0.133881 0.224579 0.073944
0.160370 0.226715 0.073944
0.187073 0.228760 0.073944
0.213409 0.230896 0.073944
0.238525 0.232971 0.073944
0.262115 0.235046 0.073944
0.283752 0.237152 0.073944
0.303711 0.239136 0.073944
0.322418 0.241150 0.073944
0.339996 0.243134 0.074463
0.356720 0.245148 0.075378
0.372925 0.247070 0.076447
0.388794 0.249115 0.077698
0.404449 0.251068 0.079071
0.420197 0.253082 0.080566
0.436188 0.255066 0.082214
0.452484 0.257050 0.083893
0.469147 0.259064 0.085754
0.486023 0.261017 0.087677
0.503082 0.263000 0.089722
0.520599 0.265015 0.091858
0.538757 0.266998 0.094025
0.557617 0.269043 0.096313
0.577057 0.271088 0.098663
0.597076 0.273102 0.101013
0.618042 0.275116 0.103516
0.640411 0.277222 0.105988
0.664734 0.279236 0.108459
0.691925 0.281311 0.111023
0.722931 0.283386 0.113495
0.089233 0.246307 0.073944
0.114075 0.248230 0.073944
0.139893 0.250275 0.073944
0.166534 0.252289 0.073944
0.193146 0.254211 0.073944
0.219238 0.256165 0.073944
0.244019 0.258057 0.073944
0.267059 0.259949 0.073944
0.288269 0.261871 0.073944
0.307861 0.263672 0.074402
0.326233 0.265564 0.075348
0.343719 0.267395 0.076447
0.360291 0.269196 0.077637
0.376434 0.271088 0.079010
0.392242 0.272919 0.080536
0.407928 0.274719 0.082123
0.423737 0.276581 0.083862
0.439789 0.278412 0.085663
0.456238 0.280304 0.087646
0.472961 0.282166 0.089691
0.489868 0.283966 0.091736
0.506989 0.285889 0.093964
0.524689 0.287781 0.096252
0.543030 0.289612 0.098541
0.562042 0.291565 0.100952
0.581635 0.293457 0.103455
0.601807 0.295380 0.105835
0.623047 0.297333 0.108398
0.645752 0.299225 0.110901
0.670715 0.301208 0.113434
0.698700 0.303162 0.116058
0.730804 0.305115 0.118591
0.094910 0.270325 0.073944
0.119904 0.272125 0.073944
0.145935 0.273956 0.073944
0.172546 0.275757 0.073944
0.199066 0.277557 0.073944
0.224884 0.279358 0.073944
0.249268 0.281006 0.073944
0.271759 0.282745 0.074371
0.292603 0.284515 0.075317
0.311951 0.286194 0.076385
0.330139 0.287933 0.077606
0.347382 0.289642 0.078979
0.363892 0.291351 0.080444
0.379944 0.293091 0.082062
0.395721 0.294800 0.083771
0.411469 0.296539 0.085602
0.427338 0.298279 0.087585
0.443451 0.299988 0.089569
0.459991 0.301727 0.091705
0.476837 0.303528 0.093933
0.493774 0.305267 0.096130
0.510986 0.307068 0.098511
0.528870 0.308838 0.100891
0.547333 0.310608 0.103302
0.566498 0.312439 0.105774
0.586243 0.314270 0.108337
0.606598 0.316101 0.110840
0.628174 0.317932 0.113403
0.651337 0.319763 0.115906
0.676910 0.321655 0.118530
0.705750 0.323517 0.121094
0.739014 0.325409 0.123627
0.100525 0.292389 0.073944
0.125702 0.294067 0.073944
0.151917 0.295746 0.073944
0.178497 0.297333 0.073944
0.204803 0.299011 0.073944
0.230286 0.300629 0.074371
0.254242 0.302185 0.075256
0.276428 0.303833 0.076355
0.296936 0.305450 0.077576
0.316040 0.307068 0.078918
0.334015 0.308685 0.080383
0.351135 0.310303 0.082031
0.367554 0.311920 0.083740
0.383545 0.313568 0.085571
0.399292 0.315186 0.087494
0.415039 0.316833 0.089539
0.430969 0.318481 0.091644
0.447205 0.320099 0.093811
0.463867 0.321777 0.096039
0.480713 0.323456 0.098450
0.497681 0.325165 0.100800
0.515045 0.326874 0.103210
0.533081 0.328583 0.105743
0.551697 0.330292 0.108185
0.571014 0.332031 0.110779
0.590851 0.333740 0.113281
0.611481 0.335541 0.115875
0.633392 0.337341 0.118469
0.657013 0.339081 0.120972
0.683258 0.340881 0.123535
0.713013 0.342773 0.126129
0.747559 0.344604 0.128601
0.106079 0.312744 0.073944
0.131470 0.314331 0.073944
0.157684 0.315887 0.073944
0.184204 0.317352 0.074310
0.210358 0.318909 0.075226
0.235626 0.320435 0.076324
0.259247 0.321899 0.077484
0.281067 0.323456 0.078888
0.301300 0.325012 0.080353
0.320099 0.326538 0.081940
0.337921 0.328064 0.083710
0.354828 0.329620 0.085449
0.371155 0.331177 0.087433
0.387146 0.332733 0.089478
0.402832 0.334259 0.091553
0.418640 0.335876 0.093750
0.434662 0.337463 0.096008
0.450989 0.339050 0.098297
0.467712 0.340668 0.100739
0.484619 0.342316 0.103149
0.501617 0.343933 0.105621
0.519165 0.345581 0.108124
0.537354 0.347260 0.110718
0.556152 0.348907 0.113190
0.575592 0.350616 0.115814
0.595551 0.352295 0.118347
0.616455 0.354034 0.120911
0.638672 0.355804 0.123474
0.662811 0.357544 0.125946
0.689819 0.359314 0.128540
0.720734 0.361206 0.131165
0.756989 0.363098 0.133850
0.111542 0.331818 0.073944
0.137054 0.333252 0.074280
0.163422 0.334717 0.075195
0.189911 0.336151 0.076263
0.216003 0.337585 0.077454
0.240967 0.339081 0.078827
0.264221 0.340546 0.080261
0.285675 0.341980 0.081909
0.305603 0.343475 0.083649
0.324188 0.344940 0.085419
0.341797 0.346436 0.087372
0.358551 0.347900 0.089355
0.374817 0.349396 0.091492
0.390717 0.350952 0.093689
0.406433 0.352448 0.095886
0.422272 0.354004 0.098267
0.438416 0.355560 0.100677
0.454834 0.357086 0.103058
0.471588 0.358704 0.105560
0.488525 0.360291 0.108063
0.505615 0.361908 0.110565
0.523285 0.363495 0.113159
0.541595 0.365143 0.115662
0.560577 0.366791 0.118286
0.580170 0.368469 0.120819
0.600250 0.370178 0.123383
0.621429 0.371918 0.125916
0.644104 0.373627 0.128448
0.668945 0.375427 0.131042
0.696991 0.377319 0.133759
0.729401 0.379272 0.136627
0.767517 0.381226 0.139465
0.116974 0.349823 0.075165
0.142700 0.351196 0.076233
0.169220 0.352631 0.077423
0.195679 0.354004 0.078766
0.221649 0.355438 0.080231
0.246277 0.356842 0.081879
0.269135 0.358215 0.083557
0.290283 0.359711 0.085358
0.309845 0.361115 0.087280
0.328247 0.362549 0.089325
0.345673 0.364014 0.091431
0.362274 0.365479 0.093567
0.378479 0.366974 0.095825
0.394348 0.368469 0.098206
0.410065 0.369934 0.100525
0.425964 0.371460 0.102997
0.442169 0.373016 0.105469
0.458649 0.374542 0.107941
0.475494 0.376129 0.110504
0.492493 0.377716 0.113068
0.509644 0.379303 0.115631
0.527496 0.380981 0.118225
0.545929 0.382538 0.120697
0.565063 0.384277 0.123260
0.584778 0.385956 0.125824
0.605072 0.387634 0.128296
0.626617 0.389435 0.130951
0.649963 0.391266 0.133698
0.675690 0.393158 0.136444
0.704926 0.395172 0.139404
0.738922 0.397186 0.142395
0.778992 0.399200 0.145416
0.122498 0.367096 0.077362
0.148499 0.368469 0.078735
0.175110 0.369843 0.080200
0.201538 0.371185 0.081787
0.227234 0.372589 0.083496
0.251617 0.373993 0.085327
0.274048 0.375397 0.087219
0.294830 0.376801 0.089233
0.314117 0.378204 0.091309
0.332306 0.379639 0.093506
0.349548 0.381134 0.095795
0.366058 0.382538 0.098083
0.382141 0.384033 0.100464
0.397980 0.385529 0.102936
0.413696 0.387054 0.105316
0.429626 0.388580 0.107880
0.445984 0.390106 0.110443
0.462524 0.391693 0.112946
0.479431 0.393280 0.115540
0.496399 0.394867 0.118042
0.513733 0.396515 0.120636
0.531708 0.398193 0.123230
0.550323 0.399780 0.125702
0.569550 0.401550 0.128204
0.589508 0.403320 0.130890
0.610229 0.405090 0.133575
0.632355 0.407043 0.136353
0.656403 0.408997 0.139343
0.683075 0.410980 0.142273
0.713501 0.413055 0.145355
0.749054 0.415100 0.148407
0.791351 0.417236 0.151581
0.128113 0.383942 0.080109
0.154388 0.385284 0.081757
0.181030 0.386658 0.083466
0.207367 0.388000 0.085236
0.232880 0.389374 0.087189
0.256866 0.390808 0.089203
0.278931 0.392212 0.091278
0.299377 0.393646 0.093445
0.318390 0.395050 0.095673
0.336304 0.396515 0.098053
0.353394 0.397980 0.100372
0.369781 0.399445 0.102814
0.385773 0.400940 0.105286
0.401611 0.402466 0.107819
0.417389 0.403992 0.110260
0.433380 0.405548 0.112885
0.449768 0.407196 0.115448
0.466431 0.408722 0.117981
0.483337 0.410370 0.120575
0.500427 0.412079 0.123169
0.517822 0.413696 0.125671
0.535980 0.415436 0.128143
0.554810 0.417175 0.130798
0.574402 0.419067 0.133514
0.594696 0.420959 0.136322
0.615814 0.422882 0.139160
0.638489 0.424957 0.142181
0.663300 0.427032 0.145264
0.690918 0.429138 0.148315
0.722717 0.431305 0.151520
0.760071 0.433472 0.154724
0.804474 0.435638 0.157898
0.133911 0.400513 0.083374
0.160339 0.401917 0.085205
0.187012 0.403290 0.087128
0.213257 0.404694 0.089081
0.238495 0.406067 0.091248
0.262054 0.407532 0.093384
0.283722 0.408905 0.095642
0.303833 0.410370 0.097961
0.322601 0.411804 0.100311
0.340332 0.413330 0.102722
0.357208 0.414856 0.105225
0.373505 0.416351 0.107666
0.389465 0.417908 0.110229
0.405273 0.419495 0.112793
0.421051 0.421051 0.115326
0.437134 0.422699 0.117889
0.453644 0.424347 0.120514
0.470337 0.425995 0.123016
0.487274 0.427673 0.125610
0.504333 0.429413 0.128052
0.522064 0.431213 0.130707
0.540527 0.433105 0.133423
0.559662 0.435028 0.136169
0.579559 0.437042 0.139099
0.600189 0.439117 0.142120
0.621735 0.441223 0.145111
0.644989 0.443390 0.148224
0.670563 0.445587 0.151428
0.699188 0.447784 0.154572
0.732361 0.450043 0.157806
0.771332 0.452240 0.160950
0.818085 0.454529 0.164276
0.139771 0.417145 0.087006
0.166382 0.418579 0.089050
0.193054 0.419983 0.091156
0.219086 0.421417 0.093323
0.244019 0.422882 0.095581
0.267120 0.424286 0.097839
0.288452 0.425781 0.100220
0.308289 0.427338 0.102661
0.326782 0.428833 0.105103
0.344269 0.430420 0.107605
0.361053 0.431946 0.110168
0.377228 0.433502 0.112701
0.393127 0.435181 0.115265
0.408936 0.436829 0.117859
0.424744 0.438477 0.120392
0.440948 0.440186 0.122955
0.457489 0.441956 0.125519
0.474213 0.443695 0.127991
0.491302 0.445557 0.130615
0.508575 0.447388 0.133301
0.526642 0.449402 0.136108
0.545410 0.451508 0.139008
0.564880 0.453552 0.141937
0.585022 0.455719 0.144989
0.605927 0.457947 0.148163
0.627930 0.460144 0.151276
0.651794 0.462402 0.154510
0.678070 0.464661 0.157684
0.707733 0.466919 0.160919
0.742340 0.469238 0.164185
0.782990 0.471466 0.167389
0.832031 0.473755 0.170624
0.145782 0.434082 0.091034
0.172455 0.435516 0.093262
0.199066 0.437042 0.095520
0.224945 0.438507 0.097778
0.249512 0.440002 0.100159
0.272186 0.441528 0.102539
0.293152 0.443115 0.105042
0.312653 0.444702 0.107574
0.330872 0.446289 0.110046
0.348236 0.447906 0.112610
0.364807 0.449585 0.115204
0.380951 0.451233 0.117737
0.396790 0.452942 0.120361
0.412567 0.454712 0.122894
0.428436 0.456421 0.125427
0.444702 0.458252 0.127930
0.461365 0.460083 0.130463
0.478363 0.462006 0.133209
0.495605 0.464081 0.136047
0.513184 0.466095 0.138855
0.531555 0.468262 0.141876
0.550629 0.470428 0.144958
0.570282 0.472626 0.148010
0.590668 0.474884 0.151184
0.611847 0.477173 0.154419
0.634277 0.479462 0.157562
0.658691 0.481781 0.160797
0.685699 0.484039 0.164001
0.716461 0.486359 0.167297
0.752441 0.488678 0.170563
0.794739 0.490936 0.173706
0.846130 0.493195 0.176910
0.151855 0.451447 0.095367
0.178619 0.452942 0.097717
0.205078 0.454498 0.100067
0.230743 0.456085 0.102509
0.254944 0.457642 0.104980
0.277191 0.459229 0.107452
0.297791 0.460876 0.110016
0.316986 0.462524 0.112549
0.334991 0.464172 0.115112
0.352112 0.465912 0.117676
0.368591 0.467651 0.120300
0.384613 0.469391 0.122803
0.400452 0.471161 0.125366
0.416199 0.472931 0.127838
0.432251 0.474854 0.130402
0.448761 0.476837 0.133148
0.465607 0.478821 0.135895
0.482849 0.480927 0.138794
0.500214 0.483093 0.141815
0.518005 0.485291 0.144775
0.536652 0.487518 0.147949
0.555939 0.489807 0.151093
0.575836 0.492065 0.154266
0.596375 0.494385 0.157471
0.617859 0.496735 0.160736
0.640656 0.499023 0.163971
0.665649 0.501343 0.167236
0.693390 0.503632 0.170410
0.725250 0.505951 0.173645
0.762451 0.508270 0.176788
0.806335 0.510529 0.179871
0.860016 0.512756 0.183014
0.157959 0.469177 0.100006
0.184753 0.470825 0.102417
0.211060 0.472382 0.104858
0.236450 0.473999 0.107391
0.260284 0.475677 0.109924
0.282074 0.477295 0.112457
0.302368 0.479004 0.114990
0.321259 0.480743 0.117645
0.338989 0.482483 0.120117
0.356018 0.484283 0.122742
0.372375 0.486053 0.125275
0.388275 0.487885 0.127747
0.404175 0.489807 0.130371
0.420074 0.491730 0.133026
0.436340 0.493774 0.135834
0.453094 0.495880 0.138733
0.470123 0.498016 0.141663
0.487457 0.500244 0.144714
0.505005 0.502533 0.147827
0.523071 0.504791 0.150940
0.541870 0.507141 0.154175
0.561371 0.509521 0.157410
0.581360 0.511871 0.160583
0.602112 0.514252 0.163849
0.623749 0.516602 0.167053
0.647034 0.519073 0.170319
0.672546 0.521454 0.173553
0.701019 0.523804 0.176666
0.733765 0.526154 0.179810
0.772156 0.528473 0.182892
0.817444 0.530731 0.185822
0.873199 0.532959 0.188812
0.164093 0.487274 0.104797
0.190918 0.488922 0.107330
0.217041 0.490570 0.109802
0.242126 0.492279 0.112396
0.265472 0.493988 0.114960
0.286926 0.495697 0.117493
0.306824 0.497467 0.120056
0.325470 0.499237 0.122681
0.342987 0.501038 0.125153
0.359833 0.502899 0.127716
0.376068 0.504791 0.130188
0.392151 0.506805 0.132935
0.408142 0.508881 0.135773
0.424225 0.511017 0.138580
0.440704 0.513214 0.141571
0.457611 0.515533 0.144653
0.474823 0.517853 0.147675
0.492249 0.520264 0.150879
0.509918 0.522675 0.154083
0.528168 0.525055 0.157257
0.547150 0.527557 0.160522
0.566772 0.530060 0.163788
0.586853 0.532501 0.166992
0.607727 0.535004 0.170258
0.629639 0.537415 0.173370
0.653259 0.539917 0.176575
0.679230 0.542358 0.179718
0.708282 0.544678 0.182770
0.741913 0.547058 0.185760
0.781158 0.549316 0.188690
0.827698 0.551514 0.191467
0.885254 0.553650 0.194214
0.170319 0.505646 0.109711
0.197021 0.507355 0.112305
0.222992 0.509064 0.114838
0.247742 0.510895 0.117401
0.270630 0.512665 0.119995
0.291656 0.514496 0.122528
0.311249 0.516388 0.125092
0.329620 0.518311 0.127655
0.347015 0.520264 0.130157
0.363831 0.522339 0.132874
0.380127 0.524445 0.135590
0.396271 0.526703 0.138550
0.412384 0.528992 0.141510
0.428619 0.531311 0.144501
0.445282 0.533722 0.147614
0.462341 0.536224 0.150787
0.479584 0.538666 0.153931
0.497070 0.541199 0.157196
0.514862 0.543762 0.160461
0.533234 0.546265 0.163635
0.552338 0.548828 0.166870
0.571991 0.551361 0.170074
0.592194 0.553925 0.173340
0.613159 0.556488 0.176483
0.635223 0.558899 0.179596
0.659119 0.561401 0.182678
0.685455 0.563843 0.185669
0.715088 0.566132 0.188599
0.749298 0.568451 0.191406
0.789276 0.570648 0.194183
0.836700 0.572723 0.196716
0.895630 0.574738 0.199280
0.176575 0.524689 0.114777
0.203125 0.526520 0.117340
0.228882 0.528381 0.119873
0.253204 0.530273 0.122467
0.275665 0.532257 0.125031
0.296326 0.534149 0.127502
0.315674 0.536224 0.130096
0.333923 0.538391 0.132812
0.351288 0.540588 0.135529
0.368073 0.542847 0.138428
0.384399 0.545227 0.141357
0.400543 0.547668 0.144440
0.416779 0.550140 0.147522
0.433136 0.552643 0.150665
0.449921 0.555206 0.153809
0.467041 0.557800 0.157074
0.484314 0.560364 0.160248
0.501862 0.563049 0.163574
0.519745 0.565704 0.166840
0.538239 0.568268 0.169983
0.557434 0.570923 0.173218
0.577057 0.573486 0.176361
0.597260 0.576050 0.179504
0.618256 0.578583 0.182617
0.640472 0.580994 0.185547
0.664551 0.583435 0.188507
0.691162 0.585785 0.191345
0.721161 0.587982 0.194000
0.755737 0.590179 0.196655
0.796143 0.592255 0.199188
0.843964 0.594208 0.201538
0.902802 0.596100 0.203766
0.182770 0.544617 0.119812
0.209259 0.546570 0.122406
0.234619 0.548553 0.124878
0.258545 0.550598 0.127411
0.280640 0.552734 0.130035
0.301147 0.554901 0.132660
0.320343 0.557190 0.135468
0.338440 0.559479 0.138306
0.355743 0.561951 0.141235
0.372498 0.564453 0.144318
0.388794 0.566986 0.147400
0.404968 0.569550 0.150543
0.421234 0.572235 0.153748
0.437683 0.574860 0.156921
0.454590 0.577515 0.160187
0.471741 0.580261 0.163452
0.489014 0.582886 0.166656
0.506531 0.585632 0.169922
0.524414 0.588257 0.173065
0.543060 0.590942 0.176270
0.562195 0.593628 0.179443
0.581757 0.596161 0.182434
0.601898 0.598694 0.185455
0.622955 0.601257 0.188416
0.645172 0.603607 0.191193
0.669342 0.605988 0.193970
0.696075 0.608246 0.196594
0.726227 0.610382 0.199066
0.760956 0.612457 0.201447
0.800781 0.614380 0.203644
0.846161 0.616302 0.205872
0.902802 0.618134 0.208038
0.188934 0.565399 0.124817
0.215210 0.567505 0.127350
0.240387 0.569611 0.129883
0.264069 0.571869 0.132599
0.285919 0.574219 0.135406
0.306183 0.576599 0.138214
0.325226 0.579102 0.141205
0.343140 0.581635 0.144165
0.360321 0.584259 0.147308
0.376984 0.586945 0.150452
0.393250 0.589600 0.153595
0.409454 0.592346 0.156830
0.425751 0.595123 0.160126
0.442261 0.597870 0.163300
0.459167 0.600647 0.166565
0.476349 0.603455 0.169830
0.493561 0.606201 0.173004
0.511017 0.609009 0.176208
0.528992 0.611694 0.179291
0.547546 0.614502 0.182404
0.566650 0.617157 0.185364
0.586090 0.619720 0.188293
0.606110 0.622314 0.191162
0.627014 0.624817 0.193878
0.649231 0.627167 0.196472
0.673340 0.629517 0.199005
0.700043 0.631653 0.201416
0.729767 0.633698 0.203613
0.762573 0.635742 0.205841
0.800781 0.637695 0.207947
0.846161 0.639587 0.210052
0.902802 0.641449 0.212036
0.195160 0.586975 0.129822
0.221436 0.589325 0.132538
0.246490 0.591675 0.135254
0.269867 0.594208 0.138123
0.291321 0.596741 0.141052
0.311371 0.599335 0.144104
0.330200 0.602112 0.147217
0.347900 0.604828 0.150299
0.364960 0.607605 0.153534
0.381500 0.610474 0.156738
0.397705 0.613342 0.159973
0.413879 0.616272 0.163239
0.430145 0.619202 0.166504
0.446747 0.622101 0.169647
0.463623 0.625031 0.172913
0.480682 0.627930 0.176056
