3d-lut/luts/Pasadena 21.CUBE
#Created by: Adobe Photoshop Export Color Lookup Plugin
#Copyright: (C) Copyright 2017 RocketStock
TITLE "Warm Pink"
#LUT size
LUT_3D_SIZE 8
#data domain
#LUT data points
DOMAIN_MIN 0.000000 0.000000 0.000000
DOMAIN_MAX 0.903226 0.903226 0.903226
0.049835 0.017914 0.085541
0.143585 0.022095 0.083771
0.244507 0.027557 0.080780
0.326080 0.034149 0.077362
0.392151 0.041473 0.074402
0.456299 0.049286 0.073944
0.524658 0.057190 0.073944
0.601196 0.064972 0.075653
0.063568 0.112274 0.080872
0.163086 0.119354 0.077484
0.264069 0.127411 0.074493
0.341827 0.135956 0.073944
0.406464 0.144836 0.073944
0.471069 0.153595 0.075531
0.540558 0.162506 0.080750
0.619843 0.171814 0.087952
0.083710 0.220398 0.074585
0.187073 0.228760 0.073944
0.283752 0.237152 0.073944
0.356720 0.245148 0.075378
0.420197 0.253082 0.080566
0.486023 0.261017 0.087677
0.557617 0.269043 0.096313
0.640411 0.277222 0.105988
0.106079 0.312744 0.073944
0.210358 0.318909 0.075226
0.301300 0.325012 0.080353
0.371155 0.331177 0.087433
0.434662 0.337463 0.096008
0.501617 0.343933 0.105621
0.575592 0.350616 0.115814
0.662811 0.357544 0.125946
0.128113 0.383942 0.080109
0.232880 0.389374 0.087189
0.318390 0.395050 0.095673
0.385773 0.400940 0.105286
0.449768 0.407196 0.115448
0.517822 0.413696 0.125671
0.594696 0.420959 0.136322
0.690918 0.429138 0.148315
0.151855 0.451447 0.095367
0.254944 0.457642 0.104980
0.334991 0.464172 0.115112
0.400452 0.471161 0.125366
0.465607 0.478821 0.135895
0.536652 0.487518 0.147949
0.617859 0.496735 0.160736
0.725250 0.505951 0.173645
0.176575 0.524689 0.114777
0.275665 0.532257 0.125031
0.351288 0.540588 0.135529
0.416779 0.550140 0.147522
0.484314 0.560364 0.160248
0.557434 0.570923 0.173218
0.640472 0.580994 0.185547
0.755737 0.590179 0.196655
0.201813 0.609802 0.135193
0.296906 0.620636 0.147034
0.369507 0.632538 0.159882
0.434448 0.645111 0.172852
0.501740 0.657562 0.185150
0.573914 0.669312 0.196350
0.653564 0.679474 0.205658
0.762573 0.688568 0.213898
0.051727 0.019287 0.176208
0.146637 0.023956 0.173645
0.247925 0.029877 0.170074
0.328949 0.036774 0.166382
0.394806 0.044281 0.163849
0.459137 0.052185 0.163849
0.527618 0.060059 0.163849
0.604523 0.067902 0.167633
0.066986 0.114746 0.170227
0.167389 0.122223 0.166504
0.267822 0.130524 0.163849
0.344818 0.139282 0.163849
0.409058 0.148041 0.163849
0.473785 0.156830 0.167480
0.543640 0.165833 0.174103
0.623566 0.175293 0.182709
0.087830 0.223450 0.163849
0.191620 0.231842 0.163849
0.287140 0.240112 0.163849
0.359375 0.248016 0.167267
0.422821 0.255981 0.173859
0.488922 0.263977 0.182404
0.560913 0.272003 0.192139
0.644470 0.280243 0.202667
0.110229 0.315063 0.163849
0.214539 0.321136 0.167053
0.304504 0.327301 0.173645
0.373901 0.333466 0.182068
0.437408 0.339844 0.191833
0.504578 0.346344 0.202271
0.578979 0.353119 0.212830
0.667297 0.360199 0.222931
0.132538 0.385925 0.173370
0.237061 0.391449 0.181763
0.321564 0.397186 0.191498
0.388519 0.403198 0.201904
0.452637 0.409515 0.212494
0.520935 0.416199 0.222626
0.598694 0.423889 0.233398
0.697052 0.432251 0.244812
0.156372 0.453644 0.191132
0.258881 0.459991 0.201569
0.338013 0.466705 0.212067
0.403198 0.473846 0.222290
0.469025 0.481964 0.233032
0.540527 0.490845 0.244476
0.622314 0.500122 0.255890
0.731598 0.509338 0.266693
0.181152 0.527374 0.211792
0.279358 0.535156 0.221954
0.354584 0.543945 0.232635
0.420105 0.553864 0.244080
0.487854 0.564240 0.255493
0.561005 0.574677 0.266388
0.644043 0.584473 0.276154
0.759735 0.593201 0.284546
0.206909 0.613617 0.232300
0.301117 0.624969 0.243744
0.372864 0.637085 0.255127
0.437500 0.649719 0.266052
0.504395 0.661987 0.275879
0.575928 0.673248 0.284271
0.653564 0.682953 0.291199
0.762573 0.691620 0.297302
0.053955 0.020813 0.264374
0.150024 0.026001 0.261810
0.251495 0.032288 0.258667
0.331879 0.039490 0.255615
0.397522 0.047150 0.254486
0.461975 0.055084 0.254486
0.530518 0.062897 0.255127
0.607941 0.070862 0.259644
0.070526 0.117371 0.258759
0.171814 0.125183 0.255707
0.271576 0.133667 0.254486
0.347656 0.142487 0.254486
0.411530 0.151215 0.255005
0.476562 0.160126 0.259491
0.546783 0.169220 0.265717
0.627289 0.178802 0.273224
0.091980 0.226562 0.254486
0.196075 0.234894 0.254486
0.290405 0.243011 0.254913
0.362091 0.250946 0.259308
0.425476 0.258881 0.265533
0.491791 0.266907 0.272949
0.564209 0.274963 0.281067
0.648560 0.283295 0.289429
0.114227 0.317261 0.254791
0.218719 0.323334 0.259094
0.307709 0.329529 0.265289
0.376617 0.335754 0.272705
0.440216 0.342194 0.280792
0.507568 0.348755 0.289124
0.582428 0.355652 0.297272
0.672241 0.363007 0.305145
0.136810 0.387939 0.265076
0.241180 0.393524 0.272400
0.324677 0.399384 0.280548
0.391235 0.405457 0.288849
0.455475 0.411957 0.296997
0.524261 0.418915 0.304810
0.602936 0.426849 0.313354
0.703339 0.435455 0.322083
0.160950 0.455933 0.280243
0.262817 0.462402 0.288574
0.341034 0.469299 0.296753
0.406067 0.476654 0.304535
0.472473 0.485168 0.313049
0.544464 0.494232 0.321808
0.626709 0.503510 0.330566
0.737793 0.512573 0.338776
0.185760 0.530151 0.296448
0.283173 0.538208 0.304291
0.358002 0.547455 0.312714
0.423431 0.557617 0.321564
0.491364 0.568176 0.330292
0.564392 0.578369 0.338531
0.647308 0.587860 0.345947
0.762573 0.595947 0.352142
0.212219 0.617584 0.312439
0.305206 0.629364 0.321259
0.376068 0.641693 0.329987
0.440399 0.654297 0.338257
0.506744 0.666260 0.345673
0.577515 0.676910 0.351990
0.653564 0.686188 0.357361
0.762573 0.694550 0.362152
0.056458 0.022522 0.333374
0.153625 0.028168 0.331146
0.255127 0.034821 0.328674
0.334839 0.042267 0.326447
0.400208 0.050110 0.326324
0.464691 0.057953 0.326324
0.533447 0.065796 0.327911
0.611420 0.073822 0.331970
0.074280 0.120117 0.328735
0.176361 0.128204 0.326538
0.275299 0.136841 0.326324
0.350433 0.145721 0.326324
0.414093 0.154419 0.327789
0.479340 0.163422 0.331848
0.549988 0.172760 0.337158
0.631104 0.182404 0.343292
0.096191 0.229645 0.326324
0.200531 0.237946 0.326324
0.293610 0.245941 0.327667
0.364777 0.253845 0.331696
0.428162 0.261780 0.336914
0.494720 0.269867 0.343079
0.567535 0.277985 0.349701
0.652679 0.286346 0.356476
0.118317 0.319519 0.327576
0.222900 0.325592 0.331512
0.310913 0.331787 0.336761
0.379364 0.338104 0.342896
0.443054 0.344604 0.349487
0.510620 0.351318 0.356262
0.585846 0.358215 0.362823
0.677429 0.365875 0.369598
0.141235 0.389954 0.336609
0.245300 0.395630 0.342682
0.327759 0.401550 0.349304
0.393982 0.407776 0.356049
0.458344 0.414368 0.362610
0.527802 0.421753 0.369354
0.607300 0.429962 0.376740
0.709869 0.438782 0.384430
0.165619 0.458282 0.349060
0.266663 0.464874 0.355804
0.343994 0.471924 0.362427
0.409088 0.479675 0.369110
0.475952 0.488403 0.376526
0.548370 0.497620 0.384155
0.631012 0.506866 0.391815
0.743713 0.515778 0.399017
0.190338 0.532959 0.362152
0.287170 0.541504 0.368866
0.361450 0.551178 0.376221
0.426758 0.561462 0.383881
0.494629 0.571960 0.391571
0.567596 0.582001 0.398773
0.650085 0.591064 0.405273
0.762573 0.598602 0.410736
0.217621 0.621796 0.375946
0.309204 0.633820 0.383667
0.379211 0.646271 0.391266
0.443085 0.658783 0.398560
0.508820 0.670349 0.405029
0.577515 0.680450 0.410583
0.653564 0.689423 0.415527
0.762573 0.697357 0.419891
0.059326 0.024506 0.390839
0.157471 0.030518 0.388733
0.258881 0.037537 0.386566
0.337769 0.045074 0.385284
0.402924 0.053009 0.385284
0.467407 0.060791 0.385284
0.536407 0.068695 0.387848
0.614899 0.076843 0.391968
0.078125 0.122986 0.386627
0.180847 0.131378 0.385284
0.278931 0.140106 0.385284
0.353149 0.148926 0.385284
0.416656 0.157684 0.387756
0.482147 0.166809 0.391815
0.553223 0.176239 0.396973
0.634949 0.185974 0.402802
0.100372 0.232727 0.385284
0.204773 0.240875 0.385284
0.296844 0.248810 0.387634
0.367493 0.256775 0.391663
0.430878 0.264740 0.396729
0.497650 0.272858 0.402588
0.570923 0.281006 0.408844
0.656921 0.289429 0.415253
0.122406 0.321747 0.387512
0.227173 0.327881 0.391510
0.314087 0.334076 0.396576
0.382080 0.340485 0.402405
0.445862 0.347015 0.408630
0.513672 0.353790 0.415039
0.589386 0.360931 0.421326
0.682983 0.368896 0.428284
0.145691 0.392029 0.396393
0.249390 0.397766 0.402191
0.330841 0.403809 0.408447
0.396759 0.410187 0.414856
0.461304 0.416962 0.421112
0.531464 0.424713 0.428040
0.611664 0.433167 0.435608
0.716370 0.442017 0.443512
0.170258 0.460663 0.408234
0.270477 0.467377 0.414612
0.346954 0.474609 0.420898
0.412262 0.482788 0.427765
0.479523 0.491791 0.435333
0.552216 0.500977 0.443207
0.635162 0.510223 0.451080
0.749268 0.518921 0.458435
0.195038 0.535950 0.420685
0.291260 0.544922 0.427551
0.364899 0.554901 0.435089
0.430054 0.565308 0.442993
0.497772 0.575714 0.450836
0.570465 0.585449 0.458191
0.652435 0.593994 0.464691
0.762573 0.601105 0.470276
0.222961 0.626099 0.434814
0.313049 0.638367 0.442719
0.382141 0.650879 0.450562
0.445526 0.663177 0.457977
0.510559 0.674255 0.464508
0.577515 0.683807 0.470062
0.653564 0.692444 0.475159
0.761139 0.700012 0.479584
0.062408 0.026581 0.446472
0.161530 0.032990 0.444214
0.262665 0.040253 0.442047
0.340729 0.047943 0.441467
0.405548 0.055878 0.441467
0.470062 0.063660 0.442169
0.539459 0.071655 0.445557
0.618469 0.079895 0.450226
0.082153 0.125977 0.442139
0.185425 0.134552 0.441467
0.282501 0.143433 0.441467
0.355774 0.152100 0.442078
0.419220 0.160980 0.445435
0.484955 0.170227 0.450073
0.556458 0.179810 0.455811
0.638916 0.189697 0.462219
0.104614 0.235718 0.441467
0.208893 0.243774 0.442017
0.300079 0.251709 0.445251
0.370178 0.259705 0.449921
0.433655 0.267731 0.455627
0.500549 0.275818 0.462006
0.574341 0.284119 0.468750
0.661224 0.292572 0.475525
0.126587 0.324005 0.445129
0.231354 0.330170 0.449768
0.317230 0.336426 0.455414
0.384796 0.342865 0.461792
0.448700 0.349457 0.468536
0.516724 0.356384 0.475311
0.593170 0.363708 0.482117
0.688751 0.371948 0.489807
0.150208 0.394073 0.455200
0.253479 0.399963 0.461578
0.333862 0.406067 0.468292
0.399475 0.412598 0.475098
0.464417 0.419678 0.481873
0.535278 0.427734 0.489532
0.616180 0.436340 0.497650
0.722931 0.445221 0.505981
0.174835 0.463104 0.468109
0.274231 0.469940 0.474823
0.350128 0.477478 0.481628
0.415588 0.486053 0.489288
0.483063 0.495178 0.497406
0.556091 0.504456 0.505707
0.639099 0.513458 0.513855
0.754120 0.521790 0.521423
0.199951 0.539093 0.481415
0.295410 0.548462 0.489014
0.368286 0.558685 0.497131
0.433258 0.569122 0.505402
0.500732 0.579376 0.513611
0.573029 0.588745 0.521179
0.653564 0.596710 0.527710
0.762573 0.603516 0.533600
0.228394 0.630554 0.496857
0.316803 0.642944 0.505157
0.384949 0.655518 0.513336
0.447723 0.667389 0.520935
0.511505 0.677887 0.527527
0.577515 0.687073 0.533356
0.653564 0.695343 0.538666
0.758667 0.702515 0.543335
0.065704 0.028809 0.505188
0.165741 0.035522 0.502777
0.266449 0.043030 0.500824
0.343719 0.050812 0.500824
0.408112 0.058777 0.500824
0.472809 0.066589 0.502655
0.542511 0.074646 0.506744
0.622223 0.083099 0.512207
0.086304 0.129120 0.500824
0.189972 0.137787 0.500824
0.285919 0.146606 0.500824
0.358398 0.155304 0.502533
0.421844 0.164337 0.506561
0.487823 0.173645 0.511993
0.559692 0.183380 0.518372
0.642914 0.193451 0.525421
0.108704 0.238739 0.500824
0.213043 0.246704 0.502411
0.303345 0.254669 0.506470
0.372864 0.262604 0.511780
0.436432 0.270691 0.518188
0.503510 0.278809 0.525177
0.577728 0.287170 0.532593
0.665649 0.295746 0.539856
0.130859 0.326233 0.506256
0.235565 0.332428 0.511597
0.320343 0.338745 0.517914
0.387543 0.345245 0.524963
0.451538 0.351959 0.532318
0.519806 0.358978 0.539612
0.597229 0.366699 0.547516
0.694824 0.375122 0.556305
0.154724 0.396210 0.517731
0.257477 0.402191 0.524719
0.336914 0.408417 0.532074
0.402191 0.415070 0.539368
0.467712 0.422485 0.547211
0.539093 0.430847 0.556030
0.620636 0.439606 0.565277
0.729340 0.448425 0.574646
0.179474 0.465546 0.531860
0.277985 0.472656 0.539185
0.353394 0.480499 0.546967
0.418915 0.489319 0.555725
0.486572 0.498566 0.564972
0.559723 0.507812 0.574371
0.642792 0.516632 0.583344
0.758392 0.524567 0.591431
0.205078 0.542419 0.546692
0.299530 0.552094 0.555389
0.371674 0.562500 0.564667
0.436340 0.572937 0.574036
0.503479 0.582947 0.583038
0.575256 0.591888 0.591187
0.653564 0.599274 0.598114
0.762573 0.605804 0.604492
0.233551 0.635040 0.564362
0.320343 0.647583 0.573730
0.387512 0.660004 0.582764
0.449585 0.671448 0.590912
0.511505 0.681396 0.597961
0.577515 0.690216 0.604279
0.653564 0.698090 0.610016
0.756042 0.704926 0.615051
0.069214 0.031189 0.569366
0.170166 0.038239 0.566742
0.270264 0.045868 0.565369
0.346619 0.053802 0.565369
0.410614 0.061615 0.565460
0.475555 0.069519 0.569000
0.545624 0.077667 0.574188
0.625916 0.086273 0.580780
0.090515 0.132294 0.565369
0.194458 0.140991 0.565369
0.289215 0.149811 0.565369
0.361084 0.158600 0.568848
0.424530 0.167725 0.574036
0.490723 0.177155 0.580536
0.562988 0.186981 0.588013
0.647034 0.197296 0.596161
0.112762 0.241699 0.565369
0.217255 0.249634 0.568695
0.306580 0.257599 0.573853
0.375610 0.265564 0.580322
0.439240 0.273682 0.587799
0.506500 0.281860 0.595825
0.581146 0.290314 0.604156
0.670349 0.299042 0.612457
0.135193 0.328461 0.573639
0.239685 0.334717 0.580078
0.323456 0.341064 0.587524
0.390259 0.347687 0.595551
0.454468 0.354523 0.603912
0.523010 0.361694 0.612183
0.601410 0.369720 0.621643
0.701050 0.378235 0.632080
0.159302 0.398376 0.587250
0.261414 0.404419 0.595306
0.339935 0.410797 0.603577
0.404999 0.417694 0.611908
0.471161 0.425507 0.621307
0.543030 0.434052 0.631744
0.625122 0.442902 0.642944
0.735626 0.451538 0.654236
0.184113 0.468109 0.603302
0.281769 0.475403 0.611633
0.356750 0.483643 0.620972
0.422241 0.492737 0.631439
0.490021 0.501923 0.642487
0.563202 0.511139 0.653870
0.646149 0.519653 0.664795
0.761902 0.527100 0.674744
0.210297 0.545868 0.620667
0.303650 0.555878 0.631012
0.374939 0.566345 0.642120
0.439362 0.576721 0.653503
0.505920 0.586334 0.664459
0.576996 0.594757 0.674469
0.653564 0.601776 0.683350
0.762573 0.607941 0.691742
0.238617 0.639618 0.641785
0.323700 0.652130 0.653076
0.389771 0.664337 0.664124
0.451080 0.675232 0.674103
0.511505 0.684753 0.683105
0.577515 0.693237 0.691437
0.652252 0.700684 0.699066
0.753174 0.707214 0.705994
