3d-lut/luts/Pasadena 21.CUBE
#Created by: Adobe Photoshop Export Color Lookup Plugin
#Copyright: (C) Copyright 2017 RocketStock
TITLE "Warm Pink"
#LUT size
LUT_3D_SIZE 5
#data domain
#LUT data points
DOMAIN_MIN 0.000000 0.000000 0.000000
DOMAIN_MAX 0.903226 0.903226 0.903226
0.049835 0.017914 0.085541
0.220215 0.026031 0.081604
0.360107 0.037750 0.075806
0.472992 0.051239 0.073944
0.601196 0.064972 0.075653
0.078278 0.193329 0.075989
0.256958 0.208405 0.073944
0.385315 0.223328 0.075409
0.499176 0.238159 0.085815
0.635071 0.253326 0.101166
0.116974 0.349823 0.075165
0.290283 0.359711 0.085358
0.410065 0.369934 0.100525
0.527496 0.380981 0.118225
0.675690 0.393158 0.136444
0.157959 0.469177 0.100006
0.321259 0.480743 0.117645
0.436340 0.493774 0.135834
0.561371 0.509521 0.157410
0.733765 0.526154 0.179810
0.201813 0.609802 0.135193
0.352631 0.629517 0.156586
0.467804 0.651367 0.179138
0.592957 0.671997 0.198822
0.762573 0.688568 0.213898
0.053375 0.020447 0.243988
0.226471 0.030029 0.238892
0.364929 0.042603 0.233337
0.477997 0.056335 0.233215
0.607086 0.070099 0.238220
0.085327 0.198669 0.233490
0.263702 0.213989 0.233215
0.389801 0.228729 0.237915
0.504242 0.243652 0.250275
0.641998 0.258911 0.265564
0.124176 0.353394 0.237549
0.296234 0.363403 0.249817
0.414856 0.373901 0.264984
0.533051 0.385223 0.280334
0.685425 0.398285 0.295563
0.166016 0.473297 0.264526
0.326721 0.485291 0.279816
0.442108 0.499298 0.295044
0.568329 0.515594 0.311279
0.744263 0.532013 0.326324
0.210968 0.616638 0.294525
0.358704 0.637421 0.310760
0.472778 0.659302 0.325897
0.595154 0.678436 0.337860
0.762573 0.693817 0.347015
0.057861 0.023468 0.362915
0.233185 0.034393 0.359009
0.369751 0.047546 0.356720
0.482849 0.061340 0.356720
0.613159 0.075348 0.362793
0.092651 0.204285 0.356720
0.269989 0.219452 0.356720
0.394379 0.234161 0.362549
0.509460 0.249268 0.372009
0.649170 0.264679 0.383057
0.131683 0.357025 0.362274
0.302032 0.367157 0.371643
0.419647 0.377930 0.382690
0.538696 0.389648 0.393738
0.695984 0.403656 0.406219
0.174164 0.477570 0.382324
0.332184 0.490021 0.393372
0.448120 0.505127 0.405762
0.575134 0.521759 0.419098
0.753357 0.537415 0.431458
0.220276 0.623901 0.405304
0.364441 0.645508 0.418671
0.476929 0.666840 0.431122
0.595154 0.684448 0.441132
0.762238 0.698700 0.449249
0.063202 0.027100 0.460938
0.240234 0.039093 0.456940
0.374573 0.052643 0.456055
0.487610 0.066406 0.457733
0.619415 0.080688 0.465485
0.100067 0.209900 0.456055
0.276001 0.224762 0.457550
0.399017 0.239624 0.465118
0.514679 0.254822 0.475861
0.656586 0.270477 0.487793
0.139343 0.360687 0.464874
0.307892 0.371002 0.475464
0.424408 0.382080 0.487366
0.544983 0.394531 0.499573
0.706940 0.409088 0.513855
0.182190 0.481934 0.487000
0.338074 0.495270 0.499146
0.454163 0.511139 0.513367
0.581421 0.527802 0.528320
0.760529 0.542328 0.541534
0.229645 0.631653 0.512909
0.369659 0.653564 0.527863
0.480133 0.673828 0.541168
0.595154 0.690033 0.551727
0.757965 0.703156 0.560486
0.069214 0.031189 0.569366
0.247314 0.043884 0.565369
0.379272 0.057739 0.565369
0.492401 0.071503 0.570129
0.625916 0.086273 0.580780
0.107361 0.215515 0.565369
0.282074 0.230194 0.569855
0.403656 0.245178 0.580383
0.520050 0.260468 0.593872
0.664124 0.276337 0.608307
0.147064 0.364380 0.579956
0.313599 0.375000 0.593414
0.429260 0.386414 0.607849
0.551758 0.399719 0.623993
0.718384 0.414612 0.643066
0.190277 0.486542 0.607391
0.344208 0.500885 0.623444
0.460175 0.517303 0.642426
0.586945 0.533508 0.662048
0.762573 0.546631 0.679199
0.238617 0.639618 0.641785
0.374176 0.661346 0.661377
0.481262 0.680115 0.678680
0.595154 0.695190 0.693420
0.753174 0.707214 0.705994
