3d-lut/luts/Pitaya 15.CUBE
#Created by: Adobe Photoshop Export Color Lookup Plugin
#Copyright: (C) Copyright 2017 RocketStock
TITLE "Untitled"
#LUT size
LUT_3D_SIZE 5
#data domain
#LUT data points
DOMAIN_MIN 0.000000 0.000000 0.000000
DOMAIN_MAX 0.903226 0.903226 0.903226
0.000000 0.000000 0.000000
0.000000 0.000000 0.000000
0.161621 0.000000 0.000000
0.415558 0.000000 0.000000
0.792877 0.000000 0.000000
0.000000 0.000000 0.000000
0.000000 0.000000 0.000000
0.177795 0.000000 0.000000
0.429260 0.003662 0.000000
0.799530 0.009918 0.000000
0.000000 0.186127 0.000000
0.000000 0.192047 0.000000
0.196960 0.198364 0.000000
0.444916 0.204865 0.000000
0.806915 0.211395 0.000000
0.000000 0.421631 0.000000
0.006958 0.426849 0.000000
0.217499 0.432159 0.000000
0.461517 0.437500 0.000000
0.814087 0.442657 0.000000
0.000000 0.762695 0.000000
0.028534 0.765015 0.000000
0.237488 0.767395 0.000000
0.477386 0.769501 0.000000
0.820587 0.771484 0.000000
0.000000 0.000000 0.027100
0.000000 0.000000 0.029358
0.164337 0.000000 0.032227
0.417938 0.000000 0.035645
0.794037 0.000000 0.039551
0.000000 0.000000 0.032135
0.000000 0.000000 0.035492
0.181183 0.000000 0.039398
0.432068 0.005859 0.043732
0.800903 0.012360 0.048401
0.000000 0.188263 0.039246
0.000000 0.194366 0.043610
0.200806 0.200714 0.048248
0.448029 0.207275 0.053223
0.808258 0.213776 0.058319
0.000000 0.423462 0.048065
0.010712 0.428772 0.053040
0.221313 0.434113 0.058105
0.464600 0.439423 0.063324
0.815399 0.444519 0.068359
0.000000 0.763580 0.057983
0.032715 0.765930 0.063110
0.240997 0.768127 0.068207
0.480225 0.770264 0.073029
0.821564 0.772095 0.077515
0.000000 0.000000 0.215637
0.000000 0.000000 0.218506
0.167114 0.000000 0.221985
0.420410 0.000000 0.225952
0.795197 0.000000 0.230347
0.000000 0.000000 0.221832
0.000000 0.000000 0.225830
0.184692 0.002075 0.230164
0.434906 0.008179 0.234833
0.802307 0.014801 0.239655
0.000000 0.190430 0.230042
0.000000 0.196655 0.234680
0.204620 0.203125 0.239471
0.451080 0.209656 0.244385
0.809570 0.216217 0.249237
0.000000 0.425415 0.239319
0.014740 0.430756 0.244232
0.225098 0.436066 0.249084
0.467621 0.441345 0.253815
0.816528 0.446350 0.258301
0.000000 0.764496 0.248932
0.036957 0.766724 0.253662
0.244415 0.768921 0.258179
0.482910 0.770966 0.262268
0.822601 0.772797 0.265961
0.000000 0.000000 0.446075
0.000000 0.000000 0.448456
0.170166 0.000000 0.451324
0.422943 0.000000 0.454529
0.796478 0.000000 0.458069
0.000000 0.000000 0.451233
0.000000 0.000000 0.454407
0.188324 0.004242 0.457977
0.437836 0.010590 0.461639
0.803558 0.017365 0.465546
0.000000 0.192719 0.457825
0.000000 0.198975 0.461548
0.208405 0.205505 0.465363
0.454224 0.212036 0.469299
0.810974 0.218506 0.473267
0.000000 0.427368 0.465271
0.018799 0.432678 0.469147
0.228851 0.438019 0.473083
0.470551 0.443207 0.476929
0.817810 0.448090 0.480469
0.000000 0.765259 0.472992
0.041168 0.767548 0.476776
0.247772 0.769684 0.480377
0.485504 0.771637 0.483734
0.823547 0.773376 0.486633
0.000000 0.000000 0.794403
0.000000 0.000000 0.795593
0.173309 0.000000 0.796844
0.425537 0.000000 0.798431
0.797729 0.000000 0.800079
0.000000 0.000000 0.796844
0.000000 0.000549 0.798340
0.191925 0.006531 0.800018
0.440857 0.013000 0.801697
0.805023 0.019928 0.803528
0.000000 0.194946 0.799957
0.001831 0.201416 0.801636
0.212280 0.207916 0.803406
0.457275 0.214478 0.805206
0.812225 0.220795 0.806824
0.000000 0.429321 0.803314
0.022919 0.434662 0.805145
0.232513 0.440002 0.806763
0.473480 0.445007 0.808441
0.818970 0.449799 0.809937
0.000000 0.766144 0.806671
0.045319 0.768372 0.808441
0.250977 0.770416 0.809875
0.487976 0.772339 0.811279
0.824463 0.773956 0.812500
