3d-lut/luts/Pitaya 15.CUBE
#Created by: Adobe Photoshop Export Color Lookup Plugin
#Copyright: (C) Copyright 2017 RocketStock
TITLE "Untitled"
#LUT size
LUT_3D_SIZE 32
#data domain
DOMAIN_MIN 0.0 0.0 0.0
DOMAIN_MAX 1.0 1.0 1.0
#LUT data points
0.000000 0.000000 0.000000
0.000000 0.000000 0.000000
0.000000 0.000000 0.000000
0.000000 0.000000 0.000000
0.000000 0.000000 0.000000
0.000000 0.000000 0.000000
0.000000 0.000000 0.000000
0.000000 0.000000 0.000000
0.000000 0.000000 0.000000
0.004913 0.000000 0.000000
0.031219 0.000000 0.000000
0.060883 0.000000 0.000000
0.093231 0.000000 0.000000
0.127045 0.000000 0.000000
0.161621 0.000000 0.000000
0.196381 0.000000 0.000000
0.230927 0.000000 0.000000
0.265198 0.000000 0.000000
0.299530 0.000000 0.000000
0.335602 0.000000 0.000000
0.374115 0.000000 0.000000
0.415558 0.000000 0.000000
0.460785 0.000000 0.000000
0.510132 0.000000 0.000000
0.562225 0.000000 0.000000
0.615936 0.000000 0.000000
0.671600 0.000000 0.000000
0.730164 0.000000 0.000000
0.792877 0.000000 0.000000
0.861938 0.000000 0.000000
0.943268 0.000000 0.000000
1.000000 0.000000 0.000000
0.000000 0.000000 0.000000
0.000000 0.000000 0.000000
0.000000 0.000000 0.000000
0.000000 0.000000 0.000000
0.000000 0.000000 0.000000
0.000000 0.000000 0.000000
0.000000 0.000000 0.000000
0.000000 0.000000 0.000000
0.000000 0.000000 0.000000
0.006561 0.000000 0.000000
0.033081 0.000000 0.000000
0.062897 0.000000 0.000000
0.095306 0.000000 0.000000
0.129150 0.000000 0.000000
0.163635 0.000000 0.000000
0.198303 0.000000 0.000000
0.232788 0.000000 0.000000
0.267029 0.000000 0.000000
0.301300 0.000000 0.000000
0.337402 0.000000 0.000000
0.375916 0.000000 0.000000
0.417389 0.000000 0.000000
0.462555 0.000000 0.000000
0.511871 0.000000 0.000000
0.563812 0.000000 0.000000
0.617401 0.000000 0.000000
0.672913 0.000000 0.000000
0.731262 0.000000 0.000000
0.793732 0.000000 0.000000
0.862671 0.000000 0.000000
0.943665 0.000000 0.000000
1.000000 0.000000 0.000000
0.000000 0.000000 0.000000
0.000000 0.000000 0.000000
0.000000 0.000000 0.000000
0.000000 0.000000 0.000000
0.000000 0.000000 0.000000
0.000000 0.000000 0.000000
0.000000 0.000000 0.000000
0.000000 0.000000 0.000000
0.000000 0.000000 0.000000
0.008301 0.000000 0.000000
0.035004 0.000000 0.000000
0.065002 0.000000 0.000000
0.097504 0.000000 0.000000
0.131317 0.000000 0.000000
0.165833 0.000000 0.000000
0.200348 0.000000 0.000000
0.234772 0.000000 0.000000
0.268829 0.000000 0.000000
0.303101 0.000000 0.000000
0.339172 0.000000 0.000000
0.377686 0.000000 0.000000
0.419220 0.000000 0.000000
0.464386 0.000000 0.000000
0.513641 0.000000 0.000000
0.565430 0.000000 0.000000
0.618866 0.000000 0.000000
0.674225 0.000000 0.000000
0.732330 0.000000 0.000000
0.794617 0.000000 0.000000
0.863342 0.000000 0.000000
0.944122 0.000000 0.000000
1.000000 0.000000 0.000000
0.000000 0.000000 0.000000
0.000000 0.000000 0.000000
0.000000 0.000000 0.000000
0.000000 0.000000 0.000000
0.000000 0.000000 0.000000
0.000000 0.000000 0.000000
0.000000 0.000000 0.000000
0.000000 0.000000 0.000000
0.000000 0.000000 0.000000
0.010162 0.000000 0.000000
0.037079 0.000000 0.000000
0.067200 0.000000 0.000000
0.099792 0.000000 0.000000
0.133636 0.000000 0.000000
0.168091 0.000000 0.000000
0.202515 0.000000 0.000000
0.236847 0.000000 0.000000
0.270813 0.000000 0.000000
0.305023 0.000000 0.000000
0.341064 0.000000 0.000000
0.379578 0.000000 0.000000
0.421112 0.000000 0.000000
0.466309 0.000000 0.000000
0.515411 0.000000 0.000000
0.567169 0.000000 0.000000
0.620361 0.000000 0.000000
0.675568 0.000000 0.000000
0.733582 0.000000 0.000000
0.795593 0.000000 0.000000
0.864075 0.000000 0.000000
0.944519 0.000000 0.000000
1.000000 0.000000 0.000000
0.000000 0.000000 0.000000
0.000000 0.000000 0.000000
0.000000 0.000000 0.000000
0.000000 0.000000 0.000000
0.000000 0.000000 0.000000
0.000000 0.000000 0.000000
0.000000 0.000000 0.000000
0.000000 0.000000 0.000000
0.000000 0.000000 0.000000
0.012146 0.000000 0.000000
0.039307 0.000000 0.000000
0.069550 0.000000 0.000000
0.102173 0.000000 0.000000
0.136047 0.000000 0.000000
0.170380 0.000000 0.000000
0.204773 0.000000 0.000000
0.238892 0.000000 0.000000
0.272766 0.000000 0.000000
0.306976 0.000000 0.000000
0.343018 0.000000 0.000000
0.381561 0.000000 0.000000
0.423096 0.000000 0.000000
0.468262 0.000000 0.000000
0.517395 0.000000 0.000000
0.568939 0.000000 0.000000
0.621918 0.000000 0.000000
0.676971 0.000000 0.000000
0.734741 0.000000 0.000000
0.796539 0.000000 0.000000
0.864838 0.000000 0.000000
0.945007 0.000000 0.000000
1.000000 0.000000 0.000000
0.000000 0.000000 0.000000
0.000000 0.000000 0.000000
0.000000 0.000000 0.000000
0.000000 0.000000 0.000000
0.000000 0.000000 0.000000
0.000000 0.000000 0.000000
0.000000 0.000000 0.000000
0.000000 0.000000 0.000000
0.000000 0.000000 0.000000
0.014191 0.000000 0.000000
0.041534 0.000000 0.000000
0.072021 0.000000 0.000000
0.104675 0.000000 0.000000
0.138489 0.000000 0.000000
0.172791 0.000000 0.000000
0.207031 0.000000 0.000000
0.241058 0.000000 0.000000
0.274841 0.000000 0.000000
0.308960 0.000000 0.000000
0.344971 0.000000 0.000000
0.383545 0.000000 0.000000
0.425049 0.000000 0.000000
0.470184 0.000000 0.000000
0.519348 0.000000 0.000000
0.570648 0.000000 0.000000
0.623535 0.000000 0.000000
0.678314 0.000000 0.000000
0.735931 0.000000 0.000000
0.797546 0.000000 0.000000
0.865570 0.000000 0.000000
0.945465 0.000000 0.000000
1.000000 0.000000 0.000000
0.000000 0.000000 0.000000
0.000000 0.000000 0.000000
0.000000 0.000000 0.000000
0.000000 0.000000 0.000000
0.000000 0.000000 0.000000
0.000000 0.000000 0.000000
0.000000 0.000000 0.000000
0.000000 0.000000 0.000000
0.000000 0.000000 0.000000
0.016357 0.000000 0.000000
0.043945 0.000000 0.000000
0.074585 0.000000 0.000000
0.107269 0.000000 0.000000
0.141052 0.000000 0.000000
0.175232 0.000000 0.000000
0.209412 0.000000 0.000000
0.243347 0.000000 0.000000
0.276917 0.000000 0.000000
0.311066 0.000000 0.000000
0.347107 0.000000 0.000000
0.385529 0.000000 0.000000
0.427185 0.000000 0.000000
0.472260 0.000000 0.000000
0.521301 0.000000 0.000000
0.572479 0.000000 0.000000
0.625153 0.000000 0.000000
0.679718 0.000000 0.000000
0.737091 0.000000 0.000000
0.798523 0.000000 0.000000
0.866302 0.000000 0.000000
0.945984 0.000000 0.000000
1.000000 0.000000 0.000000
0.000000 0.000000 0.000000
0.000000 0.000000 0.000000
0.000000 0.000000 0.000000
0.000000 0.000000 0.000000
0.000000 0.000000 0.000000
0.000000 0.000000 0.000000
0.000000 0.000000 0.000000
0.000000 0.000000 0.000000
0.000000 0.000000 0.000000
0.018646 0.000000 0.000000
0.046417 0.000000 0.000000
0.077240 0.000000 0.000000
0.109955 0.000000 0.000000
0.143677 0.000000 0.000000
0.177795 0.000000 0.000000
0.211823 0.000000 0.000000
0.245544 0.000000 0.000000
0.279053 0.000305 0.000000
0.313141 0.001160 0.000000
0.349213 0.001984 0.000000
0.387665 0.002808 0.000000
0.429260 0.003662 0.000000
0.474365 0.004486 0.000000
0.523346 0.005371 0.000000
0.574310 0.006256 0.000000
0.626770 0.007172 0.000000
0.681152 0.008057 0.000000
0.738373 0.008972 0.000000
0.799530 0.009918 0.000000
0.867126 0.010895 0.000000
0.946442 0.011810 0.000000
1.000000 0.012726 0.000000
0.000000 0.010132 0.000000
0.000000 0.010834 0.000000
0.000000 0.011505 0.000000
0.000000 0.012177 0.000000
0.000000 0.012909 0.000000
0.000000 0.013641 0.000000
0.000000 0.014374 0.000000
0.000000 0.015137 0.000000
0.000000 0.015930 0.000000
0.020996 0.016663 0.000000
0.049042 0.017517 0.000000
0.079956 0.018311 0.000000
0.112701 0.019135 0.000000
0.146393 0.019989 0.000000
0.180389 0.020874 0.000000
0.214264 0.021729 0.000000
0.247925 0.022614 0.000000
0.281281 0.023529 0.000000
0.315338 0.024414 0.000000
0.351379 0.025360 0.000000
0.389832 0.026276 0.000000
0.431335 0.027222 0.000000
0.476501 0.028198 0.000000
0.525360 0.029205 0.000000
0.576202 0.030151 0.000000
0.628387 0.031189 0.000000
0.682678 0.032104 0.000000
0.739655 0.033142 0.000000
0.800690 0.034180 0.000000
0.867859 0.035187 0.000000
0.946869 0.036255 0.000000
1.000000 0.037292 0.000000
0.000000 0.034882 0.000000
0.000000 0.035583 0.000000
0.000000 0.036377 0.000000
0.000000 0.037170 0.000000
0.000000 0.037994 0.000000
0.000000 0.038788 0.000000
0.000000 0.039612 0.000000
0.000000 0.040436 0.000000
0.000000 0.041290 0.000000
0.023499 0.042175 0.000000
0.051758 0.043091 0.000000
0.082794 0.044006 0.000000
0.115540 0.044922 0.000000
0.149139 0.045837 0.000000
0.183014 0.046753 0.000000
0.216797 0.047760 0.000000
0.250275 0.048706 0.000000
0.283478 0.049683 0.000000
0.317505 0.050659 0.000000
0.353577 0.051666 0.000000
0.392059 0.052673 0.000000
0.433594 0.053711 0.000000
0.478638 0.054779 0.000000
0.527435 0.055786 0.000000
0.578033 0.056824 0.000000
0.630127 0.057922 0.000000
0.684082 0.058960 0.000000
0.740845 0.060028 0.000000
0.801605 0.061096 0.000000
0.868713 0.062225 0.000000
0.947388 0.063324 0.000000
1.000000 0.064392 0.000000
0.000000 0.062469 0.000000
0.000000 0.063293 0.000000
0.000000 0.064087 0.000000
0.000000 0.064941 0.000000
0.000000 0.065796 0.000000
0.000000 0.066711 0.000000
0.000000 0.067566 0.000000
0.000000 0.068512 0.000000
0.000946 0.069397 0.000000
0.026093 0.070374 0.000000
0.054535 0.071289 0.000000
0.085663 0.072296 0.000000
0.118408 0.073212 0.000000
0.152008 0.074219 0.000000
0.185730 0.075226 0.000000
0.219391 0.076202 0.000000
0.252716 0.077271 0.000000
0.285736 0.078247 0.000000
0.319763 0.079254 0.000000
0.355804 0.080353 0.000000
0.394257 0.081421 0.000000
0.435791 0.082458 0.000000
0.480835 0.083588 0.000000
0.529480 0.084625 0.000000
0.579987 0.085693 0.000000
0.631805 0.086823 0.000000
0.685608 0.087891 0.000000
0.742188 0.088989 0.000000
0.802704 0.090118 0.000000
0.869568 0.091217 0.000000
0.947876 0.092316 0.000000
1.000000 0.093414 0.000000
0.000000 0.092224 0.000000
0.000000 0.093048 0.000000
0.000000 0.093964 0.000000
0.000000 0.094849 0.000000
0.000000 0.095703 0.000000
0.000000 0.096619 0.000000
0.000000 0.097565 0.000000
0.000000 0.098511 0.000000
0.003326 0.099457 0.000000
0.028748 0.100403 0.000000
0.057404 0.101379 0.000000
0.088684 0.102356 0.000000
0.121399 0.103333 0.000000
0.154877 0.104340 0.000000
0.188477 0.105316 0.000000
0.221985 0.106354 0.000000
0.255157 0.107361 0.000000
0.288116 0.108398 0.000000
0.322113 0.109436 0.000000
0.358032 0.110504 0.000000
0.396484 0.111572 0.000000
0.438049 0.112640 0.000000
0.483063 0.113678 0.000000
0.531616 0.114746 0.000000
0.581818 0.115784 0.000000
0.633514 0.116913 0.000000
0.687103 0.117981 0.000000
0.743439 0.119141 0.000000
0.803711 0.120178 0.000000
0.870270 0.121246 0.000000
0.948425 0.122375 0.000000
1.000000 0.123444 0.000000
0.000000 0.123169 0.000000
0.000000 0.124023 0.000000
0.000000 0.124908 0.000000
0.000000 0.125793 0.000000
0.000000 0.126678 0.000000
0.000000 0.127625 0.000000
0.000000 0.128479 0.000000
0.000000 0.129456 0.000000
0.005829 0.130432 0.000000
0.031494 0.131348 0.000000
0.060364 0.132294 0.000000
0.091644 0.133240 0.000000
0.124420 0.134247 0.000000
0.157867 0.135223 0.000000
0.191284 0.136200 0.000000
0.224609 0.137238 0.000000
0.257660 0.138214 0.000000
0.290466 0.139221 0.000000
0.324402 0.140289 0.000000
0.360382 0.141327 0.000000
0.398865 0.142303 0.000000
0.440369 0.143341 0.000000
0.485321 0.144409 0.000000
0.533783 0.145416 0.000000
0.583740 0.146484 0.000000
0.635223 0.147491 0.000000
0.688629 0.148560 0.000000
0.744690 0.149628 0.000000
0.804779 0.150635 0.000000
0.871063 0.151703 0.000000
0.948944 0.152802 0.000000
1.000000 0.153778 0.000000
0.000000 0.154602 0.000000
0.000000 0.155457 0.000000
0.000000 0.156342 0.000000
0.000000 0.157227 0.000000
0.000000 0.158112 0.000000
0.000000 0.158966 0.000000
0.000000 0.159851 0.000000
0.000000 0.160767 0.000000
0.008392 0.161713 0.000000
0.034393 0.162598 0.000000
0.063446 0.163574 0.000000
0.094788 0.164490 0.000000
0.127533 0.165436 0.000000
0.160797 0.166382 0.000000
0.194092 0.167389 0.000000
0.227264 0.168335 0.000000
0.260132 0.169342 0.000000
0.292816 0.170258 0.000000
0.326752 0.171234 0.000000
0.362701 0.172241 0.000000
0.401184 0.173187 0.000000
0.442627 0.174225 0.000000
0.487579 0.175201 0.000000
0.535889 0.176208 0.000000
0.585693 0.177155 0.000000
0.636902 0.178162 0.000000
0.690063 0.179169 0.000000
0.746002 0.180176 0.000000
0.805878 0.181122 0.000000
0.871918 0.182129 0.000000
0.949371 0.183136 0.000000
1.000000 0.184113 0.000000
0.000000 0.186127 0.000000
0.000000 0.186951 0.000000
0.000000 0.187805 0.000000
0.000000 0.188629 0.000000
0.000000 0.189484 0.000000
0.000000 0.190338 0.000000
0.000000 0.191223 0.000000
0.000000 0.192047 0.000000
0.011017 0.192902 0.000000
0.037292 0.193848 0.000000
0.066528 0.194733 0.000000
0.097992 0.195648 0.000000
0.130646 0.196564 0.000000
0.163818 0.197449 0.000000
0.196960 0.198364 0.000000
0.229980 0.199280 0.000000
0.262726 0.200226 0.000000
0.295227 0.201111 0.000000
0.329163 0.202057 0.000000
0.365051 0.203033 0.000000
0.403473 0.203949 0.000000
0.444916 0.204865 0.000000
0.489807 0.205750 0.000000
0.538055 0.206726 0.000000
0.587677 0.207642 0.000000
0.638611 0.208618 0.000000
0.691620 0.209564 0.000000
0.747314 0.210480 0.000000
0.806915 0.211395 0.000000
0.872711 0.212402 0.000000
0.949860 0.213257 0.000000
1.000000 0.214203 0.000000
0.000000 0.217407 0.000000
0.000000 0.218201 0.000000
0.000000 0.219025 0.000000
0.000000 0.219788 0.000000
0.000000 0.220642 0.000000
0.000000 0.221466 0.000000
0.000000 0.222229 0.000000
0.000000 0.223114 0.000000
0.013763 0.223938 0.000000
0.040314 0.224823 0.000000
0.069733 0.225677 0.000000
0.101227 0.226501 0.000000
0.133759 0.227386 0.000000
0.166870 0.228210 0.000000
0.199921 0.229065 0.000000
0.232697 0.229950 0.000000
0.265198 0.230804 0.000000
0.297729 0.231689 0.000000
0.331573 0.232544 0.000000
0.367432 0.233459 0.000000
0.405853 0.234314 0.000000
0.447327 0.235229 0.000000
0.492188 0.236053 0.000000
0.540161 0.236938 0.000000
0.589569 0.237823 0.000000
0.640381 0.238647 0.000000
0.693146 0.239594 0.000000
0.748505 0.240448 0.000000
0.807953 0.241333 0.000000
0.873474 0.242188 0.000000
0.950378 0.243042 0.000000
1.000000 0.243896 0.000000
0.000000 0.248444 0.000000
0.000000 0.249207 0.000000
0.000000 0.249969 0.000000
0.000000 0.250732 0.000000
0.000000 0.251495 0.000000
0.000000 0.252289 0.000000
0.000000 0.253021 0.000000
0.000000 0.253845 0.000000
0.016632 0.254639 0.000000
0.043365 0.255402 0.000000
0.072937 0.256226 0.000000
0.104462 0.257019 0.000000
0.136993 0.257843 0.000000
0.169952 0.258606 0.000000
0.202850 0.259430 0.000000
0.235443 0.260284 0.000000
0.267822 0.261108 0.000000
0.300140 0.261902 0.000000
0.334015 0.262756 0.000000
0.369843 0.263580 0.000000
0.408234 0.264374 0.000000
0.449615 0.265228 0.000000
0.494446 0.266022 0.000000
0.542389 0.266846 0.000000
0.591522 0.267700 0.000000
0.642090 0.268463 0.000000
0.694611 0.269318 0.000000
0.749847 0.270142 0.000000
0.808960 0.270935 0.000000
0.874207 0.271759 0.000000
0.950897 0.272583 0.000000
1.000000 0.273407 0.000000
0.000000 0.279388 0.000000
0.000000 0.280121 0.000000
0.000000 0.280853 0.000000
0.000000 0.281616 0.000000
0.000000 0.282349 0.000000
0.000000 0.283112 0.000000
0.000000 0.283844 0.000000
0.000000 0.284668 0.000000
0.019501 0.285431 0.000000
0.046570 0.286194 0.000000
0.076263 0.286987 0.000000
0.107788 0.287750 0.000000
0.140228 0.288513 0.000000
0.173004 0.289368 0.000000
0.205719 0.290100 0.000000
0.238220 0.290955 0.000000
0.270386 0.291748 0.000000
0.302643 0.292542 0.000000
0.336456 0.293335 0.000000
0.372284 0.294128 0.000000
0.410675 0.294922 0.000000
0.452026 0.295746 0.000000
0.496796 0.296539 0.000000
0.544495 0.297394 0.000000
0.593506 0.298157 0.000000
0.643829 0.298981 0.000000
0.696136 0.299805 0.000000
0.751099 0.300598 0.000000
0.809937 0.301331 0.000000
0.875092 0.302155 0.000000
0.951294 0.302917 0.000000
1.000000 0.303772 0.000000
0.000000 0.311584 0.000000
0.000000 0.312317 0.000000
0.000000 0.313080 0.000000
0.000000 0.313751 0.000000
0.000000 0.314545 0.000000
0.000000 0.315338 0.000000
0.000000 0.316071 0.000000
0.000000 0.316864 0.000000
0.022522 0.317566 0.000000
0.049744 0.318359 0.000000
0.079529 0.319153 0.000000
0.111084 0.319946 0.000000
0.143463 0.320709 0.000000
0.176117 0.321503 0.000000
0.208649 0.322266 0.000000
0.240936 0.323059 0.000000
0.272949 0.323883 0.000000
0.305145 0.324646 0.000000
0.338959 0.325439 0.000000
0.374725 0.326233 0.000000
0.413025 0.327026 0.000000
0.454376 0.327820 0.000000
0.499084 0.328644 0.000000
0.546661 0.329407 0.000000
0.595398 0.330261 0.000000
0.645599 0.330994 0.000000
0.697632 0.331787 0.000000
0.752350 0.332581 0.000000
0.811035 0.333374 0.000000
0.875732 0.334167 0.000000
0.951752 0.334900 0.000000
1.000000 0.335693 0.000000
0.000000 0.345673 0.000000
0.000000 0.346436 0.000000
0.000000 0.347168 0.000000
0.000000 0.347900 0.000000
0.000000 0.348663 0.000000
0.000000 0.349426 0.000000
0.000000 0.350189 0.000000
0.001221 0.350952 0.000000
0.025543 0.351685 0.000000
0.053009 0.352509 0.000000
0.082947 0.353302 0.000000
0.114441 0.354034 0.000000
0.146698 0.354797 0.000000
0.179291 0.355621 0.000000
0.211609 0.356354 0.000000
0.243683 0.357178 0.000000
0.275482 0.357910 0.000000
0.307648 0.358704 0.000000
0.341339 0.359528 0.000000
0.377136 0.360321 0.000000
0.415436 0.361084 0.000000
0.456818 0.361847 0.000000
0.501404 0.362640 0.000000
0.548798 0.363434 0.000000
0.597321 0.364197 0.000000
0.647247 0.364990 0.000000
0.699127 0.365753 0.000000
0.753571 0.366516 0.000000
0.812042 0.367310 0.000000
0.876587 0.368103 0.000000
0.952271 0.368805 0.000000
1.000000 0.369598 0.000000
0.000000 0.382233 0.000000
0.000000 0.382965 0.000000
0.000000 0.383728 0.000000
0.000000 0.384430 0.000000
0.000000 0.385223 0.000000
0.000000 0.385925 0.000000
0.000000 0.386749 0.000000
0.004028 0.387451 0.000000
0.028656 0.388214 0.000000
0.056335 0.389008 0.000000
0.086334 0.389771 0.000000
0.117828 0.390564 0.000000
0.150085 0.391296 0.000000
0.182312 0.392059 0.000000
0.214569 0.392853 0.000000
0.246429 0.393646 0.000000
0.278076 0.394409 0.000000
0.310150 0.395172 0.000000
0.343842 0.395966 0.000000
0.379578 0.396729 0.000000
0.417847 0.397491 0.000000
0.459106 0.398285 0.000000
0.503754 0.399017 0.000000
0.550934 0.399841 0.000000
0.599182 0.400604 0.000000
0.648956 0.401398 0.000000
0.700592 0.402100 0.000000
0.754883 0.402893 0.000000
0.813080 0.403656 0.000000
0.877319 0.404358 0.000000
0.952850 0.405121 0.000000
1.000000 0.405853 0.000000
0.000000 0.421631 0.000000
0.000000 0.422363 0.000000
0.000000 0.423065 0.000000
0.000000 0.423798 0.000000
0.000000 0.424561 0.000000
0.000000 0.425293 0.000000
0.000000 0.426086 0.000000
0.006958 0.426849 0.000000
0.031830 0.427582 0.000000
0.059662 0.428345 0.000000
0.089813 0.429138 0.000000
0.121246 0.429871 0.000000
0.153351 0.430695 0.000000
0.185486 0.431335 0.000000
0.217499 0.432159 0.000000
0.249237 0.432861 0.000000
0.280640 0.433624 0.000000
0.312653 0.434448 0.000000
0.346344 0.435150 0.000000
0.381989 0.436005 0.000000
0.420258 0.436737 0.000000
0.461517 0.437500 0.000000
0.506012 0.438202 0.000000
0.553040 0.438965 0.000000
0.601105 0.439728 0.000000
0.650574 0.440460 0.000000
0.702026 0.441193 0.000000
0.756134 0.441925 0.000000
0.814087 0.442657 0.000000
0.878113 0.443420 0.000000
0.953186 0.444092 0.000000
1.000000 0.444824 0.000000
0.000000 0.464233 0.000000
0.000000 0.464966 0.000000
0.000000 0.465668 0.000000
0.000000 0.466400 0.000000
0.000000 0.467163 0.000000
0.000000 0.467896 0.000000
0.000000 0.468628 0.000000
0.009888 0.469391 0.000000
0.035034 0.470154 0.000000
0.063049 0.470856 0.000000
0.093231 0.471588 0.000000
0.124634 0.472321 0.000000
0.156586 0.473053 0.000000
0.188629 0.473755 0.000000
0.220428 0.474548 0.000000
0.251953 0.475281 0.000000
0.283234 0.476044 0.000000
0.315155 0.476807 0.000000
0.348785 0.477570 0.000000
0.384430 0.478271 0.000000
0.422699 0.479004 0.000000
0.463806 0.479767 0.000000
0.508301 0.480499 0.000000
0.555145 0.481232 0.000000
0.602936 0.481903 0.000000
0.652283 0.482697 0.000000
0.703461 0.483398 0.000000
0.757324 0.484070 0.000000
0.815033 0.484772 0.000000
0.878784 0.485443 0.000000
0.953644 0.486115 0.000000
1.000000 0.486786 0.000000
0.000000 0.509857 0.000000
0.000000 0.510529 0.000000
0.000000 0.511200 0.000000
0.000000 0.511871 0.000000
0.000000 0.512543 0.000000
0.000000 0.513184 0.000000
0.000000 0.513947 0.000000
0.012909 0.514618 0.000000
0.038300 0.515289 0.000000
0.066498 0.516022 0.000000
0.096710 0.516663 0.000000
0.128021 0.517365 0.000000
0.159851 0.518066 0.000000
0.191711 0.518707 0.000000
0.223358 0.519440 0.000000
0.254700 0.520081 0.000000
0.285736 0.520782 0.000000
0.317657 0.521484 0.000000
0.351227 0.522125 0.000000
0.386841 0.522797 0.000000
0.425049 0.523468 0.000000
0.466125 0.524078 0.000000
0.510590 0.524780 0.000000
0.557159 0.525482 0.000000
0.604828 0.526062 0.000000
0.653870 0.526733 0.000000
0.704895 0.527374 0.000000
0.758514 0.527985 0.000000
0.816040 0.528656 0.000000
0.879486 0.529266 0.000000
0.954102 0.529846 0.000000
1.000000 0.530457 0.000000
0.000000 0.556580 0.000000
0.000000 0.557251 0.000000
0.000000 0.557800 0.000000
0.000000 0.558441 0.000000
0.000000 0.559052 0.000000
0.000000 0.559692 0.000000
0.000000 0.560303 0.000000
0.015961 0.560913 0.000000
0.041595 0.561554 0.000000
0.069946 0.562164 0.000000
0.100220 0.562805 0.000000
0.131409 0.563385 0.000000
0.163116 0.564056 0.000000
0.194794 0.564636 0.000000
0.226227 0.565247 0.000000
0.257385 0.565887 0.000000
0.288330 0.566467 0.000000
0.320160 0.567108 0.000000
0.353668 0.567657 0.000000
0.389282 0.568268 0.000000
0.427429 0.568878 0.000000
0.468445 0.569489 0.000000
0.512878 0.570038 0.000000
0.559204 0.570679 0.000000
0.606628 0.571228 0.000000
0.655548 0.571777 0.000000
0.706360 0.572357 0.000000
0.759613 0.572876 0.000000
0.816986 0.573486 0.000000
0.880249 0.573975 0.000000
0.954498 0.574554 0.000000
1.000000 0.575134 0.000000
0.000000 0.604675 0.000000
0.000000 0.605255 0.000000
0.000000 0.605804 0.000000
0.000000 0.606323 0.000000
0.000000 0.606903 0.000000
0.000000 0.607422 0.000000
0.000000 0.607971 0.000000
0.019012 0.608551 0.000000
0.044952 0.609100 0.000000
0.073456 0.609619 0.000000
0.103607 0.610199 0.000000
0.134796 0.610718 0.000000
0.166382 0.611237 0.000000
0.197845 0.611786 0.000000
0.229065 0.612335 0.000000
0.260040 0.612915 0.000000
0.290802 0.613464 0.000000
0.322601 0.613953 0.000000
0.356079 0.614441 0.000000
0.391602 0.615021 0.000000
0.429718 0.615601 0.000000
0.470703 0.616058 0.000000
0.515045 0.616577 0.000000
0.561218 0.617096 0.000000
0.608429 0.617615 0.000000
0.657074 0.618134 0.000000
0.707733 0.618591 0.000000
0.760864 0.619080 0.000000
0.817871 0.619537 0.000000
0.880951 0.619995 0.000000
0.955048 0.620483 0.000000
1.000000 0.621002 0.000000
0.000000 0.654510 0.000000
0.000000 0.654938 0.000000
0.000000 0.655396 0.000000
0.000000 0.655975 0.000000
0.000000 0.656433 0.000000
0.000000 0.656921 0.000000
0.000000 0.657379 0.000000
0.022125 0.657837 0.000000
0.048309 0.658356 0.000000
0.076874 0.658844 0.000000
0.107147 0.659332 0.000000
0.138214 0.659790 0.000000
0.169556 0.660248 0.000000
0.200867 0.660767 0.000000
0.231903 0.661255 0.000000
0.262726 0.661682 0.000000
0.293274 0.662109 0.000000
0.325012 0.662537 0.000000
0.358459 0.663086 0.000000
0.394012 0.663544 0.000000
0.432068 0.663940 0.000000
0.473022 0.664337 0.000000
0.517212 0.664856 0.000000
0.563141 0.665314 0.000000
0.610168 0.665771 0.000000
0.658661 0.666138 0.000000
0.708923 0.666534 0.000000
0.761963 0.666931 0.000000
0.818756 0.667389 0.000000
0.881683 0.667816 0.000000
0.955475 0.668182 0.000000
1.000000 0.668549 0.000000
0.000000 0.706757 0.000000
0.000000 0.707214 0.000000
0.000000 0.707642 0.000000
0.000000 0.708038 0.000000
0.000000 0.708466 0.000000
0.000000 0.708832 0.000000
0.001862 0.709259 0.000000
0.025299 0.709686 0.000000
0.051727 0.710114 0.000000
0.080353 0.710480 0.000000
0.110565 0.710907 0.000000
0.141479 0.711334 0.000000
0.172760 0.711731 0.000000
0.203857 0.712067 0.000000
0.234741 0.712402 0.000000
0.265259 0.712891 0.000000
