3d-lut/luts/Pitaya 15.CUBE
#Created by: Adobe Photoshop Export Color Lookup Plugin
#Copyright: (C) Copyright 2017 RocketStock
TITLE "Untitled"
#LUT size
LUT_3D_SIZE 8
#data domain
#LUT data points
DOMAIN_MIN 0.000000 0.000000 0.000000
DOMAIN_MAX 0.903226 0.903226 0.903226
0.000000 0.000000 0.000000
0.000000 0.000000 0.000000
0.000000 0.000000 0.000000
0.093231 0.000000 0.000000
0.230927 0.000000 0.000000
0.374115 0.000000 0.000000
0.562225 0.000000 0.000000
0.792877 0.000000 0.000000
0.000000 0.000000 0.000000
0.000000 0.000000 0.000000
0.000000 0.000000 0.000000
0.102173 0.000000 0.000000
0.238892 0.000000 0.000000
0.381561 0.000000 0.000000
0.568939 0.000000 0.000000
0.796539 0.000000 0.000000
0.000000 0.010132 0.000000
0.000000 0.012909 0.000000
0.000000 0.015930 0.000000
0.112701 0.019135 0.000000
0.247925 0.022614 0.000000
0.389832 0.026276 0.000000
0.576202 0.030151 0.000000
0.800690 0.034180 0.000000
0.000000 0.123169 0.000000
0.000000 0.126678 0.000000
0.005829 0.130432 0.000000
0.124420 0.134247 0.000000
0.257660 0.138214 0.000000
0.398865 0.142303 0.000000
0.583740 0.146484 0.000000
0.804779 0.150635 0.000000
0.000000 0.248444 0.000000
0.000000 0.251495 0.000000
0.016632 0.254639 0.000000
0.136993 0.257843 0.000000
0.267822 0.261108 0.000000
0.408234 0.264374 0.000000
0.591522 0.267700 0.000000
0.808960 0.270935 0.000000
0.000000 0.382233 0.000000
0.000000 0.385223 0.000000
0.028656 0.388214 0.000000
0.150085 0.391296 0.000000
0.278076 0.394409 0.000000
0.417847 0.397491 0.000000
0.599182 0.400604 0.000000
0.813080 0.403656 0.000000
0.000000 0.556580 0.000000
0.000000 0.559052 0.000000
0.041595 0.561554 0.000000
0.163116 0.564056 0.000000
0.288330 0.566467 0.000000
0.427429 0.568878 0.000000
0.606628 0.571228 0.000000
0.816986 0.573486 0.000000
0.000000 0.762695 0.000000
0.000000 0.764069 0.000000
0.055084 0.765381 0.000000
0.175903 0.766724 0.000000
0.298218 0.767944 0.000000
0.436584 0.769165 0.000000
0.613556 0.770355 0.000000
0.820587 0.771484 0.000000
0.000000 0.000000 0.000000
0.000000 0.000000 0.000000
0.000000 0.000000 0.000000
0.094757 0.000000 0.000000
0.232300 0.000000 0.000000
0.375397 0.000000 0.000000
0.563385 0.000000 0.000000
0.793427 0.000000 0.000000
0.000000 0.000000 0.000000
0.000000 0.000000 0.000000
0.000000 0.000000 0.000000
0.104095 0.000000 0.000000
0.240570 0.000000 0.000000
0.383057 0.000000 0.000000
0.570221 0.000000 0.000000
0.797302 0.000000 0.000000
0.000000 0.011139 0.000000
0.000000 0.013947 0.000000
0.000000 0.017059 0.000000
0.114807 0.020355 0.000000
0.249695 0.023926 0.000000
0.391479 0.027740 0.000000
0.577606 0.031586 0.000000
0.801361 0.035675 0.000000
0.000000 0.124451 0.000000
0.000000 0.128021 0.000000
0.007721 0.131805 0.000000
0.126709 0.135681 0.000000
0.259521 0.139771 0.000000
0.400574 0.143829 0.000000
0.585205 0.147980 0.001282
0.805573 0.152191 0.003235
0.000000 0.249573 0.000000
0.000000 0.252625 0.000000
0.018829 0.255859 0.000000
0.139374 0.259064 0.000000
0.269714 0.262299 0.001221
0.410065 0.265533 0.003113
0.592957 0.268860 0.005157
0.809692 0.272125 0.007233
0.000000 0.383331 0.000000
0.000000 0.386353 0.000000
0.031036 0.389313 0.001160
0.152466 0.392426 0.003082
0.279999 0.395569 0.005096
0.419647 0.398682 0.007141
0.600586 0.401703 0.009247
0.813843 0.404724 0.011353
0.000000 0.557495 0.001068
0.000000 0.559967 0.003021
0.044128 0.562439 0.005035
0.165527 0.564941 0.007050
0.290192 0.567383 0.009155
0.429138 0.569763 0.011292
0.607971 0.572052 0.013367
0.817657 0.574249 0.015381
0.000000 0.763214 0.004944
0.000000 0.764587 0.007019
0.057587 0.765930 0.009094
0.178162 0.767090 0.011200
0.299988 0.768433 0.013275
0.438232 0.769623 0.015320
0.614746 0.770782 0.017303
0.821106 0.771820 0.019196
0.000000 0.000000 0.047211
0.000000 0.000000 0.048584
0.000000 0.000000 0.050171
0.096313 0.000000 0.052002
0.233734 0.000000 0.053986
0.376770 0.000000 0.056183
0.564636 0.000000 0.058563
0.794220 0.000000 0.061066
0.000000 0.000000 0.050110
0.000000 0.000000 0.051971
0.000000 0.000000 0.053894
0.105957 0.000000 0.056091
0.242126 0.000000 0.058472
0.384552 0.000000 0.060974
0.571533 0.000000 0.063690
0.798065 0.000000 0.066498
0.000000 0.012146 0.053833
0.000000 0.015045 0.056000
0.000000 0.018250 0.058380
0.116974 0.021698 0.060913
0.251495 0.025299 0.063629
0.393127 0.029144 0.066406
0.578979 0.033081 0.069275
0.802155 0.037231 0.072357
0.000000 0.125763 0.058319
0.000000 0.129364 0.060822
0.009705 0.133209 0.063538
0.129028 0.137177 0.066315
0.261383 0.141235 0.069214
0.402313 0.145325 0.072174
0.586609 0.149506 0.075287
0.806335 0.153717 0.078400
0.000000 0.250671 0.063446
0.000000 0.253754 0.066193
0.020996 0.256989 0.069122
0.141815 0.260254 0.072083
0.271667 0.263489 0.075195
0.411804 0.266785 0.078278
0.594482 0.270081 0.081451
0.810486 0.273346 0.084564
0.000000 0.384369 0.069031
0.000000 0.387390 0.072021
0.033417 0.390472 0.075073
0.154877 0.393555 0.078217
0.281921 0.396698 0.081329
0.421448 0.399750 0.084473
0.602020 0.402863 0.087585
0.814514 0.405792 0.090668
0.000000 0.558411 0.074951
0.000000 0.560883 0.078125
0.046600 0.563324 0.081238
0.167938 0.565857 0.084381
0.292053 0.568268 0.087494
0.430939 0.570587 0.090546
0.609253 0.572876 0.093567
0.818329 0.575073 0.096466
0.000000 0.763672 0.081116
0.000000 0.764984 0.084259
0.060120 0.766357 0.087372
0.180511 0.767670 0.090485
0.301849 0.768860 0.093445
0.439850 0.770050 0.096344
0.615936 0.771118 0.099091
0.821716 0.772217 0.101715
0.000000 0.000000 0.154388
0.000000 0.000000 0.156036
0.000000 0.000000 0.157928
0.098022 0.000000 0.160095
0.235260 0.000000 0.162415
0.378143 0.000000 0.164856
0.565826 0.000000 0.167511
0.794891 0.000000 0.170288
0.000000 0.000000 0.157898
0.000000 0.000000 0.160004
0.000000 0.000000 0.162292
0.107880 0.000000 0.164795
0.243835 0.000000 0.167389
0.386139 0.000000 0.170227
0.572968 0.000000 0.173126
0.798737 0.000000 0.176086
0.000000 0.013153 0.162231
0.000000 0.016235 0.164734
0.001434 0.019470 0.167358
0.119171 0.022949 0.170105
0.253265 0.026611 0.173004
0.394806 0.030548 0.175964
0.580383 0.034576 0.179016
0.802948 0.038757 0.182129
0.000000 0.127075 0.167297
0.000000 0.130798 0.170013
0.011688 0.134613 0.172913
0.131348 0.138641 0.175903
0.263275 0.142761 0.178955
0.404114 0.146912 0.182068
0.588104 0.151093 0.185120
0.807190 0.155243 0.188293
0.000000 0.251801 0.172852
0.000000 0.254913 0.175781
0.023254 0.258179 0.178833
0.144226 0.261444 0.181946
0.273560 0.264709 0.185028
0.413635 0.268036 0.188202
0.595856 0.271240 0.191254
0.811249 0.274536 0.194336
0.000000 0.385529 0.178772
0.000000 0.388519 0.181885
0.035858 0.391571 0.184937
0.157349 0.394714 0.188049
0.283813 0.397797 0.191162
0.423218 0.400848 0.194183
0.603455 0.403931 0.197205
0.815277 0.406830 0.200104
0.000000 0.559296 0.184845
0.000000 0.561859 0.187958
0.049103 0.564301 0.191101
0.170319 0.566742 0.194122
0.293945 0.569153 0.197083
0.432587 0.571442 0.200043
0.610596 0.573669 0.202820
0.818970 0.575836 0.205475
0.000000 0.764221 0.190918
0.000000 0.765503 0.194031
0.062561 0.766846 0.196991
0.182709 0.768066 0.199951
0.303528 0.769348 0.202728
0.441437 0.770416 0.205353
0.617126 0.771576 0.207886
0.822357 0.772614 0.210236
0.000000 0.000000 0.277100
0.000000 0.000000 0.278534
0.000000 0.000000 0.280121
0.099731 0.000000 0.281830
0.236816 0.000000 0.283722
0.379547 0.000000 0.285736
0.567169 0.000000 0.287903
0.795502 0.000000 0.290131
0.000000 0.000000 0.280060
0.000000 0.000000 0.281769
0.000000 0.000000 0.283661
0.109924 0.000000 0.285675
0.245514 0.000000 0.287842
0.387665 0.000000 0.290070
0.574280 0.000000 0.292389
0.799530 0.000000 0.294708
0.000000 0.014252 0.283569
0.000000 0.017426 0.285614
0.003296 0.020721 0.287781
0.121368 0.024292 0.290009
0.255035 0.028046 0.292297
0.396454 0.031982 0.294647
0.581818 0.036072 0.297119
0.803711 0.040283 0.299561
0.000000 0.128387 0.287659
0.000000 0.132172 0.289886
0.013733 0.136078 0.292206
0.133759 0.140167 0.294617
0.265167 0.144257 0.296997
0.405853 0.148438 0.299469
0.589539 0.152618 0.301849
0.807953 0.156799 0.304352
0.000000 0.252960 0.292145
0.000000 0.256134 0.294525
0.025543 0.259369 0.296967
0.146667 0.262634 0.299377
0.275482 0.265900 0.301788
0.415436 0.269226 0.304260
0.597290 0.272491 0.306671
0.812012 0.275696 0.309052
0.000000 0.386658 0.296844
0.000000 0.389648 0.299286
0.038269 0.392731 0.301727
0.159790 0.395844 0.304199
0.285706 0.398987 0.306549
0.424988 0.402008 0.308990
0.604797 0.404999 0.311310
0.816040 0.407898 0.313568
0.000000 0.560272 0.301666
0.000000 0.562775 0.304108
0.051666 0.565186 0.306488
0.172699 0.567596 0.308929
0.295776 0.569946 0.311249
0.434296 0.572266 0.313507
0.611847 0.574463 0.315704
0.819672 0.576569 0.317719
0.000000 0.764709 0.306396
0.000000 0.766022 0.308838
0.065094 0.767303 0.311127
0.184967 0.768524 0.313446
0.305298 0.769714 0.315613
0.443024 0.770905 0.317657
0.618225 0.771912 0.319672
0.822906 0.772888 0.321411
0.000000 0.000000 0.407654
0.000000 0.000000 0.408966
0.000000 0.000000 0.410400
0.101532 0.000000 0.412048
0.238342 0.000000 0.413788
0.380951 0.000000 0.415680
0.568451 0.000000 0.417603
0.796295 0.000000 0.419647
0.000000 0.000000 0.410370
0.000000 0.000000 0.411987
0.000000 0.000000 0.413757
0.111938 0.000000 0.415619
0.247345 0.000000 0.417542
0.389221 0.000000 0.419617
0.575684 0.000000 0.421753
0.800232 0.000000 0.423920
0.000000 0.015381 0.413666
0.000000 0.018585 0.415558
0.005096 0.022003 0.417450
0.123627 0.025665 0.419556
0.257019 0.029510 0.421661
0.398163 0.033478 0.423828
0.583252 0.037628 0.426086
0.804474 0.041870 0.428375
0.000000 0.129761 0.417450
0.000000 0.133575 0.419464
0.015839 0.137543 0.421600
0.136108 0.141632 0.423798
0.267090 0.145752 0.425995
0.407623 0.149933 0.428314
0.591003 0.154083 0.430603
0.808655 0.158325 0.432892
0.000000 0.254120 0.421509
0.000000 0.257355 0.423737
0.027802 0.260559 0.425964
0.149109 0.263855 0.428223
0.277405 0.267090 0.430511
0.417236 0.270386 0.432831
0.598663 0.273712 0.435028
0.812836 0.276917 0.437286
0.000000 0.387695 0.425873
0.000000 0.390778 0.428131
0.040741 0.393890 0.430420
0.162231 0.397003 0.432739
0.287598 0.400146 0.434998
0.426788 0.403107 0.437225
0.606171 0.406097 0.439392
0.816681 0.408966 0.441498
0.000000 0.561157 0.430298
0.000000 0.563568 0.432648
0.054138 0.566040 0.434906
0.174988 0.568451 0.437134
0.297607 0.570801 0.439331
0.435944 0.573090 0.441437
0.613098 0.575256 0.443420
0.820312 0.577301 0.445404
0.000000 0.765228 0.434814
0.000000 0.766479 0.437042
0.067657 0.767792 0.439270
0.187134 0.768982 0.441376
0.307007 0.770142 0.443390
0.444519 0.771271 0.445282
0.619324 0.772400 0.447083
0.823425 0.773315 0.448761
0.000000 0.000000 0.581299
0.000000 0.000000 0.582428
0.000000 0.000000 0.583740
0.103333 0.000000 0.585052
0.239929 0.000000 0.586609
0.382477 0.000000 0.588104
0.569794 0.000000 0.589844
0.797058 0.000000 0.591553
0.000000 0.000000 0.583710
0.000000 0.000000 0.585022
0.000000 0.000000 0.586548
0.114075 0.000000 0.588074
0.249054 0.000000 0.589752
0.390900 0.000000 0.591431
0.577057 0.000000 0.593262
0.801117 0.000000 0.595093
0.000000 0.016510 0.586517
0.000000 0.019836 0.588043
0.007019 0.023346 0.589661
0.125885 0.027039 0.591370
0.258820 0.030945 0.593170
0.399902 0.034973 0.595001
0.584686 0.039185 0.596802
0.805267 0.043457 0.598694
0.000000 0.131165 0.589630
0.000000 0.135040 0.591309
0.018005 0.139008 0.593140
0.138550 0.143097 0.594971
0.268951 0.147308 0.596710
0.409393 0.151489 0.598663
0.592407 0.155701 0.600464
0.809418 0.159821 0.602264
0.000000 0.255280 0.593109
0.000000 0.258484 0.594940
0.030151 0.261749 0.596680
0.151550 0.265045 0.598572
0.279266 0.268341 0.600372
0.419006 0.271637 0.602203
0.600098 0.274841 0.604034
0.813507 0.278046 0.605804
0.000000 0.388855 0.596649
0.000000 0.391968 0.598541
0.043213 0.395050 0.600281
0.164673 0.398102 0.602173
0.289520 0.401215 0.603973
0.428528 0.404266 0.605743
0.607483 0.407135 0.607422
0.817474 0.410004 0.609100
0.000000 0.562073 0.600250
0.000000 0.564484 0.602081
0.056702 0.566986 0.603912
0.177338 0.569397 0.605682
0.299377 0.571594 0.607391
0.437653 0.573883 0.609009
0.614319 0.576050 0.610626
0.820923 0.578033 0.612122
0.000000 0.765594 0.603882
0.000000 0.766937 0.605591
0.070099 0.768219 0.607330
0.189301 0.769440 0.608978
0.308624 0.770538 0.610565
0.446014 0.771637 0.612091
0.620361 0.772675 0.613464
0.824005 0.773651 0.614685
0.000000 0.000000 0.794403
0.000000 0.000000 0.795013
0.000000 0.000000 0.795746
0.105286 0.000000 0.796539
0.241577 0.000000 0.797302
0.384003 0.000000 0.798126
0.571075 0.000000 0.799194
0.797729 0.000000 0.800079
0.000000 0.000000 0.795746
0.000000 0.000000 0.796478
0.000000 0.000000 0.797302
0.116150 0.000000 0.798126
0.250824 0.000000 0.799194
0.392517 0.000000 0.800079
0.578430 0.000000 0.801025
0.801910 0.000000 0.801971
0.000000 0.017731 0.797241
0.000000 0.021088 0.798096
0.008942 0.024689 0.799133
0.128174 0.028473 0.800018
0.260681 0.032440 0.801025
0.401611 0.036499 0.801971
0.586121 0.040741 0.802979
0.806030 0.045044 0.804016
0.000000 0.132507 0.799133
0.000000 0.136475 0.800018
0.020172 0.140564 0.800964
0.140930 0.144684 0.801941
0.270966 0.148895 0.802948
0.411102 0.153015 0.803986
0.593903 0.157227 0.804962
0.810181 0.161316 0.805939
0.000000 0.256439 0.800964
0.000000 0.259674 0.801788
0.032562 0.262939 0.802948
0.153992 0.266266 0.803986
0.281219 0.269562 0.804962
0.420776 0.272827 0.805817
0.601532 0.276001 0.806824
0.814301 0.279205 0.807770
0.000000 0.389954 0.802826
0.000000 0.393066 0.803833
0.045685 0.396149 0.804810
0.167053 0.399231 0.805817
0.291351 0.402313 0.806763
0.430237 0.405304 0.807770
0.608795 0.408203 0.808685
0.818115 0.411011 0.809509
0.000000 0.562988 0.804810
0.000000 0.565399 0.805786
0.059174 0.567902 0.806763
0.179657 0.570221 0.807709
0.301117 0.572479 0.808685
0.439270 0.574677 0.809509
0.615570 0.576752 0.810364
0.821503 0.578735 0.811096
0.000000 0.766144 0.806671
0.000000 0.767456 0.807648
0.072540 0.768646 0.808624
0.191376 0.769836 0.809448
0.310272 0.770996 0.810364
0.447510 0.771973 0.811096
0.621368 0.773041 0.811829
0.824463 0.773956 0.812500
