3d-lut/luts/Reeve 38.CUBE
#Created by: Adobe Photoshop Export Color Lookup Plugin
#Copyright: (C) Copyright 2017 RocketStock
TITLE "Untitled"
#LUT size
LUT_3D_SIZE 5
#data domain
#LUT data points
DOMAIN_MIN 0.000000 0.000000 0.000000
DOMAIN_MAX 0.903226 0.903226 0.903226
0.027863 0.027863 0.027863
0.147980 0.027863 0.027863
0.428253 0.027863 0.027863
0.769348 0.027863 0.027863
0.914459 0.027863 0.027863
0.027863 0.119904 0.027863
0.147980 0.119904 0.027863
0.428253 0.119904 0.027863
0.769348 0.119904 0.027863
0.914459 0.119904 0.027863
0.027863 0.443909 0.027863
0.147980 0.443909 0.027863
0.428253 0.443909 0.027863
0.769348 0.443909 0.027863
0.914459 0.443909 0.027863
0.027863 0.787811 0.027863
0.147980 0.787811 0.027863
0.428253 0.787811 0.027863
0.769348 0.787811 0.027863
0.914459 0.787811 0.027863
0.027863 0.915741 0.027863
0.147980 0.915741 0.027863
0.428253 0.915741 0.027863
0.769348 0.915741 0.027863
0.914459 0.915741 0.027863
0.027863 0.027863 0.093994
0.147980 0.027863 0.093994
0.428253 0.027863 0.093994
0.769348 0.027863 0.093994
0.914459 0.027863 0.093994
0.027863 0.119904 0.093994
0.147980 0.119904 0.093994
0.428253 0.119904 0.093994
0.769348 0.119904 0.093994
0.914459 0.119904 0.093994
0.027863 0.443909 0.093994
0.147980 0.443909 0.093994
0.428253 0.443909 0.093994
0.769348 0.443909 0.093994
0.914459 0.443909 0.093994
0.027863 0.787811 0.093994
0.147980 0.787811 0.093994
0.428253 0.787811 0.093994
0.769348 0.787811 0.093994
0.914459 0.787811 0.093994
0.027863 0.915741 0.093994
0.147980 0.915741 0.093994
0.428253 0.915741 0.093994
0.769348 0.915741 0.093994
0.914459 0.915741 0.093994
0.027863 0.027863 0.442139
0.147980 0.027863 0.442139
0.428253 0.027863 0.442139
0.769348 0.027863 0.442139
0.914459 0.027863 0.442139
0.027863 0.119904 0.442139
0.147980 0.119904 0.442139
0.428253 0.119904 0.442139
0.769348 0.119904 0.442139
0.914459 0.119904 0.442139
0.027863 0.443909 0.442139
0.147980 0.443909 0.442139
0.428253 0.443909 0.442139
0.769348 0.443909 0.442139
0.914459 0.443909 0.442139
0.027863 0.787811 0.442139
0.147980 0.787811 0.442139
0.428253 0.787811 0.442139
0.769348 0.787811 0.442139
0.914459 0.787811 0.442139
0.027863 0.915741 0.442139
0.147980 0.915741 0.442139
0.428253 0.915741 0.442139
0.769348 0.915741 0.442139
0.914459 0.915741 0.442139
0.027863 0.027863 0.783966
0.147980 0.027863 0.783966
0.428253 0.027863 0.783966
0.769348 0.027863 0.783966
0.914459 0.027863 0.783966
0.027863 0.119904 0.783966
0.147980 0.119904 0.783966
0.428253 0.119904 0.783966
0.769348 0.119904 0.783966
0.914459 0.119904 0.783966
0.027863 0.443909 0.783966
0.147980 0.443909 0.783966
0.428253 0.443909 0.783966
0.769348 0.443909 0.783966
0.914459 0.443909 0.783966
0.027863 0.787811 0.783966
0.147980 0.787811 0.783966
0.428253 0.787811 0.783966
0.769348 0.787811 0.783966
0.914459 0.787811 0.783966
0.027863 0.915741 0.783966
0.147980 0.915741 0.783966
0.428253 0.915741 0.783966
0.769348 0.915741 0.783966
0.914459 0.915741 0.783966
0.027863 0.027863 0.916962
0.147980 0.027863 0.916962
0.428253 0.027863 0.916962
0.769348 0.027863 0.916962
0.914459 0.027863 0.916962
0.027863 0.119904 0.916962
0.147980 0.119904 0.916962
0.428253 0.119904 0.916962
0.769348 0.119904 0.916962
0.914459 0.119904 0.916962
0.027863 0.443909 0.916962
0.147980 0.443909 0.916962
0.428253 0.443909 0.916962
0.769348 0.443909 0.916962
0.914459 0.443909 0.916962
0.027863 0.787811 0.916962
0.147980 0.787811 0.916962
0.428253 0.787811 0.916962
0.769348 0.787811 0.916962
0.914459 0.787811 0.916962
0.027863 0.915741 0.916962
0.147980 0.915741 0.916962
0.428253 0.915741 0.916962
0.769348 0.915741 0.916962
0.914459 0.915741 0.916962
