3d-lut/luts/Reeve 38.CUBE
#Created by: Adobe Photoshop Export Color Lookup Plugin
#Copyright: (C) Copyright 2017 RocketStock
TITLE "Untitled"
#LUT size
LUT_3D_SIZE 32
#data domain
DOMAIN_MIN 0.0 0.0 0.0
DOMAIN_MAX 1.0 1.0 1.0
#LUT data points
0.027863 0.027863 0.027863
0.027863 0.027863 0.027863
0.029083 0.027863 0.027863
0.051147 0.027863 0.027863
0.076416 0.027863 0.027863
0.099915 0.027863 0.027863
0.123749 0.027863 0.027863
0.147980 0.027863 0.027863
0.172913 0.027863 0.027863
0.199585 0.027863 0.027863
0.229950 0.027863 0.027863
0.265991 0.027863 0.027863
0.309753 0.027863 0.027863
0.363129 0.027863 0.027863
0.428253 0.027863 0.027863
0.501862 0.027863 0.027863
0.569031 0.027863 0.027863
0.625641 0.027863 0.027863
0.673096 0.027863 0.027863
0.712189 0.027863 0.027863
0.743683 0.027863 0.027863
0.769348 0.027863 0.027863
0.791412 0.027863 0.027863
0.811951 0.027863 0.027863
0.832336 0.027863 0.027863
0.852844 0.027863 0.027863
0.873260 0.027863 0.027863
0.893799 0.027863 0.027863
0.914459 0.027863 0.027863
0.918701 0.027863 0.027863
0.918701 0.027863 0.027863
0.918701 0.027863 0.027863
0.027863 0.027863 0.027863
0.027863 0.027863 0.027863
0.029083 0.027863 0.027863
0.051147 0.027863 0.027863
0.076416 0.027863 0.027863
0.099915 0.027863 0.027863
0.123749 0.027863 0.027863
0.147980 0.027863 0.027863
0.172913 0.027863 0.027863
0.199585 0.027863 0.027863
0.229950 0.027863 0.027863
0.265991 0.027863 0.027863
0.309753 0.027863 0.027863
0.363129 0.027863 0.027863
0.428253 0.027863 0.027863
0.501862 0.027863 0.027863
0.569031 0.027863 0.027863
0.625641 0.027863 0.027863
0.673096 0.027863 0.027863
0.712189 0.027863 0.027863
0.743683 0.027863 0.027863
0.769348 0.027863 0.027863
0.791412 0.027863 0.027863
0.811951 0.027863 0.027863
0.832336 0.027863 0.027863
0.852844 0.027863 0.027863
0.873260 0.027863 0.027863
0.893799 0.027863 0.027863
0.914459 0.027863 0.027863
0.918701 0.027863 0.027863
0.918701 0.027863 0.027863
0.918701 0.027863 0.027863
0.027863 0.028931 0.027863
0.027863 0.028931 0.027863
0.029083 0.028931 0.027863
0.051147 0.028931 0.027863
0.076416 0.028931 0.027863
0.099915 0.028931 0.027863
0.123749 0.028931 0.027863
0.147980 0.028931 0.027863
0.172913 0.028931 0.027863
0.199585 0.028931 0.027863
0.229950 0.028931 0.027863
0.265991 0.028931 0.027863
0.309753 0.028931 0.027863
0.363129 0.028931 0.027863
0.428253 0.028931 0.027863
0.501862 0.028931 0.027863
0.569031 0.028931 0.027863
0.625641 0.028931 0.027863
0.673096 0.028931 0.027863
0.712189 0.028931 0.027863
0.743683 0.028931 0.027863
0.769348 0.028931 0.027863
0.791412 0.028931 0.027863
0.811951 0.028931 0.027863
0.832336 0.028931 0.027863
0.852844 0.028931 0.027863
0.873260 0.028931 0.027863
0.893799 0.028931 0.027863
0.914459 0.028931 0.027863
0.918701 0.028931 0.027863
0.918701 0.028931 0.027863
0.918701 0.028931 0.027863
0.027863 0.047394 0.027863
0.027863 0.047394 0.027863
0.029083 0.047394 0.027863
0.051147 0.047394 0.027863
0.076416 0.047394 0.027863
0.099915 0.047394 0.027863
0.123749 0.047394 0.027863
0.147980 0.047394 0.027863
0.172913 0.047394 0.027863
0.199585 0.047394 0.027863
0.229950 0.047394 0.027863
0.265991 0.047394 0.027863
0.309753 0.047394 0.027863
0.363129 0.047394 0.027863
0.428253 0.047394 0.027863
0.501862 0.047394 0.027863
0.569031 0.047394 0.027863
0.625641 0.047394 0.027863
0.673096 0.047394 0.027863
0.712189 0.047394 0.027863
0.743683 0.047394 0.027863
0.769348 0.047394 0.027863
0.791412 0.047394 0.027863
0.811951 0.047394 0.027863
0.832336 0.047394 0.027863
0.852844 0.047394 0.027863
0.873260 0.047394 0.027863
0.893799 0.047394 0.027863
0.914459 0.047394 0.027863
0.918701 0.047394 0.027863
0.918701 0.047394 0.027863
0.918701 0.047394 0.027863
0.027863 0.069611 0.027863
0.027863 0.069611 0.027863
0.029083 0.069611 0.027863
0.051147 0.069611 0.027863
0.076416 0.069611 0.027863
0.099915 0.069611 0.027863
0.123749 0.069611 0.027863
0.147980 0.069611 0.027863
0.172913 0.069611 0.027863
0.199585 0.069611 0.027863
0.229950 0.069611 0.027863
0.265991 0.069611 0.027863
0.309753 0.069611 0.027863
0.363129 0.069611 0.027863
0.428253 0.069611 0.027863
0.501862 0.069611 0.027863
0.569031 0.069611 0.027863
0.625641 0.069611 0.027863
0.673096 0.069611 0.027863
0.712189 0.069611 0.027863
0.743683 0.069611 0.027863
0.769348 0.069611 0.027863
0.791412 0.069611 0.027863
0.811951 0.069611 0.027863
0.832336 0.069611 0.027863
0.852844 0.069611 0.027863
0.873260 0.069611 0.027863
0.893799 0.069611 0.027863
0.914459 0.069611 0.027863
0.918701 0.069611 0.027863
0.918701 0.069611 0.027863
0.918701 0.069611 0.027863
0.027863 0.087891 0.027863
0.027863 0.087891 0.027863
0.029083 0.087891 0.027863
0.051147 0.087891 0.027863
0.076416 0.087891 0.027863
0.099915 0.087891 0.027863
0.123749 0.087891 0.027863
0.147980 0.087891 0.027863
0.172913 0.087891 0.027863
0.199585 0.087891 0.027863
0.229950 0.087891 0.027863
0.265991 0.087891 0.027863
0.309753 0.087891 0.027863
0.363129 0.087891 0.027863
0.428253 0.087891 0.027863
0.501862 0.087891 0.027863
0.569031 0.087891 0.027863
0.625641 0.087891 0.027863
0.673096 0.087891 0.027863
0.712189 0.087891 0.027863
0.743683 0.087891 0.027863
0.769348 0.087891 0.027863
0.791412 0.087891 0.027863
0.811951 0.087891 0.027863
0.832336 0.087891 0.027863
0.852844 0.087891 0.027863
0.873260 0.087891 0.027863
0.893799 0.087891 0.027863
0.914459 0.087891 0.027863
0.918701 0.087891 0.027863
0.918701 0.087891 0.027863
0.918701 0.087891 0.027863
0.027863 0.104248 0.027863
0.027863 0.104248 0.027863
0.029083 0.104248 0.027863
0.051147 0.104248 0.027863
0.076416 0.104248 0.027863
0.099915 0.104248 0.027863
0.123749 0.104248 0.027863
0.147980 0.104248 0.027863
0.172913 0.104248 0.027863
0.199585 0.104248 0.027863
0.229950 0.104248 0.027863
0.265991 0.104248 0.027863
0.309753 0.104248 0.027863
0.363129 0.104248 0.027863
0.428253 0.104248 0.027863
0.501862 0.104248 0.027863
0.569031 0.104248 0.027863
0.625641 0.104248 0.027863
0.673096 0.104248 0.027863
0.712189 0.104248 0.027863
0.743683 0.104248 0.027863
0.769348 0.104248 0.027863
0.791412 0.104248 0.027863
0.811951 0.104248 0.027863
0.832336 0.104248 0.027863
0.852844 0.104248 0.027863
0.873260 0.104248 0.027863
0.893799 0.104248 0.027863
0.914459 0.104248 0.027863
0.918701 0.104248 0.027863
0.918701 0.104248 0.027863
0.918701 0.104248 0.027863
0.027863 0.119904 0.027863
0.027863 0.119904 0.027863
0.029083 0.119904 0.027863
0.051147 0.119904 0.027863
0.076416 0.119904 0.027863
0.099915 0.119904 0.027863
0.123749 0.119904 0.027863
0.147980 0.119904 0.027863
0.172913 0.119904 0.027863
0.199585 0.119904 0.027863
0.229950 0.119904 0.027863
0.265991 0.119904 0.027863
0.309753 0.119904 0.027863
0.363129 0.119904 0.027863
0.428253 0.119904 0.027863
0.501862 0.119904 0.027863
0.569031 0.119904 0.027863
0.625641 0.119904 0.027863
0.673096 0.119904 0.027863
0.712189 0.119904 0.027863
0.743683 0.119904 0.027863
0.769348 0.119904 0.027863
0.791412 0.119904 0.027863
0.811951 0.119904 0.027863
0.832336 0.119904 0.027863
0.852844 0.119904 0.027863
0.873260 0.119904 0.027863
0.893799 0.119904 0.027863
0.914459 0.119904 0.027863
0.918701 0.119904 0.027863
0.918701 0.119904 0.027863
0.918701 0.119904 0.027863
0.027863 0.138702 0.027863
0.027863 0.138702 0.027863
0.029083 0.138702 0.027863
0.051147 0.138702 0.027863
0.076416 0.138702 0.027863
0.099915 0.138702 0.027863
0.123749 0.138702 0.027863
0.147980 0.138702 0.027863
0.172913 0.138702 0.027863
0.199585 0.138702 0.027863
0.229950 0.138702 0.027863
0.265991 0.138702 0.027863
0.309753 0.138702 0.027863
0.363129 0.138702 0.027863
0.428253 0.138702 0.027863
0.501862 0.138702 0.027863
0.569031 0.138702 0.027863
0.625641 0.138702 0.027863
0.673096 0.138702 0.027863
0.712189 0.138702 0.027863
0.743683 0.138702 0.027863
0.769348 0.138702 0.027863
0.791412 0.138702 0.027863
0.811951 0.138702 0.027863
0.832336 0.138702 0.027863
0.852844 0.138702 0.027863
0.873260 0.138702 0.027863
0.893799 0.138702 0.027863
0.914459 0.138702 0.027863
0.918701 0.138702 0.027863
0.918701 0.138702 0.027863
0.918701 0.138702 0.027863
0.027863 0.164612 0.027863
0.027863 0.164612 0.027863
0.029083 0.164612 0.027863
0.051147 0.164612 0.027863
0.076416 0.164612 0.027863
0.099915 0.164612 0.027863
0.123749 0.164612 0.027863
0.147980 0.164612 0.027863
0.172913 0.164612 0.027863
0.199585 0.164612 0.027863
0.229950 0.164612 0.027863
0.265991 0.164612 0.027863
0.309753 0.164612 0.027863
0.363129 0.164612 0.027863
0.428253 0.164612 0.027863
0.501862 0.164612 0.027863
0.569031 0.164612 0.027863
0.625641 0.164612 0.027863
0.673096 0.164612 0.027863
0.712189 0.164612 0.027863
0.743683 0.164612 0.027863
0.769348 0.164612 0.027863
0.791412 0.164612 0.027863
0.811951 0.164612 0.027863
0.832336 0.164612 0.027863
0.852844 0.164612 0.027863
0.873260 0.164612 0.027863
0.893799 0.164612 0.027863
0.914459 0.164612 0.027863
0.918701 0.164612 0.027863
0.918701 0.164612 0.027863
0.918701 0.164612 0.027863
0.027863 0.201019 0.027863
0.027863 0.201019 0.027863
0.029083 0.201019 0.027863
0.051147 0.201019 0.027863
0.076416 0.201019 0.027863
0.099915 0.201019 0.027863
0.123749 0.201019 0.027863
0.147980 0.201019 0.027863
0.172913 0.201019 0.027863
0.199585 0.201019 0.027863
0.229950 0.201019 0.027863
0.265991 0.201019 0.027863
0.309753 0.201019 0.027863
0.363129 0.201019 0.027863
0.428253 0.201019 0.027863
0.501862 0.201019 0.027863
0.569031 0.201019 0.027863
0.625641 0.201019 0.027863
0.673096 0.201019 0.027863
0.712189 0.201019 0.027863
0.743683 0.201019 0.027863
0.769348 0.201019 0.027863
0.791412 0.201019 0.027863
0.811951 0.201019 0.027863
0.832336 0.201019 0.027863
0.852844 0.201019 0.027863
0.873260 0.201019 0.027863
0.893799 0.201019 0.027863
0.914459 0.201019 0.027863
0.918701 0.201019 0.027863
0.918701 0.201019 0.027863
0.918701 0.201019 0.027863
0.027863 0.249908 0.027863
0.027863 0.249908 0.027863
0.029083 0.249908 0.027863
0.051147 0.249908 0.027863
0.076416 0.249908 0.027863
0.099915 0.249908 0.027863
0.123749 0.249908 0.027863
0.147980 0.249908 0.027863
0.172913 0.249908 0.027863
0.199585 0.249908 0.027863
0.229950 0.249908 0.027863
0.265991 0.249908 0.027863
0.309753 0.249908 0.027863
0.363129 0.249908 0.027863
0.428253 0.249908 0.027863
0.501862 0.249908 0.027863
0.569031 0.249908 0.027863
0.625641 0.249908 0.027863
0.673096 0.249908 0.027863
0.712189 0.249908 0.027863
0.743683 0.249908 0.027863
0.769348 0.249908 0.027863
0.791412 0.249908 0.027863
0.811951 0.249908 0.027863
0.832336 0.249908 0.027863
0.852844 0.249908 0.027863
0.873260 0.249908 0.027863
0.893799 0.249908 0.027863
0.914459 0.249908 0.027863
0.918701 0.249908 0.027863
0.918701 0.249908 0.027863
0.918701 0.249908 0.027863
0.027863 0.312988 0.027863
0.027863 0.312988 0.027863
0.029083 0.312988 0.027863
0.051147 0.312988 0.027863
0.076416 0.312988 0.027863
0.099915 0.312988 0.027863
0.123749 0.312988 0.027863
0.147980 0.312988 0.027863
0.172913 0.312988 0.027863
0.199585 0.312988 0.027863
0.229950 0.312988 0.027863
0.265991 0.312988 0.027863
0.309753 0.312988 0.027863
0.363129 0.312988 0.027863
0.428253 0.312988 0.027863
0.501862 0.312988 0.027863
0.569031 0.312988 0.027863
0.625641 0.312988 0.027863
0.673096 0.312988 0.027863
0.712189 0.312988 0.027863
0.743683 0.312988 0.027863
0.769348 0.312988 0.027863
0.791412 0.312988 0.027863
0.811951 0.312988 0.027863
0.832336 0.312988 0.027863
0.852844 0.312988 0.027863
0.873260 0.312988 0.027863
0.893799 0.312988 0.027863
0.914459 0.312988 0.027863
0.918701 0.312988 0.027863
0.918701 0.312988 0.027863
0.918701 0.312988 0.027863
0.027863 0.382874 0.027863
0.027863 0.382874 0.027863
0.029083 0.382874 0.027863
0.051147 0.382874 0.027863
0.076416 0.382874 0.027863
0.099915 0.382874 0.027863
0.123749 0.382874 0.027863
0.147980 0.382874 0.027863
0.172913 0.382874 0.027863
0.199585 0.382874 0.027863
0.229950 0.382874 0.027863
0.265991 0.382874 0.027863
0.309753 0.382874 0.027863
0.363129 0.382874 0.027863
0.428253 0.382874 0.027863
0.501862 0.382874 0.027863
0.569031 0.382874 0.027863
0.625641 0.382874 0.027863
0.673096 0.382874 0.027863
0.712189 0.382874 0.027863
0.743683 0.382874 0.027863
0.769348 0.382874 0.027863
0.791412 0.382874 0.027863
0.811951 0.382874 0.027863
0.832336 0.382874 0.027863
0.852844 0.382874 0.027863
0.873260 0.382874 0.027863
0.893799 0.382874 0.027863
0.914459 0.382874 0.027863
0.918701 0.382874 0.027863
0.918701 0.382874 0.027863
0.918701 0.382874 0.027863
0.027863 0.443909 0.027863
0.027863 0.443909 0.027863
0.029083 0.443909 0.027863
0.051147 0.443909 0.027863
0.076416 0.443909 0.027863
0.099915 0.443909 0.027863
0.123749 0.443909 0.027863
0.147980 0.443909 0.027863
0.172913 0.443909 0.027863
0.199585 0.443909 0.027863
0.229950 0.443909 0.027863
0.265991 0.443909 0.027863
0.309753 0.443909 0.027863
0.363129 0.443909 0.027863
0.428253 0.443909 0.027863
0.501862 0.443909 0.027863
0.569031 0.443909 0.027863
0.625641 0.443909 0.027863
0.673096 0.443909 0.027863
0.712189 0.443909 0.027863
0.743683 0.443909 0.027863
0.769348 0.443909 0.027863
0.791412 0.443909 0.027863
0.811951 0.443909 0.027863
0.832336 0.443909 0.027863
0.852844 0.443909 0.027863
0.873260 0.443909 0.027863
0.893799 0.443909 0.027863
0.914459 0.443909 0.027863
0.918701 0.443909 0.027863
0.918701 0.443909 0.027863
0.918701 0.443909 0.027863
0.027863 0.497345 0.027863
0.027863 0.497345 0.027863
0.029083 0.497345 0.027863
0.051147 0.497345 0.027863
0.076416 0.497345 0.027863
0.099915 0.497345 0.027863
0.123749 0.497345 0.027863
0.147980 0.497345 0.027863
0.172913 0.497345 0.027863
0.199585 0.497345 0.027863
0.229950 0.497345 0.027863
0.265991 0.497345 0.027863
0.309753 0.497345 0.027863
0.363129 0.497345 0.027863
0.428253 0.497345 0.027863
0.501862 0.497345 0.027863
0.569031 0.497345 0.027863
0.625641 0.497345 0.027863
0.673096 0.497345 0.027863
0.712189 0.497345 0.027863
0.743683 0.497345 0.027863
0.769348 0.497345 0.027863
0.791412 0.497345 0.027863
0.811951 0.497345 0.027863
0.832336 0.497345 0.027863
0.852844 0.497345 0.027863
0.873260 0.497345 0.027863
0.893799 0.497345 0.027863
0.914459 0.497345 0.027863
0.918701 0.497345 0.027863
0.918701 0.497345 0.027863
0.918701 0.497345 0.027863
0.027863 0.548584 0.027863
0.027863 0.548584 0.027863
0.029083 0.548584 0.027863
0.051147 0.548584 0.027863
0.076416 0.548584 0.027863
0.099915 0.548584 0.027863
0.123749 0.548584 0.027863
0.147980 0.548584 0.027863
0.172913 0.548584 0.027863
0.199585 0.548584 0.027863
0.229950 0.548584 0.027863
0.265991 0.548584 0.027863
0.309753 0.548584 0.027863
0.363129 0.548584 0.027863
0.428253 0.548584 0.027863
0.501862 0.548584 0.027863
0.569031 0.548584 0.027863
0.625641 0.548584 0.027863
0.673096 0.548584 0.027863
0.712189 0.548584 0.027863
0.743683 0.548584 0.027863
0.769348 0.548584 0.027863
0.791412 0.548584 0.027863
0.811951 0.548584 0.027863
0.832336 0.548584 0.027863
0.852844 0.548584 0.027863
0.873260 0.548584 0.027863
0.893799 0.548584 0.027863
0.914459 0.548584 0.027863
0.918701 0.548584 0.027863
0.918701 0.548584 0.027863
0.918701 0.548584 0.027863
0.027863 0.599365 0.027863
0.027863 0.599365 0.027863
0.029083 0.599365 0.027863
0.051147 0.599365 0.027863
0.076416 0.599365 0.027863
0.099915 0.599365 0.027863
0.123749 0.599365 0.027863
0.147980 0.599365 0.027863
0.172913 0.599365 0.027863
0.199585 0.599365 0.027863
0.229950 0.599365 0.027863
0.265991 0.599365 0.027863
0.309753 0.599365 0.027863
0.363129 0.599365 0.027863
0.428253 0.599365 0.027863
0.501862 0.599365 0.027863
0.569031 0.599365 0.027863
0.625641 0.599365 0.027863
0.673096 0.599365 0.027863
0.712189 0.599365 0.027863
0.743683 0.599365 0.027863
0.769348 0.599365 0.027863
0.791412 0.599365 0.027863
0.811951 0.599365 0.027863
0.832336 0.599365 0.027863
0.852844 0.599365 0.027863
0.873260 0.599365 0.027863
0.893799 0.599365 0.027863
0.914459 0.599365 0.027863
0.918701 0.599365 0.027863
0.918701 0.599365 0.027863
0.918701 0.599365 0.027863
0.027863 0.650330 0.027863
0.027863 0.650330 0.027863
0.029083 0.650330 0.027863
0.051147 0.650330 0.027863
0.076416 0.650330 0.027863
0.099915 0.650330 0.027863
0.123749 0.650330 0.027863
0.147980 0.650330 0.027863
0.172913 0.650330 0.027863
0.199585 0.650330 0.027863
0.229950 0.650330 0.027863
0.265991 0.650330 0.027863
0.309753 0.650330 0.027863
0.363129 0.650330 0.027863
0.428253 0.650330 0.027863
0.501862 0.650330 0.027863
0.569031 0.650330 0.027863
0.625641 0.650330 0.027863
0.673096 0.650330 0.027863
0.712189 0.650330 0.027863
0.743683 0.650330 0.027863
0.769348 0.650330 0.027863
0.791412 0.650330 0.027863
0.811951 0.650330 0.027863
0.832336 0.650330 0.027863
0.852844 0.650330 0.027863
0.873260 0.650330 0.027863
0.893799 0.650330 0.027863
0.914459 0.650330 0.027863
0.918701 0.650330 0.027863
0.918701 0.650330 0.027863
0.918701 0.650330 0.027863
0.027863 0.701813 0.027863
0.027863 0.701813 0.027863
0.029083 0.701813 0.027863
0.051147 0.701813 0.027863
0.076416 0.701813 0.027863
0.099915 0.701813 0.027863
0.123749 0.701813 0.027863
0.147980 0.701813 0.027863
0.172913 0.701813 0.027863
0.199585 0.701813 0.027863
0.229950 0.701813 0.027863
0.265991 0.701813 0.027863
0.309753 0.701813 0.027863
0.363129 0.701813 0.027863
0.428253 0.701813 0.027863
0.501862 0.701813 0.027863
0.569031 0.701813 0.027863
0.625641 0.701813 0.027863
0.673096 0.701813 0.027863
0.712189 0.701813 0.027863
0.743683 0.701813 0.027863
0.769348 0.701813 0.027863
0.791412 0.701813 0.027863
0.811951 0.701813 0.027863
0.832336 0.701813 0.027863
0.852844 0.701813 0.027863
0.873260 0.701813 0.027863
0.893799 0.701813 0.027863
0.914459 0.701813 0.027863
0.918701 0.701813 0.027863
0.918701 0.701813 0.027863
0.918701 0.701813 0.027863
0.027863 0.749542 0.027863
0.027863 0.749542 0.027863
0.029083 0.749542 0.027863
0.051147 0.749542 0.027863
0.076416 0.749542 0.027863
0.099915 0.749542 0.027863
0.123749 0.749542 0.027863
0.147980 0.749542 0.027863
0.172913 0.749542 0.027863
0.199585 0.749542 0.027863
0.229950 0.749542 0.027863
0.265991 0.749542 0.027863
0.309753 0.749542 0.027863
0.363129 0.749542 0.027863
0.428253 0.749542 0.027863
0.501862 0.749542 0.027863
0.569031 0.749542 0.027863
0.625641 0.749542 0.027863
0.673096 0.749542 0.027863
0.712189 0.749542 0.027863
0.743683 0.749542 0.027863
0.769348 0.749542 0.027863
0.791412 0.749542 0.027863
0.811951 0.749542 0.027863
0.832336 0.749542 0.027863
0.852844 0.749542 0.027863
0.873260 0.749542 0.027863
0.893799 0.749542 0.027863
0.914459 0.749542 0.027863
0.918701 0.749542 0.027863
0.918701 0.749542 0.027863
0.918701 0.749542 0.027863
0.027863 0.787811 0.027863
0.027863 0.787811 0.027863
0.029083 0.787811 0.027863
0.051147 0.787811 0.027863
0.076416 0.787811 0.027863
0.099915 0.787811 0.027863
0.123749 0.787811 0.027863
0.147980 0.787811 0.027863
0.172913 0.787811 0.027863
0.199585 0.787811 0.027863
0.229950 0.787811 0.027863
0.265991 0.787811 0.027863
0.309753 0.787811 0.027863
0.363129 0.787811 0.027863
0.428253 0.787811 0.027863
0.501862 0.787811 0.027863
0.569031 0.787811 0.027863
0.625641 0.787811 0.027863
0.673096 0.787811 0.027863
0.712189 0.787811 0.027863
0.743683 0.787811 0.027863
0.769348 0.787811 0.027863
0.791412 0.787811 0.027863
0.811951 0.787811 0.027863
0.832336 0.787811 0.027863
0.852844 0.787811 0.027863
0.873260 0.787811 0.027863
0.893799 0.787811 0.027863
0.914459 0.787811 0.027863
0.918701 0.787811 0.027863
0.918701 0.787811 0.027863
0.918701 0.787811 0.027863
0.027863 0.816132 0.027863
0.027863 0.816132 0.027863
0.029083 0.816132 0.027863
0.051147 0.816132 0.027863
0.076416 0.816132 0.027863
0.099915 0.816132 0.027863
0.123749 0.816132 0.027863
0.147980 0.816132 0.027863
0.172913 0.816132 0.027863
0.199585 0.816132 0.027863
0.229950 0.816132 0.027863
0.265991 0.816132 0.027863
0.309753 0.816132 0.027863
0.363129 0.816132 0.027863
0.428253 0.816132 0.027863
0.501862 0.816132 0.027863
0.569031 0.816132 0.027863
0.625641 0.816132 0.027863
0.673096 0.816132 0.027863
0.712189 0.816132 0.027863
0.743683 0.816132 0.027863
0.769348 0.816132 0.027863
0.791412 0.816132 0.027863
0.811951 0.816132 0.027863
0.832336 0.816132 0.027863
0.852844 0.816132 0.027863
0.873260 0.816132 0.027863
0.893799 0.816132 0.027863
0.914459 0.816132 0.027863
0.918701 0.816132 0.027863
0.918701 0.816132 0.027863
0.918701 0.816132 0.027863
0.027863 0.837555 0.027863
0.027863 0.837555 0.027863
0.029083 0.837555 0.027863
0.051147 0.837555 0.027863
0.076416 0.837555 0.027863
0.099915 0.837555 0.027863
0.123749 0.837555 0.027863
0.147980 0.837555 0.027863
0.172913 0.837555 0.027863
0.199585 0.837555 0.027863
0.229950 0.837555 0.027863
0.265991 0.837555 0.027863
0.309753 0.837555 0.027863
0.363129 0.837555 0.027863
0.428253 0.837555 0.027863
0.501862 0.837555 0.027863
0.569031 0.837555 0.027863
0.625641 0.837555 0.027863
0.673096 0.837555 0.027863
0.712189 0.837555 0.027863
0.743683 0.837555 0.027863
0.769348 0.837555 0.027863
0.791412 0.837555 0.027863
0.811951 0.837555 0.027863
0.832336 0.837555 0.027863
0.852844 0.837555 0.027863
0.873260 0.837555 0.027863
0.893799 0.837555 0.027863
0.914459 0.837555 0.027863
0.918701 0.837555 0.027863
0.918701 0.837555 0.027863
0.918701 0.837555 0.027863
0.027863 0.855316 0.027863
0.027863 0.855316 0.027863
0.029083 0.855316 0.027863
0.051147 0.855316 0.027863
0.076416 0.855316 0.027863
0.099915 0.855316 0.027863
0.123749 0.855316 0.027863
0.147980 0.855316 0.027863
0.172913 0.855316 0.027863
0.199585 0.855316 0.027863
0.229950 0.855316 0.027863
0.265991 0.855316 0.027863
0.309753 0.855316 0.027863
0.363129 0.855316 0.027863
0.428253 0.855316 0.027863
0.501862 0.855316 0.027863
0.569031 0.855316 0.027863
0.625641 0.855316 0.027863
0.673096 0.855316 0.027863
0.712189 0.855316 0.027863
0.743683 0.855316 0.027863
0.769348 0.855316 0.027863
0.791412 0.855316 0.027863
0.811951 0.855316 0.027863
0.832336 0.855316 0.027863
0.852844 0.855316 0.027863
0.873260 0.855316 0.027863
0.893799 0.855316 0.027863
0.914459 0.855316 0.027863
0.918701 0.855316 0.027863
0.918701 0.855316 0.027863
0.918701 0.855316 0.027863
0.027863 0.871552 0.027863
0.027863 0.871552 0.027863
0.029083 0.871552 0.027863
0.051147 0.871552 0.027863
0.076416 0.871552 0.027863
0.099915 0.871552 0.027863
0.123749 0.871552 0.027863
0.147980 0.871552 0.027863
0.172913 0.871552 0.027863
0.199585 0.871552 0.027863
0.229950 0.871552 0.027863
0.265991 0.871552 0.027863
0.309753 0.871552 0.027863
0.363129 0.871552 0.027863
0.428253 0.871552 0.027863
0.501862 0.871552 0.027863
0.569031 0.871552 0.027863
0.625641 0.871552 0.027863
0.673096 0.871552 0.027863
0.712189 0.871552 0.027863
0.743683 0.871552 0.027863
0.769348 0.871552 0.027863
0.791412 0.871552 0.027863
0.811951 0.871552 0.027863
0.832336 0.871552 0.027863
0.852844 0.871552 0.027863
0.873260 0.871552 0.027863
0.893799 0.871552 0.027863
0.914459 0.871552 0.027863
0.918701 0.871552 0.027863
0.918701 0.871552 0.027863
0.918701 0.871552 0.027863
0.027863 0.886841 0.027863
0.027863 0.886841 0.027863
0.029083 0.886841 0.027863
0.051147 0.886841 0.027863
0.076416 0.886841 0.027863
0.099915 0.886841 0.027863
0.123749 0.886841 0.027863
0.147980 0.886841 0.027863
0.172913 0.886841 0.027863
0.199585 0.886841 0.027863
0.229950 0.886841 0.027863
0.265991 0.886841 0.027863
0.309753 0.886841 0.027863
0.363129 0.886841 0.027863
0.428253 0.886841 0.027863
0.501862 0.886841 0.027863
0.569031 0.886841 0.027863
0.625641 0.886841 0.027863
0.673096 0.886841 0.027863
0.712189 0.886841 0.027863
0.743683 0.886841 0.027863
0.769348 0.886841 0.027863
0.791412 0.886841 0.027863
0.811951 0.886841 0.027863
0.832336 0.886841 0.027863
0.852844 0.886841 0.027863
0.873260 0.886841 0.027863
0.893799 0.886841 0.027863
0.914459 0.886841 0.027863
0.918701 0.886841 0.027863
0.918701 0.886841 0.027863
0.918701 0.886841 0.027863
0.027863 0.901459 0.027863
0.027863 0.901459 0.027863
0.029083 0.901459 0.027863
0.051147 0.901459 0.027863
0.076416 0.901459 0.027863
0.099915 0.901459 0.027863
0.123749 0.901459 0.027863
0.147980 0.901459 0.027863
0.172913 0.901459 0.027863
0.199585 0.901459 0.027863
0.229950 0.901459 0.027863
0.265991 0.901459 0.027863
0.309753 0.901459 0.027863
0.363129 0.901459 0.027863
0.428253 0.901459 0.027863
0.501862 0.901459 0.027863
