3d-lut/luts/Reeve 38.CUBE
#Created by: Adobe Photoshop Export Color Lookup Plugin
#Copyright: (C) Copyright 2017 RocketStock
TITLE "Untitled"
#LUT size
LUT_3D_SIZE 8
#data domain
#LUT data points
DOMAIN_MIN 0.000000 0.000000 0.000000
DOMAIN_MAX 0.903226 0.903226 0.903226
0.027863 0.027863 0.027863
0.076416 0.027863 0.027863
0.172913 0.027863 0.027863
0.309753 0.027863 0.027863
0.569031 0.027863 0.027863
0.743683 0.027863 0.027863
0.832336 0.027863 0.027863
0.914459 0.027863 0.027863
0.027863 0.069611 0.027863
0.076416 0.069611 0.027863
0.172913 0.069611 0.027863
0.309753 0.069611 0.027863
0.569031 0.069611 0.027863
0.743683 0.069611 0.027863
0.832336 0.069611 0.027863
0.914459 0.069611 0.027863
0.027863 0.138702 0.027863
0.076416 0.138702 0.027863
0.172913 0.138702 0.027863
0.309753 0.138702 0.027863
0.569031 0.138702 0.027863
0.743683 0.138702 0.027863
0.832336 0.138702 0.027863
0.914459 0.138702 0.027863
0.027863 0.312988 0.027863
0.076416 0.312988 0.027863
0.172913 0.312988 0.027863
0.309753 0.312988 0.027863
0.569031 0.312988 0.027863
0.743683 0.312988 0.027863
0.832336 0.312988 0.027863
0.914459 0.312988 0.027863
0.027863 0.548584 0.027863
0.076416 0.548584 0.027863
0.172913 0.548584 0.027863
0.309753 0.548584 0.027863
0.569031 0.548584 0.027863
0.743683 0.548584 0.027863
0.832336 0.548584 0.027863
0.914459 0.548584 0.027863
0.027863 0.749542 0.027863
0.076416 0.749542 0.027863
0.172913 0.749542 0.027863
0.309753 0.749542 0.027863
0.569031 0.749542 0.027863
0.743683 0.749542 0.027863
0.832336 0.749542 0.027863
0.914459 0.749542 0.027863
0.027863 0.855316 0.027863
0.076416 0.855316 0.027863
0.172913 0.855316 0.027863
0.309753 0.855316 0.027863
0.569031 0.855316 0.027863
0.743683 0.855316 0.027863
0.832336 0.855316 0.027863
0.914459 0.855316 0.027863
0.027863 0.915741 0.027863
0.076416 0.915741 0.027863
0.172913 0.915741 0.027863
0.309753 0.915741 0.027863
0.569031 0.915741 0.027863
0.743683 0.915741 0.027863
0.832336 0.915741 0.027863
0.914459 0.915741 0.027863
0.027863 0.027863 0.039581
0.076416 0.027863 0.039581
0.172913 0.027863 0.039581
0.309753 0.027863 0.039581
0.569031 0.027863 0.039581
0.743683 0.027863 0.039581
0.832336 0.027863 0.039581
0.914459 0.027863 0.039581
0.027863 0.069611 0.039581
0.076416 0.069611 0.039581
0.172913 0.069611 0.039581
0.309753 0.069611 0.039581
0.569031 0.069611 0.039581
0.743683 0.069611 0.039581
0.832336 0.069611 0.039581
0.914459 0.069611 0.039581
0.027863 0.138702 0.039581
0.076416 0.138702 0.039581
0.172913 0.138702 0.039581
0.309753 0.138702 0.039581
0.569031 0.138702 0.039581
0.743683 0.138702 0.039581
0.832336 0.138702 0.039581
0.914459 0.138702 0.039581
0.027863 0.312988 0.039581
0.076416 0.312988 0.039581
0.172913 0.312988 0.039581
0.309753 0.312988 0.039581
0.569031 0.312988 0.039581
0.743683 0.312988 0.039581
0.832336 0.312988 0.039581
0.914459 0.312988 0.039581
0.027863 0.548584 0.039581
0.076416 0.548584 0.039581
0.172913 0.548584 0.039581
0.309753 0.548584 0.039581
0.569031 0.548584 0.039581
0.743683 0.548584 0.039581
0.832336 0.548584 0.039581
0.914459 0.548584 0.039581
0.027863 0.749542 0.039581
0.076416 0.749542 0.039581
0.172913 0.749542 0.039581
0.309753 0.749542 0.039581
0.569031 0.749542 0.039581
0.743683 0.749542 0.039581
0.832336 0.749542 0.039581
0.914459 0.749542 0.039581
0.027863 0.855316 0.039581
0.076416 0.855316 0.039581
0.172913 0.855316 0.039581
0.309753 0.855316 0.039581
0.569031 0.855316 0.039581
0.743683 0.855316 0.039581
0.832336 0.855316 0.039581
0.914459 0.855316 0.039581
0.027863 0.915741 0.039581
0.076416 0.915741 0.039581
0.172913 0.915741 0.039581
0.309753 0.915741 0.039581
0.569031 0.915741 0.039581
0.743683 0.915741 0.039581
0.832336 0.915741 0.039581
0.914459 0.915741 0.039581
0.027863 0.027863 0.124908
0.076416 0.027863 0.124908
0.172913 0.027863 0.124908
0.309753 0.027863 0.124908
0.569031 0.027863 0.124908
0.743683 0.027863 0.124908
0.832336 0.027863 0.124908
0.914459 0.027863 0.124908
0.027863 0.069611 0.124908
0.076416 0.069611 0.124908
0.172913 0.069611 0.124908
0.309753 0.069611 0.124908
0.569031 0.069611 0.124908
0.743683 0.069611 0.124908
0.832336 0.069611 0.124908
0.914459 0.069611 0.124908
0.027863 0.138702 0.124908
0.076416 0.138702 0.124908
0.172913 0.138702 0.124908
0.309753 0.138702 0.124908
0.569031 0.138702 0.124908
0.743683 0.138702 0.124908
0.832336 0.138702 0.124908
0.914459 0.138702 0.124908
0.027863 0.312988 0.124908
0.076416 0.312988 0.124908
0.172913 0.312988 0.124908
0.309753 0.312988 0.124908
0.569031 0.312988 0.124908
0.743683 0.312988 0.124908
0.832336 0.312988 0.124908
0.914459 0.312988 0.124908
0.027863 0.548584 0.124908
0.076416 0.548584 0.124908
0.172913 0.548584 0.124908
0.309753 0.548584 0.124908
0.569031 0.548584 0.124908
0.743683 0.548584 0.124908
0.832336 0.548584 0.124908
0.914459 0.548584 0.124908
0.027863 0.749542 0.124908
0.076416 0.749542 0.124908
0.172913 0.749542 0.124908
0.309753 0.749542 0.124908
0.569031 0.749542 0.124908
0.743683 0.749542 0.124908
0.832336 0.749542 0.124908
0.914459 0.749542 0.124908
0.027863 0.855316 0.124908
0.076416 0.855316 0.124908
0.172913 0.855316 0.124908
0.309753 0.855316 0.124908
0.569031 0.855316 0.124908
0.743683 0.855316 0.124908
0.832336 0.855316 0.124908
0.914459 0.855316 0.124908
0.027863 0.915741 0.124908
0.076416 0.915741 0.124908
0.172913 0.915741 0.124908
0.309753 0.915741 0.124908
0.569031 0.915741 0.124908
0.743683 0.915741 0.124908
0.832336 0.915741 0.124908
0.914459 0.915741 0.124908
0.027863 0.027863 0.290161
0.076416 0.027863 0.290161
0.172913 0.027863 0.290161
0.309753 0.027863 0.290161
0.569031 0.027863 0.290161
0.743683 0.027863 0.290161
0.832336 0.027863 0.290161
0.914459 0.027863 0.290161
0.027863 0.069611 0.290161
0.076416 0.069611 0.290161
0.172913 0.069611 0.290161
0.309753 0.069611 0.290161
0.569031 0.069611 0.290161
0.743683 0.069611 0.290161
0.832336 0.069611 0.290161
0.914459 0.069611 0.290161
0.027863 0.138702 0.290161
0.076416 0.138702 0.290161
0.172913 0.138702 0.290161
0.309753 0.138702 0.290161
0.569031 0.138702 0.290161
0.743683 0.138702 0.290161
0.832336 0.138702 0.290161
0.914459 0.138702 0.290161
0.027863 0.312988 0.290161
0.076416 0.312988 0.290161
0.172913 0.312988 0.290161
0.309753 0.312988 0.290161
0.569031 0.312988 0.290161
0.743683 0.312988 0.290161
0.832336 0.312988 0.290161
0.914459 0.312988 0.290161
0.027863 0.548584 0.290161
0.076416 0.548584 0.290161
0.172913 0.548584 0.290161
0.309753 0.548584 0.290161
0.569031 0.548584 0.290161
0.743683 0.548584 0.290161
0.832336 0.548584 0.290161
0.914459 0.548584 0.290161
0.027863 0.749542 0.290161
0.076416 0.749542 0.290161
0.172913 0.749542 0.290161
0.309753 0.749542 0.290161
0.569031 0.749542 0.290161
0.743683 0.749542 0.290161
0.832336 0.749542 0.290161
0.914459 0.749542 0.290161
0.027863 0.855316 0.290161
0.076416 0.855316 0.290161
0.172913 0.855316 0.290161
0.309753 0.855316 0.290161
0.569031 0.855316 0.290161
0.743683 0.855316 0.290161
0.832336 0.855316 0.290161
0.914459 0.855316 0.290161
0.027863 0.915741 0.290161
0.076416 0.915741 0.290161
0.172913 0.915741 0.290161
0.309753 0.915741 0.290161
0.569031 0.915741 0.290161
0.743683 0.915741 0.290161
0.832336 0.915741 0.290161
0.914459 0.915741 0.290161
0.027863 0.027863 0.606842
0.076416 0.027863 0.606842
0.172913 0.027863 0.606842
0.309753 0.027863 0.606842
0.569031 0.027863 0.606842
0.743683 0.027863 0.606842
0.832336 0.027863 0.606842
0.914459 0.027863 0.606842
0.027863 0.069611 0.606842
0.076416 0.069611 0.606842
0.172913 0.069611 0.606842
0.309753 0.069611 0.606842
0.569031 0.069611 0.606842
0.743683 0.069611 0.606842
0.832336 0.069611 0.606842
0.914459 0.069611 0.606842
0.027863 0.138702 0.606842
0.076416 0.138702 0.606842
0.172913 0.138702 0.606842
0.309753 0.138702 0.606842
0.569031 0.138702 0.606842
0.743683 0.138702 0.606842
0.832336 0.138702 0.606842
0.914459 0.138702 0.606842
0.027863 0.312988 0.606842
0.076416 0.312988 0.606842
0.172913 0.312988 0.606842
0.309753 0.312988 0.606842
0.569031 0.312988 0.606842
0.743683 0.312988 0.606842
0.832336 0.312988 0.606842
0.914459 0.312988 0.606842
0.027863 0.548584 0.606842
0.076416 0.548584 0.606842
0.172913 0.548584 0.606842
0.309753 0.548584 0.606842
0.569031 0.548584 0.606842
0.743683 0.548584 0.606842
0.832336 0.548584 0.606842
0.914459 0.548584 0.606842
0.027863 0.749542 0.606842
0.076416 0.749542 0.606842
0.172913 0.749542 0.606842
0.309753 0.749542 0.606842
0.569031 0.749542 0.606842
0.743683 0.749542 0.606842
0.832336 0.749542 0.606842
0.914459 0.749542 0.606842
0.027863 0.855316 0.606842
0.076416 0.855316 0.606842
0.172913 0.855316 0.606842
0.309753 0.855316 0.606842
0.569031 0.855316 0.606842
0.743683 0.855316 0.606842
0.832336 0.855316 0.606842
0.914459 0.855316 0.606842
0.027863 0.915741 0.606842
0.076416 0.915741 0.606842
0.172913 0.915741 0.606842
0.309753 0.915741 0.606842
0.569031 0.915741 0.606842
0.743683 0.915741 0.606842
0.832336 0.915741 0.606842
0.914459 0.915741 0.606842
0.027863 0.027863 0.761627
0.076416 0.027863 0.761627
0.172913 0.027863 0.761627
0.309753 0.027863 0.761627
0.569031 0.027863 0.761627
0.743683 0.027863 0.761627
0.832336 0.027863 0.761627
0.914459 0.027863 0.761627
0.027863 0.069611 0.761627
0.076416 0.069611 0.761627
0.172913 0.069611 0.761627
0.309753 0.069611 0.761627
0.569031 0.069611 0.761627
0.743683 0.069611 0.761627
0.832336 0.069611 0.761627
0.914459 0.069611 0.761627
0.027863 0.138702 0.761627
0.076416 0.138702 0.761627
0.172913 0.138702 0.761627
0.309753 0.138702 0.761627
0.569031 0.138702 0.761627
0.743683 0.138702 0.761627
0.832336 0.138702 0.761627
0.914459 0.138702 0.761627
0.027863 0.312988 0.761627
0.076416 0.312988 0.761627
0.172913 0.312988 0.761627
0.309753 0.312988 0.761627
0.569031 0.312988 0.761627
0.743683 0.312988 0.761627
0.832336 0.312988 0.761627
0.914459 0.312988 0.761627
0.027863 0.548584 0.761627
0.076416 0.548584 0.761627
0.172913 0.548584 0.761627
0.309753 0.548584 0.761627
0.569031 0.548584 0.761627
0.743683 0.548584 0.761627
0.832336 0.548584 0.761627
0.914459 0.548584 0.761627
0.027863 0.749542 0.761627
0.076416 0.749542 0.761627
0.172913 0.749542 0.761627
0.309753 0.749542 0.761627
0.569031 0.749542 0.761627
0.743683 0.749542 0.761627
0.832336 0.749542 0.761627
0.914459 0.749542 0.761627
0.027863 0.855316 0.761627
0.076416 0.855316 0.761627
0.172913 0.855316 0.761627
0.309753 0.855316 0.761627
0.569031 0.855316 0.761627
0.743683 0.855316 0.761627
0.832336 0.855316 0.761627
0.914459 0.855316 0.761627
0.027863 0.915741 0.761627
0.076416 0.915741 0.761627
0.172913 0.915741 0.761627
0.309753 0.915741 0.761627
0.569031 0.915741 0.761627
0.743683 0.915741 0.761627
0.832336 0.915741 0.761627
0.914459 0.915741 0.761627
0.027863 0.027863 0.861969
0.076416 0.027863 0.861969
0.172913 0.027863 0.861969
0.309753 0.027863 0.861969
0.569031 0.027863 0.861969
0.743683 0.027863 0.861969
0.832336 0.027863 0.861969
0.914459 0.027863 0.861969
0.027863 0.069611 0.861969
0.076416 0.069611 0.861969
0.172913 0.069611 0.861969
0.309753 0.069611 0.861969
0.569031 0.069611 0.861969
0.743683 0.069611 0.861969
0.832336 0.069611 0.861969
0.914459 0.069611 0.861969
0.027863 0.138702 0.861969
0.076416 0.138702 0.861969
0.172913 0.138702 0.861969
0.309753 0.138702 0.861969
0.569031 0.138702 0.861969
0.743683 0.138702 0.861969
0.832336 0.138702 0.861969
0.914459 0.138702 0.861969
0.027863 0.312988 0.861969
0.076416 0.312988 0.861969
0.172913 0.312988 0.861969
0.309753 0.312988 0.861969
0.569031 0.312988 0.861969
0.743683 0.312988 0.861969
0.832336 0.312988 0.861969
0.914459 0.312988 0.861969
0.027863 0.548584 0.861969
0.076416 0.548584 0.861969
0.172913 0.548584 0.861969
0.309753 0.548584 0.861969
0.569031 0.548584 0.861969
0.743683 0.548584 0.861969
0.832336 0.548584 0.861969
0.914459 0.548584 0.861969
0.027863 0.749542 0.861969
0.076416 0.749542 0.861969
0.172913 0.749542 0.861969
0.309753 0.749542 0.861969
0.569031 0.749542 0.861969
0.743683 0.749542 0.861969
0.832336 0.749542 0.861969
0.914459 0.749542 0.861969
0.027863 0.855316 0.861969
0.076416 0.855316 0.861969
0.172913 0.855316 0.861969
0.309753 0.855316 0.861969
0.569031 0.855316 0.861969
0.743683 0.855316 0.861969
0.832336 0.855316 0.861969
0.914459 0.855316 0.861969
0.027863 0.915741 0.861969
0.076416 0.915741 0.861969
0.172913 0.915741 0.861969
0.309753 0.915741 0.861969
0.569031 0.915741 0.861969
0.743683 0.915741 0.861969
0.832336 0.915741 0.861969
0.914459 0.915741 0.861969
0.027863 0.027863 0.916962
0.076416 0.027863 0.916962
0.172913 0.027863 0.916962
0.309753 0.027863 0.916962
0.569031 0.027863 0.916962
0.743683 0.027863 0.916962
0.832336 0.027863 0.916962
0.914459 0.027863 0.916962
0.027863 0.069611 0.916962
0.076416 0.069611 0.916962
0.172913 0.069611 0.916962
0.309753 0.069611 0.916962
0.569031 0.069611 0.916962
0.743683 0.069611 0.916962
0.832336 0.069611 0.916962
0.914459 0.069611 0.916962
0.027863 0.138702 0.916962
0.076416 0.138702 0.916962
0.172913 0.138702 0.916962
0.309753 0.138702 0.916962
0.569031 0.138702 0.916962
0.743683 0.138702 0.916962
0.832336 0.138702 0.916962
0.914459 0.138702 0.916962
0.027863 0.312988 0.916962
0.076416 0.312988 0.916962
0.172913 0.312988 0.916962
0.309753 0.312988 0.916962
0.569031 0.312988 0.916962
0.743683 0.312988 0.916962
0.832336 0.312988 0.916962
0.914459 0.312988 0.916962
0.027863 0.548584 0.916962
0.076416 0.548584 0.916962
0.172913 0.548584 0.916962
0.309753 0.548584 0.916962
0.569031 0.548584 0.916962
0.743683 0.548584 0.916962
0.832336 0.548584 0.916962
0.914459 0.548584 0.916962
0.027863 0.749542 0.916962
0.076416 0.749542 0.916962
0.172913 0.749542 0.916962
0.309753 0.749542 0.916962
0.569031 0.749542 0.916962
0.743683 0.749542 0.916962
0.832336 0.749542 0.916962
0.914459 0.749542 0.916962
0.027863 0.855316 0.916962
0.076416 0.855316 0.916962
0.172913 0.855316 0.916962
0.309753 0.855316 0.916962
0.569031 0.855316 0.916962
0.743683 0.855316 0.916962
0.832336 0.855316 0.916962
0.914459 0.855316 0.916962
0.027863 0.915741 0.916962
0.076416 0.915741 0.916962
0.172913 0.915741 0.916962
0.309753 0.915741 0.916962
0.569031 0.915741 0.916962
0.743683 0.915741 0.916962
0.832336 0.915741 0.916962
0.914459 0.915741 0.916962
