3d-lut/luts/Sprocket 231.CUBE
#Created by: Adobe Photoshop Export Color Lookup Plugin
#Copyright: (C) Copyright 2017 RocketStock
TITLE "Untitled"
#LUT size
LUT_3D_SIZE 32
#data domain
DOMAIN_MIN 0.0 0.0 0.0
DOMAIN_MAX 1.0 1.0 1.0
#LUT data points
0.035309 0.035309 0.035309
0.048157 0.036316 0.036621
0.060760 0.037415 0.037903
0.073914 0.038605 0.039307
0.087830 0.039856 0.040771
0.102844 0.041199 0.042297
0.119141 0.042572 0.043884
0.136414 0.043976 0.045471
0.154816 0.045532 0.047180
0.174103 0.047119 0.048981
0.194183 0.048706 0.050751
0.215088 0.050415 0.052643
0.236664 0.052185 0.054596
0.258759 0.053986 0.056580
0.281464 0.055878 0.058685
0.304596 0.057861 0.060822
0.328125 0.059814 0.062988
0.351929 0.061920 0.065308
0.375854 0.064056 0.067596
0.400024 0.066254 0.070007
0.424255 0.068573 0.072540
0.448273 0.070862 0.075043
0.472595 0.073303 0.077698
0.497498 0.075806 0.080444
0.523071 0.078339 0.083191
0.549225 0.080994 0.086090
0.575836 0.083771 0.089081
0.602631 0.086517 0.092072
0.629639 0.089447 0.095245
0.656433 0.092377 0.098450
0.683197 0.095459 0.101807
0.709595 0.098663 0.105255
0.038147 0.046722 0.037872
0.050964 0.047974 0.039276
0.063782 0.049255 0.040710
0.077179 0.050659 0.042236
0.091492 0.052094 0.043823
0.106934 0.053558 0.045441
0.123657 0.055145 0.047150
0.141388 0.056732 0.048889
0.160187 0.058472 0.050720
0.179901 0.060242 0.052582
0.200317 0.062042 0.054535
0.221619 0.063965 0.056549
0.243561 0.065948 0.058624
0.265961 0.067963 0.060699
0.288971 0.070068 0.062927
0.312317 0.072235 0.065186
0.336121 0.074524 0.067535
0.360199 0.076843 0.069946
0.384308 0.079224 0.072388
0.408691 0.081726 0.074982
0.432983 0.084320 0.077637
0.457153 0.086914 0.080292
0.481750 0.089691 0.083099
0.507111 0.092560 0.085999
0.532928 0.095398 0.088898
0.559418 0.098450 0.092010
0.586273 0.101593 0.095154
0.613190 0.104736 0.098358
0.640289 0.108063 0.101715
0.667114 0.111359 0.105072
0.693848 0.114868 0.108643
0.720215 0.118439 0.112244
0.041168 0.059021 0.040680
0.054016 0.060455 0.042206
0.067047 0.061920 0.043732
0.080780 0.063538 0.045410
0.095428 0.065125 0.047058
0.111420 0.066864 0.048828
0.128571 0.068665 0.050690
0.146759 0.070465 0.052521
0.165985 0.072418 0.054474
0.186096 0.074432 0.056519
0.206909 0.076477 0.058533
0.228577 0.078644 0.060638
0.250885 0.080902 0.062897
0.273590 0.083160 0.065125
0.296875 0.085602 0.067474
0.320496 0.088043 0.069855
0.344543 0.090668 0.072327
0.368774 0.093353 0.074921
0.393097 0.096008 0.077484
0.417542 0.098907 0.080231
0.441956 0.101868 0.083038
0.466278 0.104858 0.085876
0.491241 0.108002 0.088837
0.516998 0.111237 0.091919
0.543121 0.114532 0.095001
0.569916 0.117950 0.098267
0.596771 0.121368 0.101562
0.623993 0.125000 0.105011
0.651123 0.128662 0.108551
0.677979 0.132385 0.112091
0.704651 0.136230 0.115814
0.730957 0.140198 0.119629
0.044373 0.072327 0.043701
0.057373 0.073975 0.045349
0.070618 0.075653 0.046997
0.084686 0.077484 0.048767
0.099823 0.079346 0.050598
0.116302 0.081329 0.052490
0.133942 0.083374 0.054413
0.152527 0.085480 0.056366
0.172180 0.087708 0.058472
0.192719 0.090057 0.060608
0.213867 0.092407 0.062775
0.235901 0.094910 0.065063
0.258514 0.097473 0.067413
0.281525 0.100128 0.069763
0.305115 0.102905 0.072296
0.329010 0.105713 0.074768
0.353241 0.108673 0.077423
0.377716 0.111755 0.080139
0.402130 0.114777 0.082886
0.426727 0.118073 0.085785
0.451202 0.121429 0.088776
0.475769 0.124786 0.091766
0.501160 0.128296 0.094940
0.527222 0.131927 0.098175
0.553680 0.135529 0.101440
0.580627 0.139313 0.104919
0.607727 0.143158 0.108368
0.635010 0.147095 0.112000
0.662231 0.151154 0.115723
0.688995 0.155182 0.119415
0.715546 0.159393 0.123352
0.741730 0.163696 0.127319
0.047852 0.086853 0.046967
0.060913 0.088745 0.048676
0.074493 0.090820 0.050507
0.089020 0.092926 0.052429
0.104614 0.095062 0.054321
0.121552 0.097351 0.056305
0.139648 0.099762 0.058411
0.158722 0.102173 0.060486
0.178772 0.104767 0.062714
0.199707 0.107483 0.065002
0.221252 0.110168 0.067322
0.243622 0.113068 0.069702
0.266418 0.115906 0.072144
0.289886 0.118988 0.074707
0.313721 0.122162 0.077362
0.337799 0.125336 0.080048
0.362305 0.128632 0.082855
0.386902 0.132080 0.085724
0.411469 0.135498 0.088623
0.436157 0.139130 0.091675
0.460693 0.142822 0.094879
0.485626 0.146545 0.098022
0.511444 0.150421 0.101379
0.537628 0.154297 0.104736
0.564484 0.158356 0.108307
0.591675 0.162506 0.111908
0.618866 0.166595 0.115540
0.646240 0.170898 0.119324
0.673370 0.175262 0.123230
0.700104 0.179596 0.127106
0.726562 0.184113 0.131165
0.752594 0.188721 0.135284
0.051544 0.103088 0.050476
0.064789 0.105286 0.052307
0.078735 0.107666 0.054260
0.093658 0.110107 0.056274
0.109802 0.112610 0.058319
0.127228 0.115265 0.060455
0.145782 0.118011 0.062653
0.165222 0.120789 0.064880
0.185730 0.123718 0.067261
0.207062 0.126740 0.069672
0.228973 0.129822 0.072052
0.251678 0.133057 0.074646
0.274811 0.136292 0.077240
0.298523 0.139679 0.079956
0.322632 0.143188 0.082764
0.346954 0.146729 0.085571
0.371582 0.150421 0.088562
0.396362 0.154144 0.091583
0.421021 0.157959 0.094727
0.445740 0.161896 0.097961
0.470520 0.165924 0.101288
0.495850 0.169952 0.104645
0.521942 0.174194 0.108215
0.548462 0.178375 0.111725
0.575562 0.182739 0.115417
0.602905 0.187164 0.119232
0.630188 0.191589 0.123047
0.657532 0.196228 0.127045
0.684662 0.200867 0.131073
0.711273 0.205475 0.135101
0.737640 0.210297 0.139313
0.763489 0.215149 0.143616
0.055481 0.121094 0.054230
0.068970 0.123627 0.056152
0.083252 0.126312 0.058258
0.098663 0.129120 0.060425
0.115326 0.131958 0.062561
0.133270 0.134949 0.064819
0.152283 0.138062 0.067200
0.172180 0.141174 0.069519
0.193085 0.144440 0.071991
0.214722 0.147736 0.074524
0.237091 0.151245 0.077148
0.260101 0.154816 0.079865
0.283569 0.158356 0.082611
0.307495 0.162109 0.085480
0.331879 0.165924 0.088470
0.356384 0.169769 0.091461
0.381165 0.173767 0.094635
0.406006 0.177887 0.097870
0.430817 0.182007 0.101135
0.455597 0.186249 0.104553
0.480499 0.190521 0.107971
0.506317 0.194946 0.111664
0.532776 0.199432 0.115356
0.559570 0.203888 0.119049
0.586853 0.208557 0.122925
0.614288 0.213318 0.126953
0.641663 0.217957 0.130890
0.668976 0.222839 0.134979
0.696014 0.227753 0.139221
0.722504 0.232635 0.143402
0.748749 0.237671 0.147766
0.774261 0.242615 0.152100
0.059631 0.140747 0.058197
0.073395 0.143646 0.060303
0.088135 0.146667 0.062500
0.104034 0.149841 0.064758
0.121246 0.152924 0.067078
0.139679 0.156311 0.069458
0.159149 0.159729 0.071960
0.179504 0.163147 0.074432
0.200806 0.166779 0.077118
0.222809 0.170410 0.079742
0.245544 0.174194 0.082520
0.268860 0.178101 0.085419
0.292572 0.181976 0.088318
0.316803 0.186066 0.091370
0.341370 0.190186 0.094513
0.366028 0.194366 0.097687
0.390991 0.198669 0.101044
0.415985 0.203064 0.104492
0.440735 0.207458 0.107910
0.465637 0.212006 0.111542
0.490936 0.216492 0.115173
0.517151 0.221222 0.118958
0.543793 0.225983 0.122803
0.570831 0.230713 0.126678
0.598297 0.235657 0.130798
0.625885 0.240601 0.134888
0.653229 0.245514 0.139038
0.680511 0.250671 0.143311
0.707397 0.255768 0.147675
0.733765 0.260834 0.151978
0.759796 0.266083 0.156464
0.785065 0.271271 0.160919
0.064056 0.162079 0.062439
0.078156 0.165253 0.064636
0.093353 0.168610 0.067017
0.109863 0.172089 0.069397
0.127533 0.175568 0.071838
0.146454 0.179199 0.074402
0.166290 0.182831 0.076965
0.187195 0.186676 0.079681
0.208862 0.190613 0.082458
0.231201 0.194519 0.085297
0.254333 0.198639 0.088226
0.277924 0.202850 0.091309
0.301910 0.207031 0.094360
0.326385 0.211395 0.097626
0.351135 0.215851 0.100983
0.375977 0.220245 0.104279
0.401031 0.224884 0.107819
0.426056 0.229523 0.111450
0.450867 0.234131 0.115082
0.475983 0.238983 0.118835
0.501709 0.243744 0.122650
0.528168 0.248688 0.126617
0.555176 0.253723 0.130646
0.582397 0.258698 0.134674
0.609924 0.263794 0.138916
0.637573 0.269012 0.143188
0.664917 0.274109 0.147461
0.692047 0.279388 0.151886
0.718872 0.284729 0.156372
0.745056 0.289978 0.160828
0.770844 0.295410 0.165436
0.795898 0.300751 0.170013
0.068756 0.184875 0.066956
0.083252 0.188354 0.069275
0.098969 0.192047 0.071747
0.115997 0.195831 0.074310
0.134216 0.199554 0.076904
0.153595 0.203491 0.079590
0.173889 0.207489 0.082336
0.195190 0.211609 0.085205
0.217316 0.215851 0.088165
0.240021 0.220062 0.091156
0.263397 0.224426 0.094299
0.287292 0.228912 0.097534
0.311493 0.233337 0.100800
0.336212 0.237976 0.104187
0.361115 0.242676 0.107727
0.386078 0.247345 0.111267
0.411224 0.252228 0.114990
0.436188 0.257019 0.118652
0.461182 0.261993 0.122559
0.486694 0.267059 0.126526
0.512665 0.272034 0.130463
0.539429 0.277191 0.134583
0.566711 0.282440 0.138824
0.594116 0.287567 0.143005
0.621765 0.292908 0.147339
0.649353 0.298279 0.151764
0.676605 0.303528 0.156128
0.703674 0.308960 0.160706
0.730164 0.314331 0.165222
0.756287 0.319855 0.169922
0.781860 0.325409 0.174683
0.806580 0.330841 0.179321
0.073700 0.209015 0.071686
0.088654 0.212799 0.074188
0.104919 0.216797 0.076813
0.122437 0.220764 0.079437
0.141266 0.224915 0.082245
0.161163 0.229156 0.085083
0.181915 0.233368 0.088013
0.203583 0.237762 0.091064
0.226074 0.242249 0.094238
0.249084 0.246735 0.097382
0.272766 0.251404 0.100708
0.296936 0.256104 0.104126
0.321381 0.260803 0.107574
0.346283 0.265686 0.111176
0.371216 0.270508 0.114777
0.396393 0.275482 0.118591
0.421600 0.280579 0.122467
0.446594 0.285553 0.126312
0.471741 0.290771 0.130371
0.497559 0.296021 0.134491
0.523956 0.301208 0.138611
0.550934 0.306519 0.142914
0.578369 0.311920 0.147247
0.605865 0.317230 0.151520
0.633606 0.322754 0.156036
0.661163 0.328217 0.160583
0.688293 0.333679 0.165100
0.715271 0.339203 0.169800
0.741516 0.344666 0.174408
0.767456 0.350281 0.179199
0.792725 0.355927 0.184052
0.817230 0.361450 0.188843
0.078979 0.234436 0.076752
0.094421 0.238495 0.079407
0.111267 0.242737 0.082184
0.129364 0.246979 0.084961
0.148651 0.251434 0.087921
0.169006 0.255890 0.091003
0.190186 0.260406 0.094055
0.212311 0.265045 0.097290
0.235138 0.269806 0.100647
0.258423 0.274445 0.103943
0.282440 0.279388 0.107483
0.306854 0.284332 0.111084
0.331512 0.289215 0.114685
0.356537 0.294312 0.118469
0.381592 0.299316 0.122284
0.406891 0.304535 0.126221
0.432098 0.309814 0.130249
0.457153 0.314972 0.134277
0.482574 0.320312 0.138489
0.508759 0.325745 0.142761
0.535370 0.331055 0.147003
0.562653 0.336548 0.151428
0.590240 0.342072 0.155945
0.617859 0.347504 0.160370
0.645508 0.353119 0.165009
0.672913 0.358551 0.169556
0.700073 0.364197 0.174286
0.726776 0.369843 0.179108
0.752869 0.375336 0.183807
0.778503 0.381042 0.188690
0.803528 0.386749 0.193634
0.827698 0.392273 0.198517
0.084503 0.260864 0.082062
0.100586 0.265289 0.084930
0.118011 0.269836 0.087860
0.136597 0.274261 0.090851
0.156403 0.278931 0.093964
0.177216 0.283691 0.097198
0.198822 0.288391 0.100464
0.221252 0.293274 0.103851
0.244446 0.298248 0.107361
0.268036 0.303131 0.110931
0.292297 0.308228 0.114624
0.316833 0.313232 0.118286
0.341827 0.318481 0.122192
0.366974 0.323730 0.126099
0.392151 0.328918 0.130066
0.417511 0.334320 0.134186
0.442749 0.339722 0.138397
0.467773 0.345032 0.142548
0.493683 0.350494 0.146912
0.520142 0.356049 0.151306
0.547058 0.361481 0.155701
0.574524 0.367096 0.160248
0.602173 0.372681 0.164886
0.629822 0.378204 0.169434
0.657471 0.383881 0.174164
0.684692 0.389404 0.178864
0.711700 0.395050 0.183655
0.738220 0.400757 0.188599
0.764099 0.406281 0.193359
0.789490 0.411987 0.198364
0.814178 0.417694 0.203400
0.838043 0.423248 0.208282
0.090424 0.288422 0.087708
0.107086 0.293060 0.090759
0.125061 0.297791 0.093903
0.144165 0.302521 0.097046
0.164490 0.307373 0.100372
0.185699 0.312317 0.103760
0.207764 0.317230 0.107208
0.230560 0.322357 0.110809
0.254028 0.327484 0.114532
0.277954 0.332550 0.118195
0.302429 0.337799 0.122070
0.327179 0.343018 0.125916
0.352325 0.348328 0.129974
0.377655 0.353790 0.134064
0.402832 0.359100 0.138153
0.428162 0.364563 0.142456
0.453491 0.370117 0.146790
0.478729 0.375488 0.151062
0.504944 0.381104 0.155548
0.531738 0.386719 0.160156
0.558838 0.392181 0.164642
0.586456 0.397858 0.169312
0.614075 0.403320 0.173920
0.641846 0.409088 0.178741
0.669434 0.414764 0.183563
0.696472 0.420319 0.188324
0.723297 0.425995 0.193268
0.749603 0.431702 0.198242
0.775208 0.437195 0.203156
0.800323 0.442932 0.208191
0.824738 0.448761 0.213257
0.848206 0.454376 0.218231
0.096649 0.316803 0.093719
0.113953 0.321686 0.096954
0.132507 0.326630 0.100281
0.152161 0.331482 0.103577
0.172913 0.336548 0.107117
0.194580 0.341705 0.110748
0.216949 0.346771 0.114288
0.240112 0.352020 0.118103
0.263794 0.357147 0.121887
0.288086 0.362518 0.125793
0.312805 0.367920 0.129852
0.337708 0.373230 0.133881
0.363007 0.378693 0.138031
0.388367 0.384216 0.142334
0.413666 0.389618 0.146545
0.439026 0.395172 0.150970
0.464264 0.400818 0.155457
0.489899 0.406250 0.159882
0.516388 0.411896 0.164551
0.543457 0.417572 0.169189
0.570740 0.423126 0.173798
0.598480 0.428741 0.178619
0.626129 0.434296 0.183350
0.653870 0.439972 0.188202
0.681274 0.445770 0.193146
0.708191 0.451416 0.197998
0.734833 0.457275 0.203003
0.760864 0.463165 0.208038
0.786194 0.468933 0.212982
0.811005 0.474884 0.218079
0.835052 0.480835 0.223267
0.858124 0.486725 0.228241
0.103333 0.345917 0.100098
0.121185 0.350922 0.103516
0.140289 0.356049 0.107025
0.160400 0.361115 0.110535
0.181610 0.366333 0.114197
0.203705 0.371582 0.118011
0.226440 0.376770 0.121765
0.249969 0.382141 0.125702
0.273895 0.387421 0.129669
0.298431 0.392883 0.133759
0.323364 0.398376 0.137939
0.348419 0.403748 0.142120
0.373810 0.409332 0.146454
0.399231 0.414856 0.150879
0.424530 0.420349 0.155243
0.449860 0.425964 0.159790
0.475311 0.431580 0.164429
0.501282 0.437103 0.168976
0.528046 0.442841 0.173706
0.555176 0.448456 0.178375
0.582794 0.454224 0.183228
0.610565 0.460083 0.188080
0.638214 0.465912 0.192902
0.665863 0.471832 0.197876
0.693176 0.477844 0.202881
0.719849 0.483673 0.207794
0.746185 0.489777 0.212860
0.772003 0.495850 0.217957
0.796997 0.501770 0.222961
0.821442 0.507904 0.228088
0.844971 0.513855 0.233154
0.867798 0.520020 0.238312
0.110321 0.375549 0.106873
0.128723 0.380737 0.110443
0.148376 0.385986 0.114105
0.168976 0.391174 0.117798
0.190613 0.396454 0.121643
0.213074 0.401855 0.125610
0.236145 0.407135 0.129517
0.259979 0.412598 0.133636
0.284180 0.417969 0.137726
0.308929 0.423462 0.141998
0.334045 0.428986 0.146362
0.359222 0.434448 0.150665
0.384705 0.440063 0.155121
0.410187 0.445770 0.159637
0.435516 0.451355 0.164154
0.460815 0.457153 0.168854
0.486572 0.463074 0.173584
0.512817 0.468781 0.178284
0.539886 0.474762 0.183105
0.567322 0.480743 0.187958
0.594849 0.486694 0.192780
0.622681 0.492706 0.197754
0.650269 0.498718 0.202637
0.677765 0.504883 0.207672
0.704865 0.511047 0.212738
0.731354 0.517120 0.217712
0.757416 0.523285 0.222870
0.782959 0.529480 0.227997
0.807648 0.535583 0.233032
0.831787 0.541809 0.238220
0.855042 0.548004 0.243347
0.877319 0.554077 0.248413
0.117645 0.405518 0.113953
0.136658 0.410828 0.117706
0.156799 0.416199 0.121552
0.177887 0.421387 0.125427
0.199890 0.426849 0.129425
0.222778 0.432281 0.133545
0.246155 0.437653 0.137634
0.270264 0.443207 0.141907
0.294678 0.448730 0.146149
0.319672 0.454407 0.150543
0.344910 0.460205 0.155029
0.370178 0.465881 0.159454
0.395691 0.471741 0.164062
0.421173 0.477692 0.168732
0.446472 0.483551 0.173340
0.471863 0.489624 0.178131
0.497955 0.495697 0.182983
0.524506 0.501678 0.187714
0.551727 0.507874 0.192657
0.579193 0.513885 0.197510
0.606995 0.520142 0.202515
0.634766 0.526428 0.207550
0.662231 0.532532 0.212494
0.689575 0.538788 0.217560
0.716431 0.545105 0.222717
0.742706 0.551239 0.227692
0.768524 0.557495 0.232910
0.793671 0.563812 0.238068
0.818115 0.569946 0.243103
0.841827 0.576172 0.248291
0.864563 0.582245 0.253357
0.886505 0.588501 0.258514
0.125366 0.435730 0.121368
0.144897 0.441162 0.125336
0.165527 0.446594 0.129333
0.187012 0.452026 0.133362
0.209473 0.457703 0.137512
0.232513 0.463287 0.141663
0.256317 0.469086 0.146027
0.280701 0.474915 0.150421
0.305328 0.480652 0.154816
0.330475 0.486664 0.159332
0.355865 0.492676 0.163940
0.381195 0.498596 0.168518
0.406738 0.504700 0.173218
0.432220 0.510864 0.178009
0.457428 0.516937 0.182739
0.483154 0.523163 0.187622
0.509460 0.529419 0.192505
0.536285 0.535645 0.197357
0.563690 0.541931 0.202393
0.591248 0.548096 0.207306
0.619080 0.554413 0.212372
0.646759 0.560791 0.217468
0.674133 0.566986 0.222473
0.701233 0.573303 0.227570
0.727875 0.579681 0.232758
0.753845 0.585815 0.237762
0.779358 0.592194 0.242950
0.804291 0.598419 0.248138
0.828247 0.604523 0.253204
0.851624 0.610779 0.258392
0.873962 0.616821 0.263397
0.895447 0.622955 0.268585
0.133362 0.466797 0.129150
0.153442 0.472504 0.133240
0.174530 0.478241 0.137421
0.196442 0.484009 0.141541
0.219299 0.489899 0.145905
0.242584 0.495697 0.150238
0.266693 0.501740 0.154694
0.291290 0.507843 0.159210
0.316101 0.513824 0.163727
0.341431 0.520020 0.168365
0.366852 0.526245 0.173126
0.392303 0.532349 0.177765
0.417816 0.538635 0.182587
0.443268 0.544983 0.187500
0.468506 0.551147 0.192261
0.494507 0.557495 0.197266
0.520935 0.563782 0.202118
0.548157 0.570160 0.207153
0.575684 0.576538 0.212280
0.603302 0.582794 0.217194
0.631042 0.589172 0.222321
0.658661 0.595551 0.227478
0.685852 0.601807 0.232513
0.712769 0.608154 0.237671
0.739166 0.614471 0.242828
0.764832 0.620575 0.247925
0.790070 0.626801 0.253082
0.814423 0.632904 0.258118
0.838226 0.639069 0.263306
0.861176 0.645203 0.268463
0.883026 0.651123 0.273529
0.904083 0.657166 0.278656
0.141693 0.499146 0.137207
0.162262 0.505157 0.141479
0.183685 0.511017 0.145721
0.206085 0.517120 0.150116
0.229279 0.523193 0.154572
0.252930 0.529236 0.158966
0.277252 0.535522 0.163605
0.302032 0.541809 0.168243
0.327057 0.547943 0.172882
0.352448 0.554260 0.177643
0.377991 0.560638 0.182465
0.403381 0.566833 0.187195
0.428925 0.573242 0.192139
0.454163 0.579498 0.196991
0.479706 0.585938 0.201996
0.506012 0.592407 0.207031
0.532745 0.598663 0.212006
0.560059 0.605042 0.217102
0.587708 0.611481 0.222198
0.615265 0.617676 0.227173
0.643005 0.624054 0.232361
0.670471 0.630402 0.237549
0.697388 0.636536 0.242584
0.724091 0.642822 0.247772
0.750244 0.649109 0.252991
0.775604 0.655121 0.257996
0.800507 0.661224 0.263184
0.824554 0.667175 0.268188
0.847931 0.673187 0.273407
0.870392 0.679169 0.278503
0.891846 0.684906 0.283478
0.912415 0.690704 0.288574
0.150330 0.532654 0.145630
0.171356 0.538849 0.149994
0.193176 0.544861 0.154327
0.215973 0.551117 0.158875
0.239471 0.557404 0.163483
0.263397 0.563629 0.167999
0.287933 0.570007 0.172729
0.312897 0.576355 0.177521
0.338043 0.582642 0.182251
0.363556 0.589050 0.187103
0.389069 0.595459 0.192047
0.414459 0.601776 0.196869
0.439972 0.608215 0.201843
0.465179 0.614502 0.206787
0.490997 0.620911 0.211884
0.517609 0.627350 0.216919
0.544525 0.633575 0.221954
0.571991 0.639984 0.227081
0.599670 0.646301 0.232208
0.627228 0.652466 0.237274
0.654816 0.658722 0.242462
0.682098 0.664917 0.247650
0.708832 0.670990 0.252686
0.735199 0.677094 0.257874
0.760956 0.683044 0.262909
0.786194 0.689026 0.268066
0.810730 0.695007 0.273285
0.834351 0.700775 0.278259
0.857330 0.706573 0.283356
0.879395 0.712341 0.288452
0.900330 0.717834 0.293396
0.920410 0.723450 0.298401
0.159180 0.566925 0.154236
0.180664 0.573242 0.158752
0.202911 0.579407 0.163269
0.226044 0.585815 0.167877
0.249786 0.592224 0.172638
0.273956 0.598450 0.177277
0.298737 0.604889 0.182129
0.323853 0.611298 0.187012
0.349091 0.617645 0.191803
0.374634 0.624054 0.196747
0.400055 0.630310 0.201599
0.425598 0.636780 0.206665
0.450989 0.643158 0.211731
0.476349 0.649414 0.216675
0.502472 0.655762 0.221832
0.529236 0.662109 0.226959
0.556305 0.668243 0.231964
0.583862 0.674469 0.237152
0.611572 0.680695 0.242310
0.639038 0.686676 0.247375
0.666473 0.692810 0.252594
0.693573 0.698853 0.257751
0.720123 0.704742 0.262787
0.746185 0.710693 0.267944
0.771576 0.716400 0.273010
0.796448 0.722198 0.278137
0.820648 0.727905 0.283234
0.843872 0.733490 0.288208
0.866425 0.739075 0.293243
0.888000 0.744568 0.298279
0.908539 0.749847 0.303162
0.928040 0.755249 0.308105
0.168335 0.601685 0.163147
0.190247 0.608093 0.167786
0.212830 0.614349 0.172394
0.236237 0.620758 0.177155
0.260284 0.627197 0.182007
0.284668 0.633423 0.186737
0.309631 0.639862 0.191650
0.334869 0.646301 0.196625
0.360199 0.652527 0.201508
0.385773 0.658966 0.206512
0.411163 0.665070 0.211456
0.436584 0.671478 0.216553
0.461945 0.677765 0.221680
0.487549 0.683899 0.226685
0.513947 0.690063 0.231842
0.540924 0.696289 0.237030
0.568146 0.702209 0.242065
0.595703 0.708313 0.247192
0.623383 0.714386 0.252411
0.650726 0.720184 0.257477
0.677979 0.726135 0.262665
0.704681 0.731842 0.267700
0.731079 0.737640 0.272858
0.756897 0.743378 0.278015
0.781921 0.748871 0.282990
0.806458 0.754486 0.288086
0.830261 0.759918 0.293121
0.853088 0.765228 0.298004
0.875214 0.770538 0.303040
0.896393 0.775818 0.308014
0.916382 0.780853 0.312805
0.935394 0.785919 0.317657
0.177734 0.636597 0.172272
0.200012 0.643005 0.177063
0.222900 0.649261 0.181763
0.246613 0.655670 0.186615
0.270935 0.661987 0.191528
0.295502 0.668243 0.196411
0.320557 0.674591 0.201324
0.345947 0.680847 0.206421
0.371277 0.687042 0.211365
0.396881 0.693298 0.216461
0.422211 0.699310 0.221436
0.447601 0.705566 0.226562
0.472992 0.711670 0.231720
0.498840 0.717651 0.236755
0.525452 0.723724 0.241943
0.552551 0.729675 0.247070
0.579865 0.735474 0.252197
0.607452 0.741394 0.257355
0.634979 0.747192 0.262543
0.662231 0.752808 0.267517
0.689270 0.758484 0.272736
0.715668 0.763977 0.277740
0.741791 0.769592 0.282867
0.767303 0.775024 0.287964
0.792023 0.780273 0.292877
0.816193 0.785614 0.297913
0.839630 0.790863 0.302917
0.862030 0.795898 0.307770
0.883698 0.800934 0.312653
0.904327 0.805939 0.317505
0.923859 0.810699 0.322205
0.942352 0.815491 0.326996
0.187286 0.671326 0.181610
0.209930 0.677643 0.186493
0.233154 0.683838 0.191284
0.257111 0.690063 0.196259
0.281586 0.696381 0.201233
0.306335 0.702484 0.206146
0.331573 0.708679 0.211212
0.356812 0.714661 0.216187
0.382324 0.720825 0.221313
0.407928 0.726959 0.226440
0.433197 0.732849 0.231445
0.458466 0.738861 0.236633
0.484070 0.744781 0.241821
0.510101 0.750610 0.246857
0.536957 0.756378 0.252075
0.564178 0.762207 0.257233
0.591522 0.767822 0.262238
0.619080 0.773438 0.267456
0.646362 0.778900 0.272491
0.673492 0.784393 0.277618
0.700317 0.789886 0.282745
0.726471 0.795135 0.287689
0.752228 0.800415 0.292755
0.777435 0.805573 0.297791
0.801819 0.810608 0.302643
0.825623 0.815643 0.307617
0.848572 0.820587 0.312531
0.870575 0.825317 0.317291
0.891785 0.830078 0.322083
0.911835 0.834656 0.326721
0.931000 0.839264 0.331451
0.948975 0.843719 0.336090
0.197021 0.705475 0.191162
0.220001 0.711670 0.196136
0.243500 0.717712 0.200989
0.267700 0.723907 0.206024
0.292358 0.730011 0.211090
0.317261 0.735901 0.216034
0.342529 0.742004 0.221161
0.367859 0.747833 0.226196
0.393372 0.753815 0.231323
0.418793 0.759705 0.236511
0.444061 0.765442 0.241547
0.469299 0.771210 0.246735
0.495148 0.776947 0.251892
0.521454 0.782501 0.256989
0.548431 0.788116 0.262146
0.575684 0.793671 0.267303
0.603058 0.799011 0.272339
0.630493 0.804382 0.277496
0.657623 0.809631 0.282471
0.684570 0.814880 0.287567
0.711121 0.820038 0.292633
0.736969 0.825012 0.297546
0.762482 0.829956 0.302551
0.787292 0.834869 0.307495
0.811310 0.839630 0.312317
0.834656 0.844360 0.317169
0.857239 0.848999 0.321960
0.878876 0.853424 0.326630
0.899536 0.857880 0.331329
0.919189 0.862122 0.335876
0.937805 0.866394 0.340454
0.955231 0.870514 0.344971
0.206909 0.738922 0.200867
0.230225 0.744965 0.205902
0.253906 0.750885 0.210815
0.278381 0.756866 0.215912
0.303040 0.762634 0.220917
0.328186 0.768555 0.226074
0.353546 0.774414 0.231171
0.378815 0.780029 0.236237
0.404297 0.785797 0.241425
0.429718 0.791504 0.246613
0.454803 0.796967 0.251648
0.480194 0.802551 0.256836
0.506287 0.808044 0.262024
0.532776 0.813324 0.267059
0.559814 0.818665 0.272217
0.586975 0.823853 0.277252
