3d-lut/luts/Sprocket 231.CUBE
#Created by: Adobe Photoshop Export Color Lookup Plugin
#Copyright: (C) Copyright 2017 RocketStock
TITLE "Untitled"
#LUT size
LUT_3D_SIZE 8
#data domain
#LUT data points
DOMAIN_MIN 0.000000 0.000000 0.000000
DOMAIN_MAX 0.903226 0.903226 0.903226
0.035309 0.035309 0.035309
0.087830 0.039856 0.040771
0.154816 0.045532 0.047180
0.236664 0.052185 0.054596
0.328125 0.059814 0.062988
0.424255 0.068573 0.072540
0.523071 0.078339 0.083191
0.629639 0.089447 0.095245
0.047852 0.086853 0.046967
0.104614 0.095062 0.054321
0.178772 0.104767 0.062714
0.266418 0.115906 0.072144
0.362305 0.128632 0.082855
0.460693 0.142822 0.094879
0.564484 0.158356 0.108307
0.673370 0.175262 0.123230
0.064056 0.162079 0.062439
0.127533 0.175568 0.071838
0.208862 0.190613 0.082458
0.301910 0.207031 0.094360
0.401031 0.224884 0.107819
0.501709 0.243744 0.122650
0.609924 0.263794 0.138916
0.718872 0.284729 0.156372
0.084503 0.260864 0.082062
0.156403 0.278931 0.093964
0.244446 0.298248 0.107361
0.341827 0.318481 0.122192
0.442749 0.339722 0.138397
0.547058 0.361481 0.155701
0.657471 0.383881 0.174164
0.764099 0.406281 0.193359
0.110321 0.375549 0.106873
0.190613 0.396454 0.121643
0.284180 0.417969 0.137726
0.384705 0.440063 0.155121
0.486572 0.463074 0.173584
0.594849 0.486694 0.192780
0.704865 0.511047 0.212738
0.807648 0.535583 0.233032
0.141693 0.499146 0.137207
0.229279 0.523193 0.154572
0.327057 0.547943 0.172882
0.428925 0.573242 0.192139
0.532745 0.598663 0.212006
0.643005 0.624054 0.232361
0.750244 0.649109 0.252991
0.847931 0.673187 0.273407
0.177734 0.636597 0.172272
0.270935 0.661987 0.191528
0.371277 0.687042 0.211365
0.472992 0.711670 0.231720
0.579865 0.735474 0.252197
0.689270 0.758484 0.272736
0.792023 0.780273 0.292877
0.883698 0.800934 0.312653
0.216949 0.771515 0.210693
0.313843 0.794464 0.230927
0.415131 0.816681 0.251556
0.517365 0.837860 0.272095
0.625580 0.857697 0.292267
0.731812 0.876282 0.312042
0.829254 0.893311 0.330994
0.914032 0.908936 0.349091
0.037384 0.036804 0.081207
0.090515 0.041840 0.087830
0.158783 0.047852 0.095856
0.241760 0.054901 0.105408
0.334015 0.062897 0.116486
0.430695 0.071991 0.129211
0.530365 0.082245 0.143311
0.637512 0.093811 0.158936
0.050568 0.089722 0.095581
0.108521 0.098511 0.105103
0.183929 0.108704 0.116119
0.272766 0.120453 0.128723
0.369171 0.133667 0.142822
0.467957 0.148376 0.158447
0.572693 0.164337 0.175293
0.681793 0.181732 0.193512
0.067535 0.166870 0.115753
0.132446 0.180847 0.128265
0.215149 0.196472 0.142365
0.309021 0.213409 0.157867
0.408600 0.231659 0.174744
0.509979 0.251099 0.192932
0.618683 0.271362 0.212097
0.727356 0.292572 0.232269
0.088959 0.267456 0.141907
0.162354 0.285858 0.157318
0.251587 0.305542 0.174164
0.349609 0.326111 0.192230
0.450714 0.347595 0.211456
0.555786 0.369568 0.231506
0.666351 0.392090 0.252411
0.772369 0.414551 0.273773
0.115845 0.383209 0.173676
0.197510 0.404297 0.191650
0.292114 0.426147 0.210876
0.392883 0.448303 0.230835
0.494995 0.471619 0.251770
0.603821 0.495483 0.273071
0.713501 0.520020 0.294800
0.815430 0.544586 0.316528
0.148071 0.507843 0.210114
0.236816 0.532227 0.230225
0.335205 0.557098 0.250977
0.437134 0.582581 0.272369
0.541656 0.608124 0.294159
0.651825 0.633270 0.315857
0.758301 0.658020 0.337555
0.854950 0.681763 0.358765
0.184784 0.645935 0.250305
0.278870 0.671265 0.271729
0.379547 0.696106 0.293304
0.481171 0.720490 0.315155
0.588531 0.744019 0.336731
0.697510 0.766663 0.358124
0.799316 0.787994 0.378754
0.889771 0.808105 0.398712
0.224426 0.779999 0.292603
0.322021 0.802795 0.314484
0.423157 0.824524 0.336060
0.525574 0.845306 0.357452
0.633759 0.864655 0.378143
0.739258 0.882690 0.398071
0.835602 0.899231 0.416901
0.919037 0.914215 0.434631
0.039581 0.038513 0.138306
0.093414 0.043945 0.147278
0.162964 0.050293 0.157898
0.247040 0.057678 0.170197
0.340179 0.066101 0.184052
0.437317 0.075592 0.199493
0.537994 0.086395 0.216431
0.645508 0.098419 0.234558
0.053436 0.092773 0.157532
0.112518 0.102051 0.169800
0.189270 0.112823 0.183594
0.279144 0.125122 0.198975
0.376251 0.138855 0.215729
0.475403 0.154083 0.233948
0.581055 0.170563 0.253174
0.690186 0.188354 0.273590
0.071136 0.171783 0.183136
0.137573 0.186371 0.198364
0.221527 0.202545 0.215210
0.316406 0.220032 0.233368
0.416260 0.238647 0.252563
0.518250 0.258423 0.272919
0.627502 0.278992 0.293976
0.735870 0.300446 0.315857
0.093506 0.274017 0.214661
0.168549 0.292908 0.232666
0.258820 0.312988 0.251923
0.357544 0.333923 0.272125
0.458710 0.355652 0.293304
0.564667 0.377747 0.315033
0.675232 0.400330 0.337250
0.780701 0.422943 0.359802
0.121490 0.390900 0.251312
0.204529 0.412170 0.271484
0.299988 0.434204 0.292633
0.401093 0.456726 0.314331
0.503540 0.480316 0.336578
0.612854 0.504425 0.358948
0.722076 0.529022 0.381439
0.823059 0.553589 0.403534
0.154633 0.516602 0.291809
0.244446 0.541321 0.313599
0.343567 0.566528 0.335876
0.445343 0.591888 0.358246
0.550446 0.617371 0.380737
0.660522 0.642365 0.402832
0.766296 0.666840 0.424652
0.861786 0.690247 0.445709
0.192017 0.655182 0.335022
0.286865 0.680420 0.357544
0.387695 0.705078 0.379883
0.489471 0.729248 0.402161
0.597290 0.752533 0.424011
0.705597 0.774628 0.444977
0.806580 0.795624 0.465546
0.895660 0.815125 0.485474
0.232025 0.788452 0.379211
0.330048 0.810913 0.401489
0.431030 0.832245 0.423187
0.533722 0.852539 0.444366
0.641785 0.871399 0.464783
0.746460 0.888947 0.484863
0.841736 0.904846 0.504120
0.923798 0.919250 0.522522
0.041870 0.040344 0.207794
0.096497 0.046143 0.218689
0.167419 0.052887 0.231354
0.252563 0.060669 0.245758
0.346619 0.069519 0.261719
0.444122 0.079376 0.279083
0.545654 0.090607 0.297791
0.653687 0.103210 0.317535
0.056396 0.095978 0.230927
0.116730 0.105804 0.245300
0.194855 0.117126 0.261078
0.285706 0.130005 0.278503
0.383423 0.144257 0.297058
0.483032 0.160004 0.316895
0.589600 0.177032 0.337738
0.698669 0.195160 0.359222
0.074890 0.176971 0.260590
0.143005 0.192200 0.277924
0.228088 0.208740 0.296448
0.323822 0.226715 0.316254
0.424011 0.245728 0.336914
0.526733 0.265869 0.358521
0.636353 0.286743 0.380493
0.744324 0.308380 0.402985
0.098267 0.280823 0.295837
0.174896 0.300079 0.315460
0.266205 0.320557 0.336273
0.365601 0.341858 0.357819
0.466827 0.363678 0.379822
0.573700 0.386108 0.402283
0.684082 0.408569 0.424774
0.788849 0.431183 0.447266
0.127289 0.398621 0.335602
0.211700 0.420166 0.356995
0.307953 0.442322 0.379120
0.409302 0.465240 0.401459
0.512177 0.489105 0.424042
0.621979 0.513489 0.446564
0.730499 0.538055 0.468933
0.830688 0.562744 0.491730
0.161407 0.525726 0.378418
0.252197 0.550446 0.400787
0.351776 0.575836 0.423370
0.453491 0.601196 0.445709
0.559204 0.626587 0.468201
0.669159 0.651367 0.490845
0.774139 0.675568 0.513580
0.868469 0.698608 0.535950
0.199280 0.664429 0.422485
0.294861 0.689545 0.444977
0.396057 0.714172 0.467499
0.497711 0.737885 0.490112
0.605804 0.760773 0.512878
0.713593 0.782440 0.535217
0.813538 0.802887 0.557129
0.901306 0.821930 0.578033
0.239624 0.796753 0.466644
0.338013 0.818878 0.489471
0.438812 0.839813 0.512024
0.541809 0.859650 0.534546
0.649658 0.877960 0.556305
0.753510 0.894928 0.577393
0.847717 0.910370 0.597321
0.928375 0.924103 0.615784
0.044342 0.042389 0.285675
0.099792 0.048492 0.298065
0.172089 0.055634 0.312317
0.258301 0.063782 0.328094
0.353149 0.072998 0.345398
0.450989 0.083344 0.363922
0.553558 0.095062 0.383667
0.661926 0.108154 0.404114
0.059540 0.099426 0.311768
0.121155 0.109833 0.327545
0.200592 0.121643 0.344696
0.292450 0.135071 0.363312
0.390869 0.149963 0.383026
0.490753 0.166046 0.403473
0.598175 0.183563 0.424835
0.707123 0.202026 0.446503
0.078857 0.182373 0.344147
0.148529 0.198151 0.362701
0.234863 0.215149 0.382263
0.331390 0.233551 0.402802
0.431854 0.252960 0.424011
0.535217 0.273468 0.445831
0.645203 0.294586 0.468018
0.752686 0.316437 0.491241
0.103241 0.287781 0.381653
0.181519 0.307587 0.402161
0.273773 0.328247 0.423340
0.373657 0.349854 0.445099
0.475037 0.371796 0.467316
0.582703 0.394348 0.490540
0.692810 0.416809 0.514191
0.796844 0.439362 0.538330
0.133301 0.406464 0.422638
0.219025 0.428162 0.444305
0.315979 0.450592 0.466583
0.417694 0.473999 0.489777
0.520844 0.497986 0.513428
0.630890 0.522522 0.537598
0.738861 0.547089 0.561737
0.838104 0.571655 0.585815
0.168213 0.534698 0.465881
0.260010 0.559662 0.488892
0.360046 0.585144 0.512665
0.461670 0.610504 0.536713
0.567993 0.635803 0.560944
0.677704 0.660309 0.584900
0.781830 0.684174 0.608459
0.875092 0.706879 0.631317
0.206818 0.673767 0.511932
0.302887 0.698578 0.535919
0.404144 0.722900 0.560211
0.506012 0.746338 0.584137
0.614258 0.768860 0.607819
0.721344 0.790070 0.630463
0.820343 0.810120 0.652252
0.906738 0.828491 0.672699
0.247223 0.804901 0.559326
0.345947 0.826691 0.583405
0.446533 0.847198 0.606873
0.549805 0.866516 0.629761
0.657501 0.884491 0.651581
0.760345 0.900787 0.672028
0.853424 0.915619 0.691071
0.932770 0.928741 0.708466
0.046875 0.044525 0.368286
0.103333 0.050995 0.381744
0.176971 0.058533 0.396912
0.264252 0.067017 0.413422
0.359802 0.076630 0.431335
0.458038 0.087433 0.450256
0.561554 0.099701 0.470459
0.670227 0.113312 0.491882
0.062775 0.103058 0.396271
0.125824 0.113983 0.412903
0.206665 0.126465 0.430756
0.299316 0.140320 0.449615
0.398285 0.155701 0.469788
0.498779 0.172302 0.491180
0.606842 0.190216 0.513885
0.715607 0.209106 0.537384
0.082947 0.187958 0.430054
0.154266 0.204254 0.449005
0.241760 0.221741 0.468994
0.338989 0.240540 0.490509
0.439911 0.260498 0.513184
0.543884 0.281158 0.536652
0.654297 0.302643 0.561005
0.761078 0.324524 0.585632
0.108429 0.294861 0.468353
0.188141 0.315063 0.489807
0.281403 0.336029 0.512299
0.381775 0.357849 0.535919
0.483368 0.380035 0.560059
0.591583 0.402557 0.584808
0.701569 0.425079 0.609650
0.804810 0.447662 0.634430
0.139404 0.414368 0.511597
0.226532 0.436401 0.535156
0.324097 0.459045 0.559296
0.425934 0.482727 0.584076
0.529572 0.506866 0.608826
0.639801 0.531555 0.633636
0.747131 0.556091 0.657898
0.845337 0.580505 0.681519
0.175171 0.543793 0.558533
0.267883 0.568909 0.583099
0.368286 0.594482 0.608093
0.470001 0.619934 0.632874
0.576691 0.644836 0.657074
0.686249 0.669250 0.680786
0.789307 0.692596 0.703400
0.881409 0.714874 0.725006
0.214233 0.682953 0.607300
0.310974 0.707581 0.631958
0.412262 0.731628 0.656342
0.514252 0.754730 0.679901
0.622559 0.776825 0.702698
0.729004 0.797546 0.724243
0.826904 0.817017 0.744537
0.912170 0.834991 0.763489
0.255005 0.813110 0.655609
0.353821 0.834320 0.679169
0.454254 0.854523 0.701965
0.557739 0.873199 0.723541
0.665039 0.890625 0.743927
0.766968 0.906372 0.762756
0.858948 0.920624 0.780121
0.936890 0.933105 0.795776
0.049561 0.046783 0.452271
0.107025 0.053619 0.466370
0.182037 0.061493 0.482452
0.270386 0.070374 0.500214
0.366669 0.080475 0.519714
0.465332 0.091827 0.540649
0.569702 0.104553 0.562714
0.678741 0.118744 0.585968
0.066254 0.106903 0.481964
0.130676 0.118378 0.499634
0.212860 0.131409 0.519073
0.306427 0.145782 0.539856
0.405823 0.161652 0.562012
0.506866 0.178711 0.585083
0.615509 0.197052 0.609039
0.724121 0.216278 0.633392
0.087280 0.193726 0.518280
0.160187 0.210510 0.539154
0.248962 0.228607 0.561279
0.346771 0.247711 0.584320
0.447815 0.267975 0.608307
0.552643 0.288879 0.632660
0.663147 0.310608 0.657318
0.769409 0.332611 0.681763
0.113739 0.302124 0.560425
0.194977 0.322723 0.583588
0.289154 0.343933 0.607391
0.389923 0.365936 0.631897
0.491791 0.388214 0.656403
0.600647 0.410828 0.681000
0.710388 0.433411 0.705261
0.812622 0.456024 0.728851
0.145782 0.422363 0.606628
0.234070 0.444611 0.631073
0.332275 0.467590 0.655670
0.434174 0.491547 0.680206
0.538330 0.515869 0.704407
0.648651 0.540558 0.728088
0.755249 0.565063 0.750916
0.852417 0.589325 0.772888
0.182220 0.553040 0.654877
0.275940 0.578400 0.679443
0.376556 0.603790 0.703613
0.478180 0.629120 0.727356
0.585388 0.653870 0.750183
0.694550 0.677948 0.772186
0.796722 0.700867 0.793030
0.887543 0.722717 0.812683
0.221741 0.692017 0.702850
0.318970 0.716431 0.726471
0.420288 0.740173 0.749451
0.522461 0.762848 0.771393
0.630829 0.784546 0.792389
0.736603 0.804932 0.812073
0.833313 0.823792 0.830261
0.917236 0.841125 0.847015
0.262634 0.821014 0.748749
0.361603 0.841858 0.770782
0.461761 0.861511 0.791718
0.565521 0.879761 0.811371
0.672424 0.896576 0.829712
0.773376 0.911774 0.846375
0.864166 0.925385 0.861633
0.940857 0.937286 0.875092
0.052399 0.049194 0.540314
0.110962 0.056366 0.556183
0.187317 0.064606 0.573975
0.276764 0.073975 0.593323
0.373657 0.084442 0.613983
0.472687 0.096344 0.635803
0.578003 0.109589 0.658386
0.687134 0.124298 0.681671
0.069794 0.110962 0.573395
0.135712 0.122925 0.592590
0.219177 0.136505 0.613281
0.313660 0.151428 0.634979
0.413483 0.167755 0.657684
0.515137 0.185242 0.680786
0.624298 0.204010 0.704437
0.732758 0.223663 0.728027
0.091827 0.199799 0.612640
0.166290 0.217010 0.634277
0.256195 0.235504 0.656921
0.354645 0.254974 0.680054
0.455841 0.275543 0.703644
0.561432 0.296753 0.727173
0.671997 0.318665 0.750641
0.777618 0.340698 0.773621
0.119324 0.309540 0.656097
0.201965 0.330383 0.679321
0.296997 0.351929 0.702759
0.398102 0.374115 0.726410
0.500427 0.396606 0.749908
0.609589 0.419067 0.772888
0.718933 0.441650 0.795410
0.820312 0.464355 0.817017
0.152252 0.430389 0.701996
0.241669 0.452942 0.725647
0.340454 0.476257 0.749023
0.442383 0.500427 0.772156
0.547272 0.525024 0.794708
0.657410 0.549591 0.816376
0.763397 0.574158 0.837158
0.859283 0.598022 0.856659
0.189362 0.562225 0.748322
0.283936 0.587738 0.771454
0.384766 0.613068 0.793884
0.486481 0.638306 0.815674
0.594025 0.662750 0.836395
0.702698 0.686493 0.856110
0.803894 0.708984 0.874420
0.893494 0.730347 0.891510
0.229340 0.701050 0.793152
0.326996 0.725220 0.814911
0.428131 0.748657 0.835754
0.530792 0.771057 0.855499
0.638855 0.792145 0.873932
0.743896 0.812042 0.890991
0.839539 0.830322 0.906494
0.922058 0.847046 0.920593
0.270233 0.828766 0.835114
0.369385 0.849182 0.854797
0.469177 0.868378 0.873291
0.573242 0.886078 0.890381
0.679596 0.902344 0.906036
0.779724 0.916992 0.920197
0.869171 0.929962 0.932617
0.944672 0.941345 0.943604
