3d-lut/luts/Sprocket 231.CUBE
#Created by: Adobe Photoshop Export Color Lookup Plugin
#Copyright: (C) Copyright 2017 RocketStock
TITLE "Untitled"
#LUT size
LUT_3D_SIZE 5
#data domain
#LUT data points
DOMAIN_MIN 0.000000 0.000000 0.000000
DOMAIN_MAX 0.903226 0.903226 0.903226
0.035309 0.035309 0.035309
0.136414 0.043976 0.045471
0.281464 0.055878 0.058685
0.448273 0.070862 0.075043
0.629639 0.089447 0.095245
0.059631 0.140747 0.058197
0.179504 0.163147 0.074432
0.341370 0.190186 0.094513
0.517151 0.221222 0.118958
0.707397 0.255768 0.147675
0.096649 0.316803 0.093719
0.240112 0.352020 0.118103
0.413666 0.389618 0.146545
0.598480 0.428741 0.178619
0.786194 0.468933 0.212982
0.150330 0.532654 0.145630
0.312897 0.576355 0.177521
0.490997 0.620911 0.211884
0.682098 0.664917 0.247650
0.857330 0.706573 0.283356
0.216949 0.771515 0.210693
0.389740 0.811188 0.246338
0.571106 0.847900 0.282227
0.757111 0.880646 0.316772
0.914032 0.908936 0.349091
0.039062 0.038086 0.122711
0.143005 0.048004 0.138458
0.291351 0.061035 0.159302
0.459869 0.077240 0.184814
0.643616 0.097290 0.214874
0.065399 0.148376 0.158447
0.189636 0.172577 0.183929
0.354095 0.201111 0.213715
0.531647 0.233551 0.247314
0.722229 0.269012 0.283752
0.105408 0.329346 0.212646
0.253021 0.365601 0.246185
0.427887 0.403839 0.282532
0.614288 0.443298 0.320923
0.800262 0.484131 0.359955
0.161987 0.548492 0.281342
0.327087 0.592621 0.319489
0.506012 0.637238 0.358673
0.696899 0.680450 0.397217
0.869110 0.721069 0.434235
0.230225 0.786407 0.357391
0.403809 0.825043 0.395966
0.585571 0.860504 0.433105
0.769623 0.891571 0.467621
0.922607 0.917999 0.499817
0.043060 0.041321 0.245850
0.150238 0.052429 0.267578
0.301819 0.066559 0.294434
0.472046 0.084106 0.325806
0.657806 0.105652 0.360626
0.071686 0.156738 0.293488
0.200287 0.182587 0.324738
0.367249 0.212585 0.359497
0.546539 0.246277 0.396942
0.737152 0.282654 0.435699
0.114777 0.342346 0.358337
0.266144 0.379395 0.395569
0.442230 0.418243 0.434387
0.629944 0.458008 0.473938
0.814087 0.499481 0.514923
0.174072 0.564514 0.433167
0.341522 0.609070 0.472626
0.520996 0.653412 0.513580
0.711517 0.695740 0.554626
0.880310 0.734985 0.594238
0.243439 0.800842 0.512115
0.417725 0.838501 0.553284
0.599670 0.872345 0.593018
0.781464 0.901855 0.629944
0.930573 0.926422 0.662506
0.047546 0.045074 0.389252
0.158203 0.057281 0.414246
0.312927 0.072571 0.443634
0.484833 0.091522 0.477203
0.672394 0.114685 0.514893
0.078461 0.165710 0.442627
0.211426 0.193054 0.475922
0.380768 0.224548 0.513611
0.561584 0.259277 0.554535
0.752014 0.296509 0.597626
0.124756 0.355713 0.512329
0.279755 0.393494 0.553131
0.456451 0.432587 0.596039
0.645691 0.473114 0.639618
0.827393 0.514740 0.681946
0.186401 0.580688 0.594666
0.355988 0.625427 0.638275
0.535919 0.669128 0.680664
0.725647 0.710602 0.720795
0.891113 0.748474 0.757446
0.256866 0.815033 0.679291
0.431305 0.851410 0.719604
0.613434 0.883698 0.756317
0.792542 0.911377 0.788788
0.937958 0.934235 0.816528
0.052399 0.049194 0.540314
0.166748 0.062469 0.569305
0.324646 0.079071 0.603516
0.498077 0.099487 0.641296
0.687134 0.124298 0.681671
0.085846 0.175262 0.602325
0.223267 0.204163 0.640045
0.394592 0.237000 0.680328
0.577087 0.272736 0.721497
0.766510 0.310425 0.762299
0.135162 0.369293 0.678894
0.293640 0.407806 0.720184
0.470886 0.447174 0.760986
0.661255 0.488373 0.800568
0.840393 0.530151 0.837433
0.199188 0.597107 0.759735
0.370422 0.641754 0.799316
0.550873 0.684662 0.836273
0.739258 0.724854 0.869812
0.901215 0.761322 0.899353
0.270233 0.828766 0.835114
0.444366 0.863678 0.868744
0.626770 0.894440 0.898438
0.803131 0.920380 0.923401
0.944672 0.941345 0.943604
