3d-lut/luts/Teigen 28.CUBE
#Created by: Adobe Photoshop Export Color Lookup Plugin
#Copyright: (C) Copyright 2017 RocketStock
TITLE "RSLUT(VL)"
#LUT size
LUT_3D_SIZE 8
#data domain
#LUT data points
DOMAIN_MIN 0.000000 0.000000 0.000000
DOMAIN_MAX 0.903226 0.903226 0.903226
0.063263 0.063263 0.063263
0.063263 0.063263 0.063263
0.195496 0.038330 0.035736
0.354614 0.023712 0.018616
0.516937 0.015259 0.009491
0.666016 0.008179 0.002045
0.791473 0.001770 0.000031
0.898834 0.000000 0.000031
0.063263 0.063263 0.063263
0.063263 0.063263 0.063263
0.195496 0.038330 0.035736
0.354614 0.023712 0.018616
0.516937 0.015259 0.009491
0.666016 0.008179 0.002045
0.791473 0.001770 0.000031
0.898834 0.000000 0.000031
0.028961 0.195435 0.031830
0.028961 0.195435 0.031830
0.192139 0.195099 0.027954
0.354095 0.176392 0.016296
0.516571 0.163452 0.007507
0.665771 0.152191 0.000275
0.791351 0.141510 0.000031
0.898743 0.130859 0.000031
0.012939 0.353729 0.017853
0.012939 0.353729 0.017853
0.164215 0.353546 0.012115
0.346252 0.353088 0.010162
0.515747 0.341522 0.002808
0.665253 0.326477 0.000000
0.790985 0.312531 0.000031
0.898529 0.299103 0.000031
0.001617 0.515625 0.007324
0.001617 0.515625 0.007324
0.145966 0.515503 0.000946
0.321747 0.515167 0.000000
0.503754 0.514709 0.000000
0.664551 0.507477 0.000000
0.790497 0.490723 0.000000
0.898193 0.474609 0.000031
0.000000 0.664612 0.000000
0.000000 0.664612 0.000000
0.129150 0.664551 0.000000
0.300781 0.664337 0.000000
0.478607 0.664062 0.000000
0.651794 0.663696 0.000000
0.789856 0.661194 0.000000
0.897736 0.647369 0.000000
0.000000 0.790070 0.000000
0.000000 0.790070 0.000000
0.112244 0.790009 0.000000
0.280823 0.789886 0.000000
0.455109 0.789703 0.000000
0.631317 0.789459 0.000000
0.776642 0.789124 0.000000
0.897125 0.789520 0.000000
0.000000 0.897430 0.000000
0.000000 0.897430 0.000000
0.094543 0.897400 0.000000
0.261230 0.897339 0.000000
0.432343 0.897186 0.000000
0.610840 0.897003 0.000000
0.759460 0.896790 0.000000
0.883850 0.896515 0.000000
0.063263 0.063263 0.063263
0.063263 0.063263 0.063263
0.195496 0.038330 0.035736
0.354614 0.023712 0.018616
0.516937 0.015259 0.009491
0.666016 0.008179 0.002045
0.791473 0.001770 0.000031
0.898834 0.000000 0.000031
0.063263 0.063263 0.063263
0.063263 0.063263 0.063263
0.195496 0.038330 0.035736
0.354614 0.023712 0.018616
0.516937 0.015259 0.009491
0.666016 0.008179 0.002045
0.791473 0.001770 0.000031
0.898834 0.000000 0.000031
0.028961 0.195435 0.031830
0.028961 0.195435 0.031830
0.192139 0.195099 0.027954
0.354095 0.176392 0.016296
0.516571 0.163452 0.007507
0.665771 0.152191 0.000275
0.791351 0.141510 0.000031
0.898743 0.130859 0.000031
0.012939 0.353729 0.017853
0.012939 0.353729 0.017853
0.164215 0.353546 0.012115
0.346252 0.353088 0.010162
0.515747 0.341522 0.002808
0.665253 0.326477 0.000000
0.790985 0.312531 0.000031
0.898529 0.299103 0.000031
0.001617 0.515625 0.007324
0.001617 0.515625 0.007324
0.145966 0.515503 0.000946
0.321747 0.515167 0.000000
0.503754 0.514709 0.000000
0.664551 0.507477 0.000000
0.790497 0.490723 0.000000
0.898193 0.474609 0.000031
0.000000 0.664612 0.000000
0.000000 0.664612 0.000000
0.129150 0.664551 0.000000
0.300781 0.664337 0.000000
0.478607 0.664062 0.000000
0.651794 0.663696 0.000000
0.789856 0.661194 0.000000
0.897736 0.647369 0.000000
0.000000 0.790070 0.000000
0.000000 0.790070 0.000000
0.112244 0.790009 0.000000
0.280823 0.789886 0.000000
0.455109 0.789703 0.000000
0.631317 0.789459 0.000000
0.776642 0.789124 0.000000
0.897125 0.789520 0.000000
0.000000 0.897430 0.000000
0.000000 0.897430 0.000000
0.094543 0.897400 0.000000
0.261230 0.897339 0.000000
0.432343 0.897186 0.000000
0.610840 0.897003 0.000000
0.759460 0.896790 0.000000
0.883850 0.896515 0.000000
0.034210 0.031433 0.196259
0.034210 0.031433 0.196259
0.195923 0.030609 0.192932
0.354614 0.018219 0.166168
0.516968 0.009460 0.149170
0.666046 0.002045 0.134186
0.791473 0.000000 0.119934
0.898865 0.000000 0.105927
0.034210 0.031433 0.196259
0.034210 0.031433 0.196259
0.195923 0.030609 0.192932
0.354614 0.018219 0.166168
0.516968 0.009460 0.149170
0.666046 0.002045 0.134186
0.791473 0.000000 0.119934
0.898865 0.000000 0.105927
0.028992 0.192505 0.195435
0.028992 0.192505 0.195435
0.174469 0.174469 0.174469
0.340027 0.141144 0.138000
0.499817 0.115936 0.110107
0.649597 0.099426 0.090973
0.775909 0.086914 0.076019
0.884399 0.076172 0.062592
0.012939 0.353729 0.175507
0.012939 0.353729 0.175507
0.115051 0.341644 0.118805
0.337158 0.341125 0.114105
0.498932 0.311432 0.108032
0.649078 0.289612 0.088867
0.775543 0.272888 0.073792
0.884186 0.258820 0.060242
0.001617 0.515625 0.161438
0.001617 0.515625 0.161438
0.093750 0.499603 0.100281
0.293732 0.499268 0.092834
0.491058 0.498779 0.091553
0.648438 0.476349 0.083405
0.775055 0.454742 0.070465
0.883850 0.436523 0.056641
0.000000 0.664612 0.148468
0.000000 0.664612 0.148468
0.077515 0.648590 0.086792
0.266571 0.648376 0.076660
0.453766 0.648102 0.075348
0.638550 0.647705 0.073517
0.774445 0.635529 0.062714
0.883331 0.618439 0.051453
0.000000 0.790070 0.135498
0.000000 0.790070 0.135498
0.061798 0.774597 0.074036
0.244659 0.774475 0.060883
0.425293 0.774261 0.059479
0.610870 0.774017 0.057465
0.763672 0.773682 0.054810
0.882782 0.767792 0.041351
0.000000 0.897430 0.121857
0.000000 0.897430 0.121857
0.044098 0.883057 0.060242
0.224884 0.882965 0.043121
0.400757 0.882843 0.041443
0.586578 0.882629 0.039093
0.742371 0.882416 0.035919
0.871552 0.882141 0.031677
0.025208 0.020142 0.355316
0.025208 0.020142 0.355316
0.177521 0.019165 0.355072
0.354675 0.017242 0.347839
0.516968 0.009338 0.324158
0.666046 0.002014 0.304260
0.791473 0.000000 0.285767
0.898865 0.000000 0.268005
0.025208 0.020142 0.355316
0.025208 0.020142 0.355316
0.177521 0.019165 0.355072
0.354675 0.017242 0.347839
0.516968 0.009338 0.324158
0.666046 0.002014 0.304260
0.791473 0.000000 0.285767
0.898865 0.000000 0.268005
0.018005 0.166229 0.354828
0.018005 0.166229 0.354828
0.121094 0.117310 0.342896
0.342346 0.117035 0.338348
0.500244 0.105316 0.298218
0.649689 0.089478 0.272186
0.775909 0.075500 0.251129
0.884430 0.062439 0.232727
0.013153 0.346893 0.353760
0.013153 0.346893 0.353760
0.115082 0.337708 0.341675
0.310242 0.310242 0.310242
0.479218 0.279358 0.276184
0.634338 0.244446 0.238251
0.762115 0.216522 0.207458
0.871185 0.195099 0.183258
0.001617 0.515625 0.341309
0.001617 0.515625 0.341309
0.093750 0.499603 0.307556
0.237854 0.483124 0.241913
0.478302 0.482544 0.237000
0.633514 0.443695 0.236542
0.761597 0.411743 0.205719
0.870850 0.386383 0.181488
0.000000 0.664612 0.325104
0.000000 0.664612 0.325104
0.077515 0.648590 0.285248
0.203186 0.635529 0.210358
0.416718 0.635223 0.202423
0.628326 0.634705 0.201324
0.761200 0.607178 0.195557
0.870361 0.582703 0.179016
0.000000 0.790070 0.309723
0.000000 0.790070 0.309723
0.061798 0.774597 0.268005
0.179382 0.761749 0.189453
0.377594 0.761536 0.178680
0.584869 0.761261 0.177612
0.753204 0.760895 0.176208
0.869934 0.744080 0.164642
0.000000 0.897430 0.294556
0.000000 0.897430 0.294556
0.044098 0.883057 0.252777
0.159760 0.870178 0.172699
0.347778 0.870026 0.159088
0.550873 0.869843 0.158051
0.722443 0.869598 0.156647
0.860718 0.869293 0.154907
0.020172 0.014252 0.517914
0.020172 0.014252 0.517914
0.165527 0.013397 0.517761
0.343597 0.011536 0.517395
0.516968 0.009125 0.506104
0.666046 0.001984 0.481812
0.791473 0.000000 0.459412
0.898865 0.000000 0.437988
0.020172 0.014252 0.517914
0.020172 0.014252 0.517914
0.165527 0.013397 0.517761
0.343597 0.011536 0.517395
0.516968 0.009125 0.506104
0.666046 0.001984 0.481812
0.791473 0.000000 0.459412
0.898865 0.000000 0.437988
0.012451 0.150299 0.517609
0.012451 0.150299 0.517609
0.105408 0.099121 0.501678
0.309784 0.098206 0.501343
0.500854 0.097351 0.493164
0.649780 0.087067 0.457245
0.775940 0.074615 0.430023
0.884430 0.062073 0.406738
0.008118 0.323883 0.516815
0.008118 0.323883 0.516815
0.097015 0.295868 0.500885
0.243988 0.239990 0.484619
0.483948 0.240234 0.479736
0.635284 0.226898 0.426910
0.762329 0.202789 0.390747
0.871246 0.181183 0.360992
0.002014 0.504761 0.515717
0.002014 0.504761 0.515717
0.093872 0.491974 0.499634
0.237915 0.478943 0.483185
0.446869 0.446869 0.446869
0.616058 0.416168 0.412811
0.748962 0.377136 0.370422
0.859863 0.341705 0.331818
0.000000 0.664612 0.507599
0.000000 0.664612 0.507599
0.077515 0.648590 0.475647
0.203186 0.635529 0.432068
0.367584 0.620117 0.371918
0.615936 0.619598 0.366699
0.748199 0.583954 0.368652
0.859344 0.549774 0.330109
0.000000 0.790070 0.489655
0.000000 0.790070 0.489655
0.061798 0.774597 0.452545
0.179382 0.761749 0.398682
0.321259 0.750549 0.329163
0.553070 0.750275 0.320465
0.744263 0.749878 0.319397
0.859131 0.722565 0.313568
0.000000 0.897430 0.472137
0.000000 0.897430 0.472137
0.044098 0.883057 0.433197
0.159760 0.870178 0.374359
0.288788 0.859741 0.299896
0.505981 0.859528 0.288086
0.701508 0.859283 0.287048
0.852142 0.858917 0.285767
0.016174 0.009949 0.666992
0.016174 0.009949 0.666992
0.155457 0.009186 0.666901
0.329254 0.007416 0.666656
0.510345 0.004913 0.666382
0.666046 0.001923 0.654205
0.791473 0.000000 0.634552
0.898865 0.000000 0.615082
0.016174 0.009949 0.666992
0.016174 0.009949 0.666992
0.155457 0.009186 0.666901
0.329254 0.007416 0.666656
0.510345 0.004913 0.666382
0.666046 0.001923 0.654205
0.791473 0.000000 0.634552
0.898865 0.000000 0.615082
0.008392 0.136688 0.666779
0.008392 0.136688 0.666779
0.095917 0.087189 0.650848
0.289459 0.086304 0.650635
0.478333 0.085022 0.650330
0.649933 0.083588 0.640900
0.775970 0.073334 0.614197
0.884430 0.061523 0.591003
0.004303 0.304871 0.666321
0.004303 0.304871 0.666321
0.085205 0.270782 0.650360
0.214905 0.207794 0.637482
0.434631 0.207001 0.637146
0.636627 0.206879 0.630249
0.762604 0.195404 0.589783
0.871277 0.177856 0.558258
0.000000 0.481140 0.665588
0.000000 0.481140 0.665588
0.082092 0.456207 0.649658
0.205963 0.419128 0.636688
0.374054 0.369781 0.621429
0.620819 0.370209 0.617188
0.750092 0.354156 0.566528
0.860138 0.323914 0.526672
0.000000 0.652863 0.664673
0.000000 0.652863 0.664673
0.077789 0.639557 0.648651
0.203308 0.629120 0.635559
0.367645 0.616486 0.620148
0.587341 0.587341 0.587341
0.732574 0.560608 0.557281
0.847748 0.522491 0.515533
0.000000 0.790070 0.661499
0.000000 0.790070 0.661499
0.061768 0.774597 0.635651
0.179382 0.761749 0.604767
0.321259 0.750549 0.568268
0.514282 0.735962 0.518738
0.732391 0.735504 0.513397
0.847076 0.705780 0.513763
0.000000 0.897430 0.646790
0.000000 0.897430 0.646790
0.044098 0.883057 0.617340
0.159760 0.870178 0.577271
0.288788 0.859741 0.528839
0.458679 0.849060 0.467102
0.677338 0.848785 0.457855
0.843567 0.848419 0.456787
0.013397 0.006012 0.792450
0.013397 0.006012 0.792450
0.146271 0.005310 0.792389
0.316193 0.003601 0.792267
0.494293 0.001282 0.792053
0.663971 0.000000 0.791779
0.791473 0.000000 0.779083
0.898865 0.000000 0.762573
0.013397 0.006012 0.792450
0.013397 0.006012 0.792450
0.146271 0.005310 0.792389
0.316193 0.003601 0.792267
0.494293 0.001282 0.792053
0.663971 0.000000 0.791779
0.791473 0.000000 0.779083
0.898865 0.000000 0.762573
0.004639 0.124176 0.792328
0.004639 0.124176 0.792328
0.088501 0.077667 0.776917
0.274628 0.076782 0.776794
0.457153 0.075500 0.776581
0.638184 0.073669 0.776306
0.776001 0.071625 0.766022
0.884430 0.060822 0.745483
0.000946 0.287415 0.792023
0.000946 0.287415 0.792023
0.075745 0.251526 0.776642
0.197021 0.187164 0.763916
0.403290 0.186401 0.763702
0.607361 0.185364 0.763397
0.763031 0.184723 0.755341
0.871368 0.173370 0.725983
0.000000 0.459595 0.791565
0.000000 0.459595 0.791565
0.072662 0.429749 0.776154
0.185455 0.382172 0.763428
0.333740 0.325897 0.752350
0.570801 0.325073 0.752045
0.751587 0.325317 0.746033
0.860474 0.311798 0.707214
0.000000 0.633698 0.790955
0.000000 0.633698 0.790955
0.068237 0.613281 0.775513
0.182922 0.587280 0.762695
0.323944 0.555481 0.751617
0.520905 0.516388 0.737152
0.736572 0.516815 0.733490
0.848724 0.496674 0.690216
0.000000 0.777740 0.790161
0.000000 0.777740 0.790161
0.062256 0.764679 0.774689
0.179596 0.754089 0.761780
0.321350 0.745026 0.750641
0.514313 0.732880 0.735992
0.708862 0.708862 0.708862
0.833435 0.687592 0.684845
0.000000 0.897430 0.789978
0.000000 0.897430 0.789978
0.044098 0.883057 0.768158
0.159760 0.870178 0.743896
0.288788 0.859741 0.719055
0.458679 0.849060 0.690430
0.654663 0.835724 0.658173
0.832764 0.835358 0.654053
0.010742 0.002228 0.899811
0.010742 0.002228 0.899811
0.137604 0.001617 0.899750
0.303894 0.000092 0.899689
0.479065 0.000000 0.899506
0.650818 0.000000 0.899323
0.792267 0.000000 0.899078
0.898865 0.000000 0.886261
0.010742 0.002228 0.899811
0.010742 0.002228 0.899811
0.137604 0.001617 0.899750
0.303894 0.000092 0.899689
0.479065 0.000000 0.899506
0.650818 0.000000 0.899323
0.792267 0.000000 0.899078
0.898865 0.000000 0.886261
0.001068 0.112579 0.899719
0.001068 0.112579 0.899719
0.082062 0.069183 0.885376
0.262451 0.068298 0.885284
0.440094 0.066956 0.885162
0.621521 0.065125 0.884979
0.770508 0.062653 0.884735
0.884430 0.059937 0.873932
0.000000 0.270996 0.899506
0.000000 0.270996 0.899506
0.067291 0.235107 0.885193
0.184082 0.171661 0.872375
0.381439 0.170898 0.872223
0.581726 0.169861 0.872040
0.746246 0.168488 0.871796
0.871490 0.167389 0.862976
0.000000 0.439270 0.899200
0.000000 0.439270 0.899200
0.064209 0.407654 0.884857
0.170013 0.354919 0.872070
0.307281 0.296326 0.861755
0.533508 0.295563 0.861542
0.721405 0.294525 0.861298
0.860901 0.294373 0.854187
0.000000 0.614929 0.898773
0.000000 0.614929 0.898773
0.059692 0.590759 0.884430
0.167542 0.555298 0.871613
0.294556 0.510803 0.861298
0.471741 0.463348 0.850708
0.692566 0.462494 0.850403
0.850006 0.462982 0.845184
0.000000 0.761627 0.898254
0.000000 0.761627 0.898254
0.053436 0.744537 0.883850
0.164246 0.724609 0.871002
0.292084 0.703644 0.860657
0.461395 0.679413 0.850006
0.659821 0.656372 0.836731
0.836304 0.656494 0.833679
0.000000 0.884888 0.897522
0.000000 0.884888 0.897522
0.045013 0.872589 0.883087
0.160065 0.861664 0.870209
0.288971 0.853027 0.859802
0.458771 0.844269 0.849091
0.654694 0.833160 0.835754
0.814270 0.814270 0.814270
