3d-lut/luts/Teigen 28.CUBE
#Created by: Adobe Photoshop Export Color Lookup Plugin
#Copyright: (C) Copyright 2017 RocketStock
TITLE "RSLUT(VL)"
#LUT size
LUT_3D_SIZE 32
#data domain
DOMAIN_MIN 0.0 0.0 0.0
DOMAIN_MAX 1.0 1.0 1.0
#LUT data points
0.063263 0.063263 0.063263
0.063263 0.063263 0.063263
0.063263 0.063263 0.063263
0.063263 0.063263 0.063263
0.063263 0.063263 0.063263
0.063263 0.063263 0.063263
0.063263 0.063263 0.063263
0.145752 0.048492 0.046997
0.195496 0.038330 0.035736
0.237305 0.032867 0.029449
0.276703 0.029297 0.025177
0.315582 0.026306 0.021667
0.354614 0.023712 0.018616
0.393982 0.021423 0.016022
0.434204 0.019165 0.013702
0.475281 0.017151 0.011566
0.516937 0.015259 0.009491
0.556946 0.013458 0.007599
0.595032 0.011658 0.005646
0.631287 0.009949 0.003845
0.666016 0.008179 0.002045
0.699310 0.006470 0.000275
0.731201 0.004883 0.000031
0.761932 0.003265 0.000031
0.791473 0.001770 0.000031
0.819855 0.000153 0.000031
0.847229 0.000000 0.000031
0.873505 0.000000 0.000031
0.898834 0.000000 0.000031
0.923157 0.000000 0.000031
0.946564 0.000000 0.000031
0.967529 0.000000 0.000031
0.063263 0.063263 0.063263
0.063263 0.063263 0.063263
0.063263 0.063263 0.063263
0.063263 0.063263 0.063263
0.063263 0.063263 0.063263
0.063263 0.063263 0.063263
0.063263 0.063263 0.063263
0.145752 0.048492 0.046997
0.195496 0.038330 0.035736
0.237305 0.032867 0.029449
0.276703 0.029297 0.025177
0.315582 0.026306 0.021667
0.354614 0.023712 0.018616
0.393982 0.021423 0.016022
0.434204 0.019165 0.013702
0.475281 0.017151 0.011566
0.516937 0.015259 0.009491
0.556946 0.013458 0.007599
0.595032 0.011658 0.005646
0.631287 0.009949 0.003845
0.666016 0.008179 0.002045
0.699310 0.006470 0.000275
0.731201 0.004883 0.000031
0.761932 0.003265 0.000031
0.791473 0.001770 0.000031
0.819855 0.000153 0.000031
0.847229 0.000000 0.000031
0.873505 0.000000 0.000031
0.898834 0.000000 0.000031
0.923157 0.000000 0.000031
0.946564 0.000000 0.000031
0.967529 0.000000 0.000031
0.063263 0.063263 0.063263
0.063263 0.063263 0.063263
0.063263 0.063263 0.063263
0.063263 0.063263 0.063263
0.063263 0.063263 0.063263
0.063263 0.063263 0.063263
0.063263 0.063263 0.063263
0.145752 0.048492 0.046997
0.195496 0.038330 0.035736
0.237305 0.032867 0.029449
0.276703 0.029297 0.025177
0.315582 0.026306 0.021667
0.354614 0.023712 0.018616
0.393982 0.021423 0.016022
0.434204 0.019165 0.013702
0.475281 0.017151 0.011566
0.516937 0.015259 0.009491
0.556946 0.013458 0.007599
0.595032 0.011658 0.005646
0.631287 0.009949 0.003845
0.666016 0.008179 0.002045
0.699310 0.006470 0.000275
0.731201 0.004883 0.000031
0.761932 0.003265 0.000031
0.791473 0.001770 0.000031
0.819855 0.000153 0.000031
0.847229 0.000000 0.000031
0.873505 0.000000 0.000031
0.898834 0.000000 0.000031
0.923157 0.000000 0.000031
0.946564 0.000000 0.000031
0.967529 0.000000 0.000031
0.063263 0.063263 0.063263
0.063263 0.063263 0.063263
0.063263 0.063263 0.063263
0.063263 0.063263 0.063263
0.063263 0.063263 0.063263
0.063263 0.063263 0.063263
0.063263 0.063263 0.063263
0.145752 0.048492 0.046997
0.195496 0.038330 0.035736
0.237305 0.032867 0.029449
0.276703 0.029297 0.025177
0.315582 0.026306 0.021667
0.354614 0.023712 0.018616
0.393982 0.021423 0.016022
0.434204 0.019165 0.013702
0.475281 0.017151 0.011566
0.516937 0.015259 0.009491
0.556946 0.013458 0.007599
0.595032 0.011658 0.005646
0.631287 0.009949 0.003845
0.666016 0.008179 0.002045
0.699310 0.006470 0.000275
0.731201 0.004883 0.000031
0.761932 0.003265 0.000031
0.791473 0.001770 0.000031
0.819855 0.000153 0.000031
0.847229 0.000000 0.000031
0.873505 0.000000 0.000031
0.898834 0.000000 0.000031
0.923157 0.000000 0.000031
0.946564 0.000000 0.000031
0.967529 0.000000 0.000031
0.063263 0.063263 0.063263
0.063263 0.063263 0.063263
0.063263 0.063263 0.063263
0.063263 0.063263 0.063263
0.063263 0.063263 0.063263
0.063263 0.063263 0.063263
0.063263 0.063263 0.063263
0.145752 0.048492 0.046997
0.195496 0.038330 0.035736
0.237305 0.032867 0.029449
0.276703 0.029297 0.025177
0.315582 0.026306 0.021667
0.354614 0.023712 0.018616
0.393982 0.021423 0.016022
0.434204 0.019165 0.013702
0.475281 0.017151 0.011566
0.516937 0.015259 0.009491
0.556946 0.013458 0.007599
0.595032 0.011658 0.005646
0.631287 0.009949 0.003845
0.666016 0.008179 0.002045
0.699310 0.006470 0.000275
0.731201 0.004883 0.000031
0.761932 0.003265 0.000031
0.791473 0.001770 0.000031
0.819855 0.000153 0.000031
0.847229 0.000000 0.000031
0.873505 0.000000 0.000031
0.898834 0.000000 0.000031
0.923157 0.000000 0.000031
0.946564 0.000000 0.000031
0.967529 0.000000 0.000031
0.063263 0.063263 0.063263
0.063263 0.063263 0.063263
0.063263 0.063263 0.063263
0.063263 0.063263 0.063263
0.063263 0.063263 0.063263
0.063263 0.063263 0.063263
0.063263 0.063263 0.063263
0.145752 0.048492 0.046997
0.195496 0.038330 0.035736
0.237305 0.032867 0.029449
0.276703 0.029297 0.025177
0.315582 0.026306 0.021667
0.354614 0.023712 0.018616
0.393982 0.021423 0.016022
0.434204 0.019165 0.013702
0.475281 0.017151 0.011566
0.516937 0.015259 0.009491
0.556946 0.013458 0.007599
0.595032 0.011658 0.005646
0.631287 0.009949 0.003845
0.666016 0.008179 0.002045
0.699310 0.006470 0.000275
0.731201 0.004883 0.000031
0.761932 0.003265 0.000031
0.791473 0.001770 0.000031
0.819855 0.000153 0.000031
0.847229 0.000000 0.000031
0.873505 0.000000 0.000031
0.898834 0.000000 0.000031
0.923157 0.000000 0.000031
0.946564 0.000000 0.000031
0.967529 0.000000 0.000031
0.063263 0.063263 0.063263
0.063263 0.063263 0.063263
0.063263 0.063263 0.063263
0.063263 0.063263 0.063263
0.063263 0.063263 0.063263
0.063263 0.063263 0.063263
0.063263 0.063263 0.063263
0.145752 0.048492 0.046997
0.195496 0.038330 0.035736
0.237305 0.032867 0.029449
0.276703 0.029297 0.025177
0.315582 0.026306 0.021667
0.354614 0.023712 0.018616
0.393982 0.021423 0.016022
0.434204 0.019165 0.013702
0.475281 0.017151 0.011566
0.516937 0.015259 0.009491
0.556946 0.013458 0.007599
0.595032 0.011658 0.005646
0.631287 0.009949 0.003845
0.666016 0.008179 0.002045
0.699310 0.006470 0.000275
0.731201 0.004883 0.000031
0.761932 0.003265 0.000031
0.791473 0.001770 0.000031
0.819855 0.000153 0.000031
0.847229 0.000000 0.000031
0.873505 0.000000 0.000031
0.898834 0.000000 0.000031
0.923157 0.000000 0.000031
0.946564 0.000000 0.000031
0.967529 0.000000 0.000031
0.040649 0.146057 0.042389
0.040649 0.146057 0.042389
0.040649 0.146057 0.042389
0.040649 0.146057 0.042389
0.040649 0.146057 0.042389
0.040649 0.146057 0.042389
0.040649 0.146057 0.042389
0.144012 0.145844 0.040192
0.195129 0.138275 0.033569
0.236938 0.132202 0.028168
0.276398 0.127563 0.023865
0.315308 0.123718 0.020325
0.354309 0.120392 0.017395
0.393707 0.117279 0.014832
0.433990 0.114471 0.012573
0.475067 0.111725 0.010498
0.516754 0.109161 0.008484
0.556732 0.106598 0.006531
0.594879 0.104126 0.004639
0.631165 0.101624 0.002899
0.665894 0.099091 0.001160
0.699188 0.096680 0.000031
0.731110 0.094238 0.000031
0.761841 0.091797 0.000031
0.791412 0.089417 0.000031
0.819794 0.086975 0.000031
0.847168 0.084442 0.000031
0.873474 0.082092 0.000031
0.898804 0.079651 0.000031
0.923126 0.077148 0.000031
0.946533 0.074707 0.000031
0.967499 0.073090 0.000031
0.028961 0.195435 0.031830
0.028961 0.195435 0.031830
0.028961 0.195435 0.031830
0.028961 0.195435 0.031830
0.028961 0.195435 0.031830
0.028961 0.195435 0.031830
0.028961 0.195435 0.031830
0.131836 0.195251 0.028412
0.192139 0.195099 0.027954
0.236786 0.190308 0.023773
0.276093 0.184875 0.022491
0.315033 0.180298 0.019165
0.354095 0.176392 0.016296
0.393524 0.172852 0.013794
0.433807 0.169495 0.011566
0.474854 0.166321 0.009491
0.516571 0.163452 0.007507
0.556580 0.160553 0.005585
0.594757 0.157654 0.003723
0.631042 0.154846 0.001984
0.665771 0.152191 0.000275
0.699097 0.149384 0.000031
0.731049 0.146637 0.000031
0.761749 0.144073 0.000031
0.791351 0.141510 0.000031
0.819763 0.138733 0.000031
0.847107 0.136139 0.000031
0.873413 0.133575 0.000031
0.898743 0.130859 0.000031
0.923065 0.128174 0.000031
0.946472 0.125671 0.000031
0.967468 0.123840 0.000031
0.023254 0.236938 0.027100
0.023254 0.236938 0.027100
0.023254 0.236938 0.027100
0.023254 0.236938 0.027100
0.023254 0.236938 0.027100
0.023254 0.236938 0.027100
0.023254 0.236938 0.027100
0.123962 0.236816 0.022736
0.182587 0.236694 0.022247
0.232605 0.236572 0.021729
0.275940 0.233826 0.018524
0.314819 0.228699 0.017212
0.353821 0.224243 0.015167
0.393280 0.220276 0.012695
0.433563 0.216553 0.010498
0.474640 0.213165 0.008453
0.516388 0.209900 0.006470
0.556427 0.206604 0.004578
0.594604 0.203613 0.002747
0.630890 0.200500 0.001068
0.665680 0.197449 0.000031
0.699005 0.194641 0.000031
0.730957 0.191742 0.000031
0.761658 0.188782 0.000031
0.791260 0.186005 0.000031
0.819672 0.183075 0.000031
0.847046 0.180328 0.000031
0.873352 0.177399 0.000031
0.898712 0.174622 0.000031
0.923035 0.171936 0.000031
0.946442 0.169128 0.000031
0.967438 0.166992 0.000031
0.019348 0.276154 0.023773
0.019348 0.276154 0.023773
0.019348 0.276154 0.023773
0.019348 0.276154 0.023773
0.019348 0.276154 0.023773
0.019348 0.276154 0.023773
0.019348 0.276154 0.023773
0.117950 0.276031 0.018890
0.175415 0.275909 0.018402
0.224365 0.275818 0.017944
0.270721 0.275665 0.017456
0.314545 0.274689 0.014740
0.353607 0.269745 0.013123
0.393036 0.265320 0.011414
0.433319 0.261230 0.009369
0.474426 0.257538 0.007355
0.516174 0.253998 0.005341
0.556274 0.250519 0.003479
0.594452 0.247131 0.001709
0.630768 0.243805 0.000031
0.665527 0.240570 0.000031
0.698883 0.237457 0.000031
0.730865 0.234344 0.000031
0.761597 0.231323 0.000031
0.791168 0.228241 0.000031
0.819611 0.225311 0.000031
0.846985 0.222321 0.000031
0.873291 0.219330 0.000031
0.898651 0.216278 0.000031
0.922974 0.213165 0.000031
0.946381 0.210358 0.000031
0.967377 0.207947 0.000031
0.016022 0.314880 0.020691
0.016022 0.314880 0.020691
0.016022 0.314880 0.020691
0.016022 0.314880 0.020691
0.016022 0.314880 0.020691
0.016022 0.314880 0.020691
0.016022 0.314880 0.020691
0.112854 0.314789 0.015564
0.169464 0.314667 0.015137
0.217651 0.314545 0.014679
0.263336 0.314453 0.014221
0.308441 0.314301 0.013702
0.353363 0.314697 0.011261
0.392792 0.309875 0.009491
0.433075 0.305542 0.007904
0.474182 0.301483 0.006104
0.515991 0.297638 0.004150
0.556061 0.293854 0.002350
0.594269 0.290314 0.000580
0.630615 0.286743 0.000000
0.665436 0.283295 0.000031
0.698761 0.280060 0.000031
0.730743 0.276825 0.000031
0.761475 0.273438 0.000031
0.791107 0.270203 0.000031
0.819519 0.267029 0.000031
0.846893 0.263947 0.000031
0.873260 0.260681 0.000031
0.898621 0.257507 0.000031
0.922913 0.254395 0.000031
0.946350 0.251160 0.000031
0.967346 0.248718 0.000031
0.012939 0.353729 0.017853
0.012939 0.353729 0.017853
0.012939 0.353729 0.017853
0.012939 0.353729 0.017853
0.012939 0.353729 0.017853
0.012939 0.353729 0.017853
0.012939 0.353729 0.017853
0.108307 0.353607 0.012512
0.164215 0.353546 0.012115
0.211761 0.353424 0.011688
0.256866 0.353363 0.011230
0.301422 0.353210 0.010742
0.346252 0.353088 0.010162
0.392517 0.354675 0.007904
0.432831 0.349976 0.006104
0.473938 0.345612 0.004517
0.515747 0.341522 0.002808
0.555847 0.337616 0.001099
0.594116 0.333740 0.000000
0.630463 0.330017 0.000000
0.665253 0.326477 0.000000
0.698608 0.322815 0.000031
0.730621 0.319305 0.000031
0.761383 0.315826 0.000031
0.790985 0.312531 0.000031
0.819427 0.309113 0.000031
0.846832 0.305878 0.000031
0.873169 0.302460 0.000031
0.898529 0.299103 0.000031
0.922852 0.295898 0.000031
0.946289 0.292480 0.000031
0.967285 0.289886 0.000031
0.010040 0.392975 0.015228
0.010040 0.392975 0.015228
0.010040 0.392975 0.015228
0.010040 0.392975 0.015228
0.010040 0.392975 0.015228
0.010040 0.392975 0.015228
0.010040 0.392975 0.015228
0.103943 0.392883 0.009644
0.159302 0.392792 0.009247
0.206390 0.392731 0.008820
0.251007 0.392639 0.008362
0.295105 0.392517 0.007904
0.339386 0.392426 0.007385
0.384369 0.392303 0.006805
0.432556 0.395050 0.004578
0.473694 0.390350 0.002838
0.515503 0.386047 0.001282
0.555634 0.381775 0.000000
0.593903 0.377838 0.000000
0.630280 0.373901 0.000000
0.665131 0.370148 0.000000
0.698486 0.366394 0.000000
0.730469 0.362701 0.000031
0.761261 0.358887 0.000031
0.790894 0.355438 0.000031
0.819336 0.351959 0.000031
0.846741 0.348267 0.000031
0.873077 0.344727 0.000031
0.898468 0.341309 0.000031
0.922760 0.338013 0.000031
0.946228 0.334595 0.000031
0.967255 0.331543 0.000031
0.007202 0.433075 0.012512
0.007202 0.433075 0.012512
0.007202 0.433075 0.012512
0.007202 0.433075 0.012512
0.007202 0.433075 0.012512
0.007202 0.433075 0.012512
0.007202 0.433075 0.012512
0.099823 0.432983 0.006836
0.154694 0.432922 0.006439
0.201324 0.432831 0.006042
0.245453 0.432770 0.005615
0.289276 0.432678 0.005127
0.333160 0.432556 0.004608
0.377686 0.432434 0.004028
0.423340 0.432312 0.003448
0.473358 0.436279 0.001312
0.515259 0.431641 0.000000
0.555389 0.427155 0.000000
0.593689 0.422974 0.000000
0.630096 0.418915 0.000000
0.664948 0.414703 0.000000
0.698303 0.410797 0.000000
0.730347 0.406921 0.000000
0.761139 0.403137 0.000031
0.790771 0.399506 0.000031
0.819214 0.395691 0.000031
0.846680 0.391968 0.000031
0.873016 0.388489 0.000031
0.898376 0.384796 0.000031
0.922699 0.380981 0.000031
0.946198 0.377533 0.000031
0.967163 0.374268 0.000031
0.004395 0.473969 0.009888
0.004395 0.473969 0.009888
0.004395 0.473969 0.009888
0.004395 0.473969 0.009888
0.004395 0.473969 0.009888
0.004395 0.473969 0.009888
0.004395 0.473969 0.009888
0.095795 0.473938 0.004028
0.150238 0.473846 0.003662
0.196594 0.473755 0.003265
0.240417 0.473694 0.002869
0.283722 0.473602 0.002411
0.327332 0.473480 0.001923
0.371490 0.473419 0.001404
0.416809 0.473297 0.000824
0.463074 0.473145 0.000214
0.514954 0.478271 0.000000
0.555145 0.473572 0.000000
0.593475 0.468994 0.000000
0.629883 0.464752 0.000000
0.664764 0.460571 0.000000
0.698120 0.456512 0.000000
0.730194 0.452393 0.000000
0.760986 0.448395 0.000000
0.790649 0.444550 0.000031
0.819092 0.440552 0.000031
0.846558 0.436768 0.000031
0.872894 0.432831 0.000031
0.898285 0.429047 0.000031
0.922638 0.425323 0.000031
0.946106 0.421600 0.000031
0.967102 0.418060 0.000031
0.001617 0.515625 0.007324
0.001617 0.515625 0.007324
0.001617 0.515625 0.007324
0.001617 0.515625 0.007324
0.001617 0.515625 0.007324
0.001617 0.515625 0.007324
0.001617 0.515625 0.007324
0.091766 0.515594 0.001282
0.145966 0.515503 0.000946
0.191956 0.515411 0.000580
0.235443 0.515320 0.000183
0.278473 0.515259 0.000000
0.321747 0.515167 0.000000
0.365601 0.515076 0.000000
0.410583 0.514954 0.000000
0.456604 0.514832 0.000000
0.503754 0.514709 0.000000
0.554840 0.520752 0.000000
0.593201 0.516235 0.000000
0.629669 0.511902 0.000000
0.664551 0.507477 0.000000
0.697968 0.503204 0.000000
0.730011 0.499115 0.000000
0.760834 0.494751 0.000000
0.790497 0.490723 0.000000
0.818970 0.486786 0.000031
0.846436 0.482635 0.000031
0.872833 0.478790 0.000031
0.898193 0.474609 0.000031
0.922546 0.470947 0.000031
0.946014 0.466888 0.000031
0.967041 0.462982 0.000031
0.000000 0.555542 0.004639
0.000000 0.555542 0.004639
0.000000 0.555542 0.004639
0.000000 0.555542 0.004639
0.000000 0.555542 0.004639
0.000000 0.555542 0.004639
0.000000 0.555542 0.004639
0.087830 0.555511 0.000000
0.141724 0.555420 0.000000
0.187286 0.555389 0.000000
0.230591 0.555298 0.000000
0.273254 0.555206 0.000000
0.316284 0.555145 0.000000
0.359833 0.555054 0.000000
0.404572 0.554993 0.000000
0.450226 0.554871 0.000000
0.497253 0.554749 0.000000
0.543427 0.554626 0.000000
0.592926 0.561188 0.000000
0.629395 0.556976 0.000000
0.664337 0.552979 0.000000
0.697754 0.548859 0.000000
0.729828 0.544800 0.000000
0.760681 0.540741 0.000000
0.790344 0.536774 0.000000
0.818848 0.532898 0.000000
0.846313 0.528931 0.000000
0.872681 0.524994 0.000031
0.898071 0.521179 0.000031
0.922455 0.517151 0.000031
0.945923 0.513489 0.000031
0.966980 0.509033 0.000031
0.000000 0.593658 0.001923
0.000000 0.593658 0.001923
0.000000 0.593658 0.001923
0.000000 0.593658 0.001923
0.000000 0.593658 0.001923
0.000000 0.593658 0.001923
0.000000 0.593658 0.001923
0.083801 0.593628 0.000000
0.137482 0.593597 0.000000
0.182953 0.593506 0.000000
0.225830 0.593475 0.000000
0.268311 0.593384 0.000000
0.310974 0.593323 0.000000
0.354401 0.593231 0.000000
0.398804 0.593170 0.000000
0.444061 0.593079 0.000000
0.490875 0.592957 0.000000
0.537231 0.592834 0.000000
0.581268 0.592712 0.000000
0.629120 0.599854 0.000000
0.664093 0.595795 0.000000
0.697540 0.591919 0.000000
0.729645 0.588104 0.000000
0.760498 0.584381 0.000000
0.790192 0.580475 0.000000
0.818695 0.576721 0.000000
0.846191 0.572998 0.000000
0.872559 0.569366 0.000000
0.897980 0.565521 0.000031
0.922333 0.561798 0.000031
0.945831 0.558075 0.000031
0.966888 0.553986 0.000031
0.000000 0.629883 0.000000
0.000000 0.629883 0.000000
0.000000 0.629883 0.000000
0.000000 0.629883 0.000000
0.000000 0.629883 0.000000
0.000000 0.629883 0.000000
0.000000 0.629883 0.000000
0.079742 0.629852 0.000000
0.133301 0.629791 0.000000
0.178436 0.629761 0.000000
0.221130 0.629700 0.000000
0.263306 0.629669 0.000000
0.305847 0.629578 0.000000
0.348938 0.629517 0.000000
0.393188 0.629425 0.000000
0.438202 0.629364 0.000000
0.484741 0.629272 0.000000
0.531219 0.629181 0.000000
0.575439 0.629059 0.000000
0.617310 0.628998 0.000000
0.663818 0.636505 0.000000
0.697296 0.632904 0.000000
0.729431 0.629089 0.000000
0.760315 0.625336 0.000000
0.790039 0.621704 0.000000
0.818542 0.618286 0.000000
0.846039 0.614716 0.000000
0.872406 0.610931 0.000000
0.897827 0.607513 0.000000
0.922241 0.603851 0.000031
0.945740 0.600464 0.000031
0.966797 0.596252 0.000031
0.000000 0.664612 0.000000
0.000000 0.664612 0.000000
0.000000 0.664612 0.000000
0.000000 0.664612 0.000000
0.000000 0.664612 0.000000
0.000000 0.664612 0.000000
0.000000 0.664612 0.000000
0.075623 0.664581 0.000000
0.129150 0.664551 0.000000
0.173981 0.664459 0.000000
0.216431 0.664429 0.000000
0.258423 0.664398 0.000000
0.300781 0.664337 0.000000
0.343658 0.664276 0.000000
0.387390 0.664246 0.000000
0.432465 0.664124 0.000000
0.478607 0.664062 0.000000
0.525360 0.663971 0.000000
0.569672 0.663879 0.000000
0.611816 0.663757 0.000000
0.651794 0.663696 0.000000
0.697083 0.671722 0.000000
0.729218 0.668121 0.000000
0.760101 0.664581 0.000000
0.789856 0.661194 0.000000
0.818359 0.657654 0.000000
0.845886 0.654205 0.000000
0.872284 0.650696 0.000000
0.897736 0.647369 0.000000
0.922119 0.643829 0.000000
0.945648 0.640533 0.000031
0.966705 0.636322 0.000031
0.000000 0.697845 0.000000
0.000000 0.697845 0.000000
0.000000 0.697845 0.000000
0.000000 0.697845 0.000000
0.000000 0.697845 0.000000
0.000000 0.697845 0.000000
0.000000 0.697845 0.000000
0.071411 0.697815 0.000000
0.124878 0.697784 0.000000
0.169708 0.697754 0.000000
0.211884 0.697723 0.000000
0.253723 0.697693 0.000000
0.295654 0.697632 0.000000
0.338348 0.697571 0.000000
0.381927 0.697510 0.000000
0.426758 0.697449 0.000000
0.472626 0.697388 0.000000
0.519379 0.697296 0.000000
0.564117 0.697205 0.000000
0.606506 0.697144 0.000000
0.646637 0.697021 0.000000
0.684845 0.696930 0.000000
0.728973 0.705353 0.000000
0.759888 0.701904 0.000000
0.789642 0.698547 0.000000
0.818176 0.695282 0.000000
0.845734 0.692047 0.000000
0.872162 0.688507 0.000000
0.897583 0.685394 0.000000
0.921997 0.682068 0.000000
0.945496 0.678680 0.000000
0.966553 0.674774 0.000031
0.000000 0.729797 0.000000
0.000000 0.729797 0.000000
0.000000 0.729797 0.000000
0.000000 0.729797 0.000000
0.000000 0.729797 0.000000
0.000000 0.729797 0.000000
0.000000 0.729797 0.000000
0.067169 0.729767 0.000000
0.120605 0.729736 0.000000
0.165375 0.729706 0.000000
0.207336 0.729675 0.000000
0.248993 0.729645 0.000000
0.290649 0.729614 0.000000
0.333191 0.729553 0.000000
0.376495 0.729462 0.000000
0.421051 0.729431 0.000000
0.466797 0.729370 0.000000
0.513489 0.729309 0.000000
0.558533 0.729187 0.000000
0.601105 0.729126 0.000000
0.641510 0.729034 0.000000
0.679993 0.728973 0.000000
0.716644 0.728882 0.000000
0.759674 0.737579 0.000000
0.789459 0.734406 0.000000
0.817993 0.731171 0.000000
0.845551 0.728058 0.000000
0.871979 0.724792 0.000000
0.897430 0.721527 0.000000
0.921875 0.718475 0.000000
0.945404 0.715271 0.000000
0.966461 0.711304 0.000000
0.000000 0.760498 0.000000
0.000000 0.760498 0.000000
0.000000 0.760498 0.000000
0.000000 0.760498 0.000000
0.000000 0.760498 0.000000
0.000000 0.760498 0.000000
0.000000 0.760498 0.000000
0.062897 0.760468 0.000000
0.116486 0.760468 0.000000
0.160980 0.760437 0.000000
0.202850 0.760406 0.000000
0.244141 0.760345 0.000000
0.285706 0.760315 0.000000
0.327789 0.760254 0.000000
0.371094 0.760193 0.000000
0.415375 0.760162 0.000000
0.460785 0.760101 0.000000
0.507507 0.760040 0.000000
0.552979 0.759979 0.000000
0.595642 0.759888 0.000000
0.636322 0.759827 0.000000
0.675079 0.759735 0.000000
0.712006 0.759674 0.000000
0.747223 0.759583 0.000000
0.789246 0.768433 0.000000
0.817810 0.765442 0.000000
0.845367 0.762421 0.000000
0.871826 0.759369 0.000000
0.897278 0.756226 0.000000
0.921722 0.753387 0.000000
0.945282 0.750366 0.000000
0.966339 0.746368 0.000000
0.000000 0.790070 0.000000
0.000000 0.790070 0.000000
0.000000 0.790070 0.000000
0.000000 0.790070 0.000000
0.000000 0.790070 0.000000
0.000000 0.790070 0.000000
0.000000 0.790070 0.000000
0.058380 0.790039 0.000000
0.112244 0.790009 0.000000
0.156647 0.789978 0.000000
0.198303 0.789948 0.000000
0.239410 0.789917 0.000000
0.280823 0.789886 0.000000
0.322815 0.789856 0.000000
0.365906 0.789795 0.000000
0.409973 0.789764 0.000000
0.455109 0.789703 0.000000
0.501556 0.789642 0.000000
0.547272 0.789581 0.000000
0.590240 0.789520 0.000000
0.631317 0.789459 0.000000
0.670166 0.789368 0.000000
0.707367 0.789307 0.000000
0.742645 0.789215 0.000000
0.776642 0.789124 0.000000
0.817596 0.798309 0.000000
0.845184 0.795441 0.000000
0.871674 0.792358 0.000000
0.897125 0.789520 0.000000
0.921570 0.786713 0.000000
0.945129 0.783813 0.000000
0.966217 0.779846 0.000000
0.000000 0.818451 0.000000
0.000000 0.818451 0.000000
0.000000 0.818451 0.000000
0.000000 0.818451 0.000000
0.000000 0.818451 0.000000
0.000000 0.818451 0.000000
0.000000 0.818451 0.000000
0.053711 0.818420 0.000000
0.107849 0.818390 0.000000
0.152191 0.818359 0.000000
0.193787 0.818359 0.000000
0.234711 0.818329 0.000000
0.275909 0.818268 0.000000
0.317780 0.818237 0.000000
0.360474 0.818207 0.000000
0.404358 0.818146 0.000000
0.449554 0.818115 0.000000
0.495789 0.818054 0.000000
0.541687 0.817993 0.000000
0.585144 0.817932 0.000000
0.626160 0.817902 0.000000
0.665314 0.817841 0.000000
0.702698 0.817749 0.000000
0.738281 0.817688 0.000000
0.772400 0.817596 0.000000
0.804962 0.817505 0.000000
0.844971 0.826904 0.000000
0.871460 0.824036 0.000000
0.896973 0.821289 0.000000
0.921448 0.818481 0.000000
0.944977 0.815704 0.000000
0.966095 0.811676 0.000000
0.000000 0.845795 0.000000
0.000000 0.845795 0.000000
0.000000 0.845795 0.000000
0.000000 0.845795 0.000000
0.000000 0.845795 0.000000
0.000000 0.845795 0.000000
0.000000 0.845795 0.000000
0.048706 0.845795 0.000000
0.103516 0.845764 0.000000
0.147766 0.845764 0.000000
0.189270 0.845764 0.000000
0.230103 0.845734 0.000000
0.271088 0.845703 0.000000
0.312531 0.845642 0.000000
0.355133 0.845612 0.000000
0.398926 0.845581 0.000000
0.443726 0.845520 0.000000
0.489868 0.845490 0.000000
0.536011 0.845428 0.000000
0.579803 0.845367 0.000000
0.621063 0.845306 0.000000
0.660492 0.845276 0.000000
0.698029 0.845184 0.000000
0.733795 0.845123 0.000000
0.768097 0.845032 0.000000
0.800873 0.844971 0.000000
0.832275 0.844879 0.000000
0.871277 0.854462 0.000000
0.896759 0.851807 0.000000
0.921265 0.848999 0.000000
0.944824 0.846344 0.000000
0.965942 0.842560 0.000000
0.000000 0.872131 0.000000
0.000000 0.872131 0.000000
0.000000 0.872131 0.000000
0.000000 0.872131 0.000000
0.000000 0.872131 0.000000
0.000000 0.872131 0.000000
0.000000 0.872131 0.000000
0.043762 0.872101 0.000000
0.099152 0.872101 0.000000
0.143250 0.872070 0.000000
0.184662 0.872040 0.000000
0.225311 0.872009 0.000000
0.266144 0.871979 0.000000
0.307434 0.871948 0.000000
0.350067 0.871948 0.000000
0.393372 0.871918 0.000000
