3d-lut/luts/Teigen 28.CUBE
#Created by: Adobe Photoshop Export Color Lookup Plugin
#Copyright: (C) Copyright 2017 RocketStock
TITLE "RSLUT(VL)"
#LUT size
LUT_3D_SIZE 5
#data domain
#LUT data points
DOMAIN_MIN 0.000000 0.000000 0.000000
DOMAIN_MAX 0.903226 0.903226 0.903226
0.063263 0.063263 0.063263
0.145752 0.048492 0.046997
0.434204 0.019165 0.013702
0.699310 0.006470 0.000275
0.898834 0.000000 0.000031
0.040649 0.146057 0.042389
0.144012 0.145844 0.040192
0.433990 0.114471 0.012573
0.699188 0.096680 0.000031
0.898804 0.079651 0.000031
0.007202 0.433075 0.012512
0.099823 0.432983 0.006836
0.423340 0.432312 0.003448
0.698303 0.410797 0.000000
0.898376 0.384796 0.000031
0.000000 0.697845 0.000000
0.071411 0.697815 0.000000
0.381927 0.697510 0.000000
0.684845 0.696930 0.000000
0.897583 0.685394 0.000000
0.000000 0.897430 0.000000
0.038330 0.897430 0.000000
0.344788 0.897278 0.000000
0.650635 0.896973 0.000000
0.883850 0.896515 0.000000
0.043579 0.041840 0.146606
0.146362 0.041534 0.144531
0.434235 0.013641 0.102936
0.699310 0.000275 0.079010
0.898865 0.000000 0.056122
0.040680 0.144257 0.146057
0.132355 0.132355 0.132355
0.424042 0.081573 0.076385
0.688354 0.059784 0.050110
0.889374 0.042419 0.027527
0.007202 0.433075 0.112152
0.064545 0.423584 0.070435
0.416016 0.422882 0.062378
0.687500 0.389282 0.044373
0.888947 0.361572 0.020172
0.000000 0.697845 0.090668
0.037506 0.687042 0.048584
0.364227 0.686737 0.034973
0.675842 0.686157 0.030151
0.888153 0.668518 0.007019
0.000000 0.897430 0.066528
0.003052 0.888000 0.020142
0.325653 0.887817 0.000641
0.636993 0.887543 0.000000
0.875763 0.887024 0.000000
0.022583 0.016937 0.435028
0.116150 0.016449 0.434937
0.434265 0.012970 0.425323
0.699310 0.000244 0.385529
0.898865 0.000000 0.350891
0.015961 0.104004 0.434875
0.075500 0.069824 0.425415
0.424652 0.067993 0.417816
0.688385 0.049225 0.368011
0.889374 0.027405 0.331818
0.007538 0.424194 0.433167
0.064667 0.416779 0.423615
0.377350 0.377350 0.377350
0.660706 0.318329 0.312683
0.865509 0.263855 0.252869
0.000000 0.697845 0.409973
0.037506 0.687042 0.387848
0.268677 0.662811 0.275391
0.656555 0.662109 0.267090
0.864655 0.611847 0.249451
0.000000 0.897430 0.381409
0.003052 0.888000 0.357880
0.220337 0.864868 0.232422
0.580261 0.864532 0.218903
0.856293 0.863983 0.216522
0.015350 0.008972 0.700256
0.101105 0.008636 0.700226
0.413788 0.005341 0.699890
0.699310 0.000214 0.687286
0.898865 0.000000 0.654480
0.008270 0.083313 0.700195
0.062775 0.053375 0.689392
0.391693 0.051178 0.689026
0.688446 0.047424 0.678223
0.889374 0.027069 0.640930
0.000946 0.385681 0.699402
0.048279 0.367950 0.688599
0.279266 0.272614 0.664612
0.663818 0.272186 0.658325
0.865753 0.243744 0.589508
0.000000 0.685944 0.697968
0.037994 0.676849 0.687103
0.268738 0.657288 0.662842
0.619446 0.619446 0.619446
0.844391 0.567749 0.562042
0.000000 0.897430 0.685120
0.003052 0.888000 0.668091
0.220337 0.864868 0.603394
0.509064 0.846130 0.516510
0.841156 0.845520 0.507507
0.010742 0.002228 0.899811
0.088348 0.001923 0.899780
0.389343 0.000000 0.899597
0.688599 0.000000 0.899292
0.898865 0.000000 0.886261
0.001678 0.066071 0.899750
0.053101 0.040466 0.890350
0.365784 0.038116 0.890167
0.671692 0.033569 0.889832
0.889374 0.026489 0.878174
0.000000 0.352905 0.899384
0.035217 0.333862 0.889954
0.241547 0.229706 0.867004
0.607208 0.228210 0.866638
0.866119 0.226715 0.858490
0.000000 0.654114 0.898651
0.023621 0.640533 0.889221
0.226257 0.584106 0.866211
0.520386 0.513031 0.847626
0.846954 0.512909 0.842621
0.000000 0.884888 0.897522
0.004242 0.876801 0.888062
0.220551 0.857239 0.864899
0.509155 0.841797 0.846161
0.814270 0.814270 0.814270
