3d-lut/luts/Trent 18.CUBE
#Created by: Adobe Photoshop Export Color Lookup Plugin
#Copyright: (C) Copyright 2017 RocketStock
TITLE "Cool Grey"
#LUT size
LUT_3D_SIZE 5
#data domain
#LUT data points
DOMAIN_MIN 0.000000 0.000000 0.000000
DOMAIN_MAX 0.903226 0.903226 0.903226
0.077789 0.077789 0.077789
0.155334 0.079163 0.079163
0.284729 0.080963 0.080963
0.457703 0.083160 0.083160
0.652313 0.085632 0.085632
0.080902 0.158112 0.080902
0.161652 0.161652 0.083069
0.295837 0.165741 0.085571
0.472473 0.170258 0.088287
0.668945 0.175232 0.091248
0.085480 0.295624 0.085480
0.170135 0.302246 0.088196
0.309326 0.309326 0.091125
0.489227 0.316742 0.094238
0.686676 0.324310 0.097382
0.091034 0.480255 0.091034
0.180084 0.488892 0.094116
0.324066 0.497681 0.097290
0.506409 0.506409 0.100525
0.704041 0.514862 0.103668
0.097198 0.686096 0.097198
0.190735 0.695038 0.100403
0.338745 0.703735 0.103577
0.522552 0.711914 0.106628
0.719391 0.719391 0.109467
0.078217 0.078217 0.153809
0.156311 0.079773 0.156311
0.286591 0.081726 0.159485
0.460236 0.084015 0.163208
0.655243 0.086609 0.167511
0.081635 0.159363 0.159363
0.163086 0.163086 0.163086
0.298187 0.167358 0.167358
0.475525 0.172058 0.172058
0.672211 0.177124 0.177124
0.086456 0.297974 0.167206
0.171906 0.304810 0.171906
0.312042 0.312042 0.176941
0.492432 0.319519 0.182251
0.690002 0.327087 0.187653
0.092163 0.483429 0.176758
0.182068 0.492096 0.182068
0.326843 0.500885 0.187469
0.509521 0.509521 0.192932
0.707092 0.517822 0.198242
0.098389 0.689423 0.187286
0.192749 0.698273 0.192749
0.341400 0.706818 0.198090
0.525330 0.714752 0.203125
0.721893 0.721893 0.207794
0.078766 0.078766 0.279327
0.157410 0.080475 0.283447
0.288513 0.082550 0.288513
0.462891 0.084961 0.294373
0.658264 0.087616 0.300873
0.082458 0.160675 0.288330
0.164612 0.164612 0.294159
0.300659 0.169037 0.300659
0.478607 0.173889 0.307678
0.675507 0.179047 0.315002
0.087433 0.300415 0.300415
0.173706 0.307404 0.307404
0.314758 0.314758 0.314758
0.495667 0.322266 0.322266
0.693268 0.329865 0.329865
0.093292 0.486603 0.314514
0.184052 0.495361 0.322021
0.329620 0.504120 0.329620
0.512604 0.512604 0.337036
0.710052 0.520752 0.344147
0.099548 0.692688 0.329376
0.194733 0.701447 0.336792
0.343933 0.709778 0.343933
0.528015 0.717468 0.350586
0.724335 0.724335 0.356537
0.079346 0.079346 0.446533
0.158539 0.081177 0.451935
0.290588 0.083374 0.458344
0.465637 0.085907 0.465637
0.661377 0.088654 0.473572
0.083313 0.162018 0.458130
0.166138 0.166138 0.465363
0.303162 0.170776 0.473328
0.481659 0.175720 0.481659
0.678833 0.180969 0.490356
0.088470 0.302979 0.473022
0.175537 0.310059 0.481384
0.317474 0.317474 0.490051
0.498871 0.325073 0.498871
0.696533 0.332611 0.507507
0.094421 0.489746 0.489746
0.186035 0.498566 0.498566
0.332367 0.507233 0.507233
0.515686 0.515686 0.515686
0.712952 0.523560 0.523560
0.100739 0.695923 0.506989
0.196655 0.704590 0.515381
0.346436 0.712708 0.523315
0.530579 0.720093 0.530579
0.726562 0.726562 0.536957
0.079956 0.079956 0.634918
0.159790 0.081940 0.641022
0.292755 0.084290 0.648193
0.468445 0.086884 0.656036
0.664551 0.089752 0.664551
0.084198 0.163513 0.647919
0.167816 0.167816 0.655792
0.305756 0.172546 0.664246
0.484863 0.177643 0.673096
0.682129 0.182953 0.682129
0.089539 0.305511 0.663971
0.177460 0.312775 0.672852
0.320251 0.320251 0.681824
0.502075 0.327850 0.690918
0.699738 0.335327 0.699738
0.095612 0.493011 0.681549
0.188049 0.501801 0.690613
0.335083 0.510406 0.699432
0.518646 0.518646 0.707886
0.715729 0.526306 0.715729
0.101898 0.699158 0.699158
0.198608 0.707611 0.707611
0.348846 0.715515 0.715515
0.533051 0.722595 0.722595
0.728668 0.728668 0.728668
