3d-lut/luts/Trent 18.CUBE
#Created by: Adobe Photoshop Export Color Lookup Plugin
#Copyright: (C) Copyright 2017 RocketStock
TITLE "Cool Grey"
#LUT size
LUT_3D_SIZE 8
#data domain
#LUT data points
DOMAIN_MIN 0.000000 0.000000 0.000000
DOMAIN_MAX 0.903226 0.903226 0.903226
0.077789 0.077789 0.077789
0.117218 0.078522 0.078522
0.170319 0.079407 0.079407
0.242371 0.080414 0.080414
0.330627 0.081543 0.081543
0.431152 0.082825 0.082825
0.539734 0.084167 0.084167
0.652313 0.085632 0.085632
0.079376 0.118286 0.079376
0.119568 0.119568 0.080383
0.174072 0.121033 0.081512
0.247650 0.122620 0.082764
0.337341 0.124359 0.084106
0.439056 0.126251 0.085602
0.548492 0.128235 0.087128
0.661591 0.130341 0.088745
0.081482 0.174011 0.081482
0.122559 0.176208 0.082733
0.178589 0.178589 0.084076
0.253815 0.181183 0.085541
0.344971 0.183929 0.087067
0.447754 0.186829 0.088684
0.557983 0.189850 0.090363
0.671478 0.192993 0.092102
0.084045 0.250458 0.084045
0.126129 0.253723 0.085480
0.183838 0.257172 0.087036
0.260773 0.260773 0.088623
0.353241 0.264496 0.090302
0.457092 0.268341 0.092010
0.567963 0.272308 0.093811
0.681610 0.276276 0.095612
0.086975 0.344696 0.086975
0.130157 0.348816 0.088593
0.189636 0.353088 0.090240
0.268188 0.357513 0.091949
0.362030 0.362030 0.093750
0.466736 0.366577 0.095551
0.578094 0.371216 0.097382
0.691711 0.375732 0.099213
0.090179 0.451965 0.090179
0.134552 0.456757 0.091919
0.195831 0.461639 0.093689
0.276031 0.466583 0.095490
0.371002 0.471527 0.097290
0.476471 0.476471 0.099152
0.588104 0.481384 0.100983
0.701630 0.486145 0.102783
0.093628 0.567444 0.093628
0.139191 0.572601 0.095428
0.202301 0.577728 0.097260
0.283966 0.582855 0.099091
0.379974 0.587921 0.100922
0.485992 0.592865 0.102722
0.597656 0.597656 0.104492
0.710938 0.602295 0.106262
0.097198 0.686096 0.097198
0.144012 0.691223 0.099030
0.208832 0.696350 0.100861
0.291779 0.701294 0.102661
0.388641 0.706116 0.104431
0.495026 0.710785 0.106201
0.606567 0.715179 0.107880
0.719391 0.719391 0.109467
0.078033 0.078033 0.116577
0.117584 0.078827 0.117584
0.170959 0.079742 0.118774
0.243286 0.080811 0.120117
0.331818 0.082001 0.121643
0.432526 0.083313 0.123322
0.541290 0.084686 0.125122
0.653961 0.086182 0.127045
0.079712 0.118744 0.118744
0.120087 0.120087 0.120087
0.174835 0.121582 0.121582
0.248749 0.123260 0.123260
0.338684 0.125061 0.125061
0.440582 0.126984 0.126984
0.550232 0.129028 0.129028
0.663361 0.131165 0.131165
0.081940 0.174774 0.121552
0.123169 0.177063 0.123169
0.179535 0.179535 0.125000
0.255035 0.182159 0.126923
0.346466 0.184967 0.128937
0.449463 0.187927 0.131104
0.559814 0.190979 0.133301
0.673309 0.194122 0.135620
0.084564 0.251648 0.124939
0.126862 0.254944 0.126862
0.184875 0.258453 0.128845
0.262085 0.262085 0.131012
0.354889 0.265900 0.133240
0.458893 0.269775 0.135529
0.569824 0.273743 0.137909
0.683472 0.277740 0.140320
0.087555 0.346222 0.128784
0.130920 0.350372 0.130920
0.190765 0.354736 0.133148
0.269653 0.359161 0.135468
0.363739 0.363739 0.137817
0.468567 0.368256 0.140228
0.579956 0.372864 0.142700
0.693604 0.377380 0.145172
0.090820 0.453705 0.133087
0.135376 0.458557 0.135376
0.197021 0.463470 0.137756
0.277466 0.468414 0.140167
0.372711 0.473389 0.142639
0.478271 0.478271 0.145050
0.589935 0.483124 0.147552
0.703400 0.487823 0.149963
0.094299 0.569305 0.137665
0.140076 0.574463 0.140076
0.203491 0.579590 0.142517
0.285461 0.584717 0.144989
0.381592 0.589691 0.147430
0.487701 0.594635 0.149902
0.599365 0.599365 0.152252
0.712585 0.603943 0.154602
0.097870 0.687988 0.142456
0.144928 0.693115 0.144928
0.210022 0.698120 0.147369
0.293243 0.703125 0.149811
0.390198 0.707855 0.152191
0.496613 0.712433 0.154541
0.608093 0.716766 0.156769
0.720856 0.720856 0.158905
0.078278 0.078278 0.168427
0.118011 0.079132 0.169922
0.171600 0.080109 0.171600
0.244232 0.081238 0.173584
0.333008 0.082458 0.175720
0.433960 0.083832 0.178101
0.542938 0.085236 0.180664
0.655670 0.086731 0.183380
0.080078 0.119202 0.171570
0.120605 0.120605 0.173523
0.175659 0.122162 0.175659
0.249847 0.123901 0.178009
0.340057 0.125732 0.180542
0.442200 0.127716 0.183289
0.551941 0.129761 0.186127
0.665222 0.131989 0.189117
0.082367 0.175568 0.175568
0.123840 0.177917 0.177917
0.180450 0.180450 0.180450
0.256348 0.183197 0.183197
0.347992 0.186035 0.186035
0.451172 0.189026 0.189026
0.561676 0.192108 0.192108
0.675232 0.195312 0.195312
0.085083 0.252869 0.180389
0.127594 0.256195 0.183075
0.185944 0.259796 0.185944
0.263458 0.263458 0.188904
0.356506 0.267303 0.192017
0.460663 0.271240 0.195190
0.571716 0.275208 0.198425
0.685394 0.279266 0.201752
0.088165 0.347717 0.185852
0.131744 0.351929 0.188812
0.191895 0.356354 0.191895
0.271088 0.360809 0.195099
0.365387 0.365387 0.198334
0.470367 0.369934 0.201599
0.581818 0.374542 0.204926
0.695465 0.379089 0.208252
0.091461 0.455475 0.191803
0.136230 0.460327 0.195007
0.198242 0.465302 0.198242
0.278992 0.470215 0.201508
0.374390 0.475189 0.204834
0.480072 0.480072 0.208160
0.591736 0.484863 0.211456
0.705170 0.489532 0.214691
0.094940 0.571228 0.198120
0.140991 0.576385 0.201416
0.204742 0.581451 0.204742
0.286896 0.586578 0.208069
0.383270 0.591583 0.211365
0.489410 0.596405 0.214600
0.601105 0.601105 0.217712
0.714203 0.605560 0.220764
0.098541 0.689850 0.204620
0.145813 0.694977 0.207947
0.211243 0.699982 0.211243
0.294647 0.704865 0.214478
0.391724 0.709534 0.217621
0.498169 0.714050 0.220673
0.609650 0.718292 0.223572
0.722260 0.722260 0.226288
0.078613 0.078613 0.238312
0.118439 0.079498 0.240326
0.172302 0.080536 0.242584
0.245178 0.081665 0.245178
0.334290 0.082947 0.248047
0.435394 0.084320 0.251129
0.544525 0.085785 0.254395
0.657379 0.087341 0.257874
0.080505 0.119690 0.242523
0.121185 0.121185 0.245087
0.176483 0.122772 0.247894
0.251007 0.124542 0.251007
0.341492 0.126434 0.254272
0.443817 0.128448 0.257751
0.553772 0.130585 0.261353
0.667053 0.132782 0.265106
0.082855 0.176422 0.247833
0.124481 0.178833 0.250916
0.181427 0.181427 0.254150
0.257629 0.184235 0.257629
0.349518 0.187103 0.261200
0.452942 0.190125 0.264984
0.563538 0.193268 0.268860
0.677094 0.196472 0.272797
0.085632 0.254028 0.254028
0.128296 0.257477 0.257477
0.187012 0.261108 0.261108
0.264862 0.264862 0.264862
0.358124 0.268738 0.268738
0.462494 0.272675 0.272675
0.573578 0.276672 0.276672
0.687317 0.280731 0.280731
0.088745 0.349274 0.260986
0.132568 0.353546 0.264740
0.193085 0.357971 0.268585
0.272522 0.362457 0.272522
0.367065 0.367065 0.276550
0.472229 0.371613 0.280579
0.583710 0.376221 0.284637
0.697327 0.380737 0.288605
0.092102 0.457275 0.268494
0.137115 0.462128 0.272430
0.199463 0.467072 0.276428
0.280426 0.472046 0.280426
0.376038 0.476990 0.284485
0.481812 0.481812 0.288483
0.593506 0.486603 0.292419
0.706879 0.491241 0.296265
0.095612 0.573090 0.276276
0.141876 0.578247 0.280334
0.205963 0.583374 0.284363
0.288361 0.588379 0.288361
0.384888 0.593323 0.292297
0.491089 0.598145 0.296143
0.602783 0.602783 0.299896
0.715790 0.607147 0.303436
0.099213 0.691711 0.284210
0.146729 0.696838 0.288239
0.212433 0.701782 0.292175
0.296021 0.706604 0.296021
0.393219 0.711212 0.299774
0.499725 0.715637 0.303314
0.611145 0.719788 0.306702
0.723663 0.723663 0.309875
0.078918 0.078918 0.323761
0.118896 0.079865 0.326233
0.173035 0.080933 0.329010
0.246185 0.082123 0.332123
0.335541 0.083435 0.335541
0.436890 0.084839 0.339172
0.546204 0.086365 0.343079
0.659149 0.087921 0.347137
0.080872 0.120209 0.328918
0.121735 0.121735 0.332031
0.177368 0.123444 0.335419
0.252197 0.125244 0.339050
0.342957 0.127167 0.342957
0.445465 0.129211 0.347015
0.555573 0.131378 0.351227
0.668884 0.133606 0.355591
0.083344 0.177277 0.335327
0.125183 0.179810 0.338959
0.182434 0.182434 0.342804
0.258942 0.185242 0.346863
0.351074 0.188171 0.351074
0.454681 0.191254 0.355469
0.565369 0.194458 0.359894
0.678986 0.197693 0.364471
0.086182 0.255280 0.342682
0.129089 0.258820 0.346741
0.188110 0.262482 0.350952
0.266266 0.266266 0.355316
0.359772 0.270172 0.359772
0.464264 0.274139 0.364319
0.575500 0.278168 0.368896
0.689178 0.282196 0.373444
0.089355 0.350830 0.350830
0.133392 0.355164 0.355164
0.194244 0.359619 0.359619
0.274017 0.364197 0.364197
0.368713 0.368713 0.368713
0.474030 0.373322 0.373322
0.585571 0.377869 0.377869
0.699158 0.382355 0.382355
0.092743 0.459045 0.359497
0.138000 0.463959 0.363983
0.200623 0.468933 0.368561
0.281921 0.473846 0.373138
0.377747 0.478760 0.377747
0.483582 0.483582 0.382202
0.595276 0.488342 0.386597
0.708618 0.492920 0.390900
0.096283 0.575012 0.368439
0.142792 0.580139 0.373016
0.207153 0.585236 0.377594
0.289825 0.590240 0.382050
0.386475 0.595154 0.386475
0.492767 0.599823 0.390778
0.604401 0.604401 0.394867
0.717316 0.608643 0.398773
0.099884 0.693604 0.377380
0.147614 0.698639 0.381897
0.213593 0.703552 0.386322
0.297424 0.708313 0.390625
0.394775 0.712921 0.394775
0.501221 0.717163 0.398621
0.612579 0.721252 0.402374
0.724945 0.724945 0.405762
0.079224 0.079224 0.420868
0.119385 0.080231 0.423737
0.173767 0.081360 0.426971
0.247223 0.082611 0.430511
0.336853 0.083954 0.434357
0.438446 0.085388 0.438446
0.547882 0.086914 0.442780
0.660919 0.088531 0.447296
0.081329 0.120758 0.426819
0.122345 0.122345 0.430389
0.178253 0.124084 0.434235
0.253387 0.125946 0.438324
0.344421 0.127899 0.442657
0.447144 0.130005 0.447144
0.557343 0.132172 0.451813
0.670746 0.134460 0.456604
0.083862 0.178192 0.434082
0.125854 0.180725 0.438171
0.183472 0.183472 0.442474
0.260254 0.186310 0.446960
0.352722 0.189331 0.451660
0.456451 0.192444 0.456451
0.567261 0.195648 0.461334
0.680908 0.198883 0.466248
0.086731 0.256561 0.442322
0.129852 0.260132 0.446838
0.189209 0.263855 0.451477
0.267700 0.267700 0.456299
0.361420 0.271606 0.461151
0.466125 0.275604 0.466125
0.577362 0.279633 0.471039
0.691071 0.283661 0.476013
0.089966 0.352386 0.451324
0.134216 0.356812 0.456146
0.195404 0.361267 0.460968
0.275482 0.365845 0.465942
0.370392 0.370392 0.470886
0.475830 0.375000 0.475830
0.587372 0.379486 0.480713
0.700958 0.383972 0.485504
0.093384 0.460846 0.460846
0.138855 0.465759 0.465759
0.201874 0.470703 0.470703
0.283447 0.475708 0.475708
0.379364 0.480530 0.480530
0.485352 0.485352 0.485352
0.597046 0.490021 0.490021
0.710327 0.494568 0.494568
0.096954 0.576874 0.470551
0.143707 0.582031 0.475494
0.208374 0.587067 0.480377
0.291260 0.592041 0.485168
0.388062 0.596863 0.489868
0.494385 0.601532 0.494385
0.605957 0.605957 0.498718
0.718842 0.610199 0.502838
0.100555 0.695496 0.480255
0.148529 0.700500 0.485046
0.214813 0.705353 0.489716
0.298798 0.709991 0.494263
0.396179 0.714478 0.498596
0.502686 0.718689 0.502686
0.613983 0.722626 0.506531
0.726257 0.726257 0.510040
0.079590 0.079590 0.525879
0.119873 0.080627 0.529022
0.174530 0.081818 0.532562
0.248322 0.083069 0.536407
0.338196 0.084473 0.540588
0.440002 0.085938 0.545013
0.549591 0.087494 0.549591
0.662750 0.089111 0.554382
0.081757 0.121338 0.532471
0.122955 0.122955 0.536285
0.179199 0.124756 0.540466
0.254608 0.126617 0.544830
0.345917 0.128662 0.549438
0.448822 0.130798 0.554260
0.559174 0.132996 0.559174
0.672638 0.135284 0.564209
0.084381 0.179077 0.540283
0.126556 0.181702 0.544678
0.184509 0.184509 0.549316
0.261627 0.187408 0.554047
0.354279 0.190430 0.559021
0.458191 0.193604 0.564056
0.569183 0.196808 0.569183
0.682770 0.200073 0.574280
0.087341 0.257874 0.549103
0.130646 0.261505 0.553925
0.190338 0.265228 0.558838
0.269135 0.269135 0.563873
0.363068 0.273071 0.569000
0.467896 0.277069 0.574127
0.579315 0.281128 0.579315
0.692963 0.285156 0.584381
0.090576 0.354004 0.558685
0.135071 0.358429 0.563721
0.196564 0.362946 0.568787
0.276978 0.367523 0.573944
0.372101 0.372101 0.579132
0.477631 0.376648 0.584198
0.589233 0.381165 0.589233
0.702728 0.385590 0.594147
0.094055 0.462616 0.568634
0.139771 0.467621 0.573822
0.203064 0.472534 0.578949
0.284882 0.477509 0.584076
0.381012 0.482300 0.589081
0.487122 0.487122 0.593994
0.598785 0.491699 0.598785
0.711975 0.496185 0.603363
0.097626 0.578735 0.578735
0.144562 0.583832 0.583832
0.209595 0.588898 0.588898
0.292694 0.593811 0.593811
0.389648 0.598633 0.598633
0.496033 0.603210 0.603210
0.607574 0.607574 0.607574
0.720367 0.611664 0.611664
0.101227 0.697327 0.588776
0.149384 0.702271 0.593658
0.215973 0.707092 0.598480
0.300140 0.711670 0.603027
0.397644 0.716064 0.607452
0.504120 0.720154 0.611511
0.615356 0.724030 0.615356
0.727478 0.727478 0.618805
0.079956 0.079956 0.634918
0.120422 0.081024 0.638245
0.175354 0.082245 0.641998
0.249451 0.083557 0.646027
0.339569 0.084991 0.650330
0.441650 0.086517 0.654907
0.551331 0.088074 0.659607
0.664551 0.089752 0.664551
0.082214 0.121918 0.641876
0.123596 0.123596 0.645874
0.180115 0.125427 0.650177
0.255859 0.127350 0.654724
0.347412 0.129425 0.659454
0.450531 0.131592 0.664368
0.561035 0.133850 0.669403
0.674530 0.136169 0.674530
0.084900 0.180023 0.650024
0.127289 0.182709 0.654572
0.185547 0.185547 0.659332
0.262970 0.188507 0.664215
0.355927 0.191620 0.669250
0.459991 0.194763 0.674347
0.571045 0.198029 0.679535
0.684692 0.201294 0.684692
0.087921 0.259155 0.659149
0.131439 0.262848 0.664032
0.191467 0.266632 0.669037
0.270569 0.270569 0.674164
0.364777 0.274536 0.679352
0.469727 0.278595 0.684540
0.581177 0.282593 0.689697
0.694794 0.286621 0.694794
0.091217 0.355591 0.668884
0.135925 0.360077 0.674011
0.197784 0.364594 0.679169
0.278442 0.369171 0.684357
0.373810 0.373810 0.689545
0.479401 0.378326 0.694641
0.591064 0.382843 0.699677
0.704498 0.387207 0.704498
0.094696 0.464447 0.678986
0.140656 0.469391 0.684174
0.204254 0.474365 0.689331
0.286377 0.479248 0.694458
0.382660 0.484070 0.699463
0.488800 0.488800 0.704376
0.600464 0.493378 0.709076
0.713623 0.497742 0.713623
0.098297 0.580658 0.689178
0.145477 0.585693 0.694275
0.210785 0.590729 0.699310
0.294128 0.595612 0.704224
0.391144 0.600311 0.708923
0.497620 0.604828 0.713501
0.609100 0.609100 0.717743
0.721771 0.613098 0.721771
0.101898 0.699158 0.699158
0.150269 0.704041 0.704041
0.217102 0.708771 0.708771
0.301453 0.713318 0.713318
0.399048 0.717621 0.717621
0.505524 0.721619 0.721619
0.616669 0.725311 0.725311
0.728668 0.728668 0.728668
