3d-lut/luts/Trent 18.CUBE
#Created by: Adobe Photoshop Export Color Lookup Plugin
#Copyright: (C) Copyright 2017 RocketStock
TITLE "Cool Grey"
#LUT size
LUT_3D_SIZE 32
#data domain
DOMAIN_MIN 0.0 0.0 0.0
DOMAIN_MAX 1.0 1.0 1.0
#LUT data points
0.077789 0.077789 0.077789
0.086792 0.077942 0.077942
0.096283 0.078125 0.078125
0.106384 0.078308 0.078308
0.117218 0.078522 0.078522
0.128876 0.078735 0.078735
0.141541 0.078949 0.078949
0.155334 0.079163 0.079163
0.170319 0.079407 0.079407
0.186615 0.079651 0.079651
0.204071 0.079895 0.079895
0.222687 0.080139 0.080139
0.242371 0.080414 0.080414
0.263062 0.080688 0.080688
0.284729 0.080963 0.080963
0.307251 0.081268 0.081268
0.330627 0.081543 0.081543
0.354797 0.081879 0.081879
0.379608 0.082184 0.082184
0.405090 0.082520 0.082520
0.431152 0.082825 0.082825
0.457703 0.083160 0.083160
0.484680 0.083466 0.083466
0.512054 0.083832 0.083832
0.539734 0.084167 0.084167
0.567688 0.084534 0.084534
0.595795 0.084900 0.084900
0.623993 0.085266 0.085266
0.652313 0.085632 0.085632
0.680573 0.085999 0.085999
0.708923 0.086395 0.086395
0.737244 0.086761 0.086761
0.078125 0.086975 0.078125
0.087189 0.087189 0.078308
0.096710 0.087372 0.078522
0.106873 0.087585 0.078705
0.117737 0.087830 0.078949
0.129486 0.088043 0.079163
0.142212 0.088318 0.079407
0.156067 0.088562 0.079620
0.171173 0.088806 0.079895
0.187561 0.089111 0.080139
0.205109 0.089386 0.080414
0.223816 0.089661 0.080688
0.243591 0.089966 0.080963
0.264404 0.090240 0.081268
0.286102 0.090576 0.081543
0.308746 0.090881 0.081848
0.332214 0.091217 0.082153
0.356476 0.091553 0.082489
0.381348 0.091888 0.082794
0.406891 0.092224 0.083130
0.433014 0.092590 0.083466
0.459595 0.092926 0.083832
0.486664 0.093323 0.084167
0.514130 0.093689 0.084534
0.541840 0.094055 0.084869
0.569824 0.094452 0.085236
0.597992 0.094879 0.085632
0.626251 0.095245 0.085999
0.654541 0.095673 0.086395
0.682861 0.096069 0.086761
0.711212 0.096466 0.087158
0.739594 0.096893 0.087555
0.078522 0.096710 0.078522
0.087585 0.096954 0.078705
0.097168 0.097168 0.078918
0.107361 0.097412 0.079132
0.118317 0.097687 0.079376
0.130127 0.097961 0.079620
0.142914 0.098236 0.079865
0.156860 0.098511 0.080109
0.172089 0.098816 0.080414
0.188538 0.099121 0.080688
0.206207 0.099426 0.080933
0.225006 0.099731 0.081238
0.244873 0.100067 0.081543
0.265747 0.100403 0.081848
0.287598 0.100739 0.082153
0.310303 0.101105 0.082458
0.333893 0.101471 0.082794
0.358154 0.101837 0.083130
0.383118 0.102203 0.083466
0.408783 0.102600 0.083832
0.434967 0.102997 0.084137
0.461609 0.103363 0.084503
0.488739 0.103790 0.084869
0.516266 0.104187 0.085236
0.544006 0.104614 0.085602
0.572021 0.105042 0.085999
0.600220 0.105469 0.086365
0.628510 0.105896 0.086731
0.656860 0.106354 0.087128
0.685181 0.106781 0.087524
0.713593 0.107239 0.087952
0.741974 0.107697 0.088348
0.078918 0.107086 0.078918
0.088043 0.107361 0.079132
0.097687 0.107635 0.079376
0.107910 0.107910 0.079620
0.118896 0.108215 0.079865
0.130798 0.108521 0.080109
0.143707 0.108826 0.080414
0.157715 0.109161 0.080658
0.173065 0.109497 0.080933
0.189636 0.109833 0.081238
0.207367 0.110168 0.081512
0.226288 0.110535 0.081848
0.246246 0.110931 0.082153
0.267212 0.111298 0.082458
0.289124 0.111664 0.082794
0.311920 0.112061 0.083099
0.335571 0.112457 0.083435
0.359955 0.112885 0.083801
0.385010 0.113312 0.084137
0.410706 0.113708 0.084503
0.436951 0.114136 0.084869
0.463715 0.114594 0.085205
0.490875 0.115051 0.085602
0.518402 0.115509 0.085999
0.546234 0.115967 0.086365
0.574310 0.116425 0.086731
0.602509 0.116882 0.087128
0.630829 0.117371 0.087524
0.659210 0.117859 0.087921
0.687561 0.118347 0.088318
0.715973 0.118866 0.088745
0.744354 0.119354 0.089142
0.079376 0.118286 0.079376
0.088562 0.118591 0.079620
0.098206 0.118896 0.079865
0.108521 0.119232 0.080109
0.119568 0.119568 0.080383
0.131531 0.119904 0.080658
0.144501 0.120270 0.080933
0.158630 0.120636 0.081238
0.174072 0.121033 0.081512
0.190704 0.121399 0.081848
0.208588 0.121796 0.082123
0.227570 0.122223 0.082458
0.247650 0.122620 0.082764
0.268707 0.123047 0.083099
0.290741 0.123505 0.083435
0.313599 0.123932 0.083771
0.337341 0.124359 0.084106
0.361816 0.124847 0.084503
0.386932 0.125305 0.084839
0.412689 0.125763 0.085205
0.439056 0.126251 0.085602
0.465820 0.126740 0.085968
0.493042 0.127228 0.086365
0.520630 0.127747 0.086731
0.548492 0.128235 0.087128
0.576630 0.128754 0.087524
0.604828 0.129272 0.087921
0.633179 0.129822 0.088318
0.661591 0.130341 0.088745
0.689941 0.130890 0.089142
0.718384 0.131439 0.089569
0.746826 0.132019 0.089996
0.079834 0.130402 0.079834
0.089050 0.130768 0.080109
0.098785 0.131134 0.080383
0.109131 0.131500 0.080658
0.120270 0.131897 0.080933
0.132294 0.132294 0.081238
0.145355 0.132690 0.081512
0.159607 0.133118 0.081818
0.175110 0.133545 0.082123
0.191895 0.134003 0.082458
0.209839 0.134430 0.082764
0.228943 0.134888 0.083099
0.249115 0.135345 0.083435
0.270264 0.135834 0.083771
0.292358 0.136322 0.084106
0.315338 0.136810 0.084473
0.339142 0.137329 0.084839
0.363739 0.137817 0.085205
0.388947 0.138336 0.085571
0.414734 0.138885 0.085968
0.441132 0.139435 0.086334
0.467987 0.139954 0.086700
0.495300 0.140533 0.087097
0.522919 0.141083 0.087494
0.550812 0.141632 0.087921
0.578979 0.142212 0.088318
0.607208 0.142792 0.088715
0.635620 0.143372 0.089142
0.664001 0.143982 0.089539
0.692413 0.144562 0.089966
0.720856 0.145203 0.090393
0.749298 0.145782 0.090851
0.080383 0.143646 0.080383
0.089600 0.144043 0.080627
0.099396 0.144470 0.080902
0.109802 0.144897 0.081207
0.121002 0.145325 0.081512
0.133087 0.145782 0.081818
0.146271 0.146271 0.082123
0.160614 0.146729 0.082428
0.176239 0.147217 0.082764
0.193115 0.147705 0.083069
0.211182 0.148224 0.083435
0.230377 0.148743 0.083771
0.250610 0.149261 0.084106
0.271912 0.149811 0.084473
0.294067 0.150360 0.084808
0.317139 0.150940 0.085175
0.341034 0.151459 0.085571
0.365662 0.152039 0.085938
0.390961 0.152618 0.086304
0.416840 0.153229 0.086700
0.443298 0.153809 0.087097
0.470215 0.154419 0.087494
0.497528 0.155060 0.087891
0.525238 0.155670 0.088287
0.553192 0.156281 0.088715
0.581360 0.156952 0.089111
0.609650 0.157562 0.089539
0.638031 0.158234 0.089966
0.666473 0.158905 0.090393
0.694885 0.159546 0.090820
0.723328 0.160217 0.091248
0.751770 0.160889 0.091675
0.080902 0.158112 0.080902
0.090210 0.158569 0.081207
0.100037 0.159088 0.081482
0.110504 0.159576 0.081787
0.121765 0.160065 0.082092
0.133972 0.160583 0.082428
0.147217 0.161102 0.082764
0.161652 0.161652 0.083069
0.177399 0.162170 0.083405
0.194366 0.162750 0.083771
0.212555 0.163330 0.084106
0.231842 0.163940 0.084442
0.252197 0.164490 0.084778
0.273560 0.165131 0.085175
0.295837 0.165741 0.085571
0.319000 0.166351 0.085938
0.342987 0.166992 0.086304
0.367676 0.167633 0.086670
0.393005 0.168274 0.087067
0.419006 0.168945 0.087463
0.445496 0.169617 0.087860
0.472473 0.170258 0.088287
0.499878 0.170959 0.088715
0.527588 0.171661 0.089111
0.555603 0.172363 0.089508
0.583801 0.173065 0.089966
0.612122 0.173767 0.090363
0.640533 0.174500 0.090790
0.668945 0.175232 0.091248
0.697357 0.175964 0.091644
0.725830 0.176697 0.092102
0.754272 0.177429 0.092529
0.081482 0.174011 0.081482
0.090820 0.174530 0.081787
0.100677 0.175079 0.082092
0.111237 0.175629 0.082397
0.122559 0.176208 0.082733
0.134857 0.176788 0.083038
0.148193 0.177368 0.083374
0.162750 0.177979 0.083740
0.178589 0.178589 0.084076
0.195679 0.179230 0.084442
0.213959 0.179871 0.084778
0.233368 0.180511 0.085175
0.253815 0.181183 0.085541
0.275299 0.181854 0.085907
0.297668 0.182526 0.086304
0.320892 0.183228 0.086670
0.344971 0.183929 0.087067
0.369751 0.184631 0.087463
0.395142 0.185333 0.087860
0.421204 0.186066 0.088287
0.447754 0.186829 0.088684
0.474792 0.187561 0.089111
0.502228 0.188293 0.089508
0.529968 0.189056 0.089935
0.557983 0.189850 0.090363
0.586273 0.190613 0.090790
0.614563 0.191376 0.091217
0.643036 0.192169 0.091644
0.671478 0.192993 0.092102
0.699890 0.193756 0.092529
0.728363 0.194550 0.092987
0.756836 0.195374 0.093414
0.082092 0.191223 0.082092
0.091461 0.191803 0.082367
0.101379 0.192444 0.082733
0.112000 0.193054 0.083038
0.123413 0.193695 0.083374
0.135773 0.194366 0.083740
0.149200 0.195007 0.084045
0.163910 0.195648 0.084442
0.179840 0.196350 0.084778
0.197021 0.197021 0.085144
0.215424 0.197784 0.085510
0.234955 0.198486 0.085907
0.255493 0.199158 0.086273
0.277008 0.199921 0.086670
0.299530 0.200684 0.087067
0.322815 0.201416 0.087463
0.346985 0.202209 0.087860
0.371796 0.202972 0.088257
0.397339 0.203796 0.088654
0.423431 0.204559 0.089081
0.450043 0.205353 0.089508
0.477142 0.206177 0.089905
0.504608 0.207001 0.090332
0.532379 0.207794 0.090759
0.560455 0.208649 0.091217
0.588715 0.209473 0.091644
0.617065 0.210327 0.092072
0.645538 0.211151 0.092529
0.673950 0.211975 0.092957
0.702423 0.212860 0.093414
0.730927 0.213715 0.093842
0.759338 0.214569 0.094299
0.082703 0.209747 0.082703
0.092133 0.210419 0.083038
0.102112 0.211090 0.083374
0.112793 0.211761 0.083710
0.124268 0.212463 0.084045
0.136719 0.213196 0.084412
0.150269 0.213898 0.084747
0.165070 0.214661 0.085144
0.181122 0.215393 0.085510
0.198425 0.216156 0.085907
0.216919 0.216919 0.086243
0.236572 0.217712 0.086639
0.257202 0.218506 0.087036
0.278870 0.219299 0.087433
0.301392 0.220123 0.087830
0.324799 0.220947 0.088257
0.349030 0.221802 0.088654
0.373962 0.222595 0.089050
0.399536 0.223450 0.089478
0.425690 0.224304 0.089905
0.452332 0.225189 0.090302
0.479492 0.226044 0.090759
0.507019 0.226929 0.091217
0.534851 0.227814 0.091614
0.562958 0.228699 0.092041
0.591248 0.229584 0.092499
0.619629 0.230469 0.092926
0.648071 0.231384 0.093384
0.676483 0.232269 0.093842
0.704956 0.233185 0.094299
0.733459 0.234131 0.094757
0.761902 0.235016 0.095184
0.083374 0.229523 0.083374
0.092834 0.230225 0.083710
0.102875 0.230988 0.084045
0.113586 0.231750 0.084412
0.125183 0.232513 0.084747
0.137726 0.233276 0.085114
0.151367 0.234070 0.085510
0.166260 0.234894 0.085876
0.182465 0.235718 0.086243
0.199890 0.236542 0.086639
0.218475 0.237366 0.087036
0.238220 0.238220 0.087433
0.258972 0.239044 0.087830
0.280701 0.239929 0.088226
0.303314 0.240784 0.088654
0.326843 0.241669 0.089050
0.351135 0.242554 0.089478
0.376099 0.243439 0.089874
0.401764 0.244385 0.090302
0.427979 0.245300 0.090729
0.454712 0.246185 0.091187
0.481873 0.247101 0.091614
0.509460 0.248077 0.092041
0.537323 0.248993 0.092499
0.565430 0.249939 0.092926
0.593750 0.250854 0.093384
0.622162 0.251831 0.093811
0.650604 0.252808 0.094269
0.679016 0.253723 0.094727
0.707520 0.254700 0.095184
0.735992 0.255707 0.095642
0.764435 0.256622 0.096069
0.084045 0.250458 0.084045
0.093536 0.251282 0.084412
0.103638 0.252075 0.084747
0.114471 0.252869 0.085114
0.126129 0.253723 0.085480
0.138763 0.254578 0.085876
0.152496 0.255402 0.086243
0.167542 0.256287 0.086639
0.183838 0.257172 0.087036
0.201355 0.258026 0.087433
0.220062 0.258942 0.087830
0.239868 0.259827 0.088226
0.260773 0.260773 0.088623
0.282562 0.261658 0.089050
0.305298 0.262573 0.089447
0.328888 0.263519 0.089874
0.353241 0.264496 0.090302
0.378326 0.265442 0.090698
0.404022 0.266388 0.091156
0.430328 0.267395 0.091614
0.457092 0.268341 0.092010
0.484314 0.269318 0.092468
0.511932 0.270325 0.092926
0.539795 0.271301 0.093384
0.567963 0.272308 0.093811
0.596283 0.273254 0.094269
0.624695 0.274292 0.094696
0.653137 0.275299 0.095154
0.681610 0.276276 0.095612
0.710083 0.277283 0.096069
0.738556 0.278320 0.096527
0.767029 0.279297 0.096985
0.084717 0.272522 0.084717
0.094299 0.273376 0.085114
0.104462 0.274261 0.085480
0.115356 0.275116 0.085846
0.127075 0.276031 0.086212
0.139832 0.276917 0.086609
0.153656 0.277832 0.087006
0.168793 0.278748 0.087402
0.185242 0.279694 0.087830
0.202881 0.280609 0.088226
0.221680 0.281586 0.088623
0.241608 0.282501 0.089020
0.262573 0.283508 0.089447
0.284485 0.284485 0.089874
0.307312 0.285492 0.090271
0.330963 0.286469 0.090698
0.355438 0.287476 0.091156
0.380554 0.288483 0.091583
0.406311 0.289459 0.092010
0.432648 0.290527 0.092468
0.459473 0.291534 0.092896
0.486755 0.292542 0.093353
0.514374 0.293579 0.093781
0.542328 0.294617 0.094238
0.570465 0.295685 0.094696
0.598816 0.296692 0.095123
0.627228 0.297760 0.095612
0.655670 0.298798 0.096069
0.684143 0.299835 0.096497
0.712616 0.300873 0.096985
0.741089 0.301941 0.097412
0.769592 0.302979 0.097900
0.085480 0.295624 0.085480
0.095093 0.296539 0.085846
0.105286 0.297485 0.086212
0.116272 0.298401 0.086578
0.128082 0.299347 0.086975
0.140930 0.300323 0.087402
0.154877 0.301270 0.087799
0.170135 0.302246 0.088196
0.186676 0.303223 0.088593
0.204407 0.304230 0.089020
0.223358 0.305237 0.089447
0.243378 0.306274 0.089844
0.264435 0.307281 0.090271
0.286438 0.308319 0.090698
0.309326 0.309326 0.091125
0.333069 0.310394 0.091553
0.357605 0.311462 0.092010
0.382812 0.312500 0.092438
0.408630 0.313568 0.092865
0.435028 0.314606 0.093353
0.461884 0.315674 0.093781
0.489227 0.316742 0.094238
0.516876 0.317810 0.094666
0.544830 0.318909 0.095123
0.572998 0.320007 0.095581
0.601349 0.321045 0.096039
0.629761 0.322144 0.096497
0.658264 0.323242 0.096954
0.686676 0.324310 0.097382
0.715149 0.325378 0.097870
0.743652 0.326508 0.098328
0.772064 0.327545 0.098785
0.086182 0.319702 0.086182
0.095856 0.320679 0.086578
0.106140 0.321655 0.086975
0.117188 0.322601 0.087372
0.129089 0.323639 0.087769
0.142029 0.324646 0.088196
0.156128 0.325684 0.088593
0.171478 0.326691 0.089020
0.188141 0.327728 0.089417
0.206024 0.328766 0.089844
0.225037 0.329865 0.090240
0.245148 0.330872 0.090668
0.266296 0.331970 0.091125
0.288422 0.333069 0.091553
0.311401 0.334137 0.091980
0.335236 0.335236 0.092438
0.359802 0.336334 0.092865
0.385040 0.337402 0.093323
0.410980 0.338531 0.093781
0.437408 0.339600 0.094208
0.464294 0.340729 0.094666
0.491699 0.341827 0.095123
0.519348 0.342957 0.095551
0.547333 0.344055 0.096008
0.575562 0.345184 0.096497
0.603882 0.346283 0.096924
0.632355 0.347412 0.097382
0.660797 0.348541 0.097870
0.689209 0.349640 0.098297
0.717712 0.350769 0.098755
0.746124 0.351837 0.099213
0.774628 0.352966 0.099670
0.086975 0.344696 0.086975
0.096680 0.345703 0.087372
0.107025 0.346741 0.087769
0.118134 0.347778 0.088165
0.130157 0.348816 0.088593
0.143188 0.349884 0.088989
0.157349 0.350952 0.089417
0.172852 0.352051 0.089813
0.189636 0.353088 0.090240
0.207611 0.354218 0.090668
0.226746 0.355316 0.091125
0.246948 0.356415 0.091522
0.268188 0.357513 0.091949
0.290405 0.358643 0.092438
0.313477 0.359772 0.092865
0.337372 0.360901 0.093292
0.362030 0.362030 0.093750
0.387329 0.363159 0.094177
0.413330 0.364319 0.094635
0.439789 0.365479 0.095123
0.466736 0.366577 0.095551
0.494141 0.367737 0.096008
0.521820 0.368896 0.096466
0.549896 0.370026 0.096924
0.578094 0.371216 0.097382
0.606415 0.372314 0.097839
0.634857 0.373444 0.098297
0.663300 0.374603 0.098755
0.691711 0.375732 0.099213
0.720215 0.376862 0.099670
0.748688 0.378021 0.100128
0.777130 0.379150 0.100586
0.087738 0.370453 0.087738
0.097504 0.371521 0.088165
0.107941 0.372620 0.088562
0.119110 0.373688 0.088989
0.131226 0.374786 0.089417
0.144348 0.375916 0.089813
0.158630 0.377014 0.090240
0.174286 0.378143 0.090637
0.191132 0.379242 0.091095
0.209259 0.380402 0.091522
0.228516 0.381531 0.091949
0.248810 0.382660 0.092407
0.270142 0.383850 0.092834
0.292419 0.385010 0.093292
0.315552 0.386139 0.093719
0.339539 0.387329 0.094177
0.364288 0.388489 0.094635
0.389679 0.389679 0.095093
0.415649 0.390839 0.095551
0.442169 0.391968 0.095978
0.469208 0.393158 0.096466
0.496613 0.394348 0.096893
0.524384 0.395538 0.097351
0.552368 0.396698 0.097809
0.580627 0.397858 0.098297
0.608948 0.399017 0.098724
0.637390 0.400177 0.099182
0.665863 0.401337 0.099670
0.694214 0.402496 0.100098
0.722717 0.403687 0.100586
0.751099 0.404816 0.101013
0.779602 0.405975 0.101501
0.088562 0.397003 0.088562
0.098389 0.398102 0.088959
0.108856 0.399261 0.089386
0.120117 0.400360 0.089813
0.132294 0.401489 0.090210
0.145538 0.402618 0.090637
0.159943 0.403778 0.091064
0.175690 0.404968 0.091522
0.192688 0.406097 0.091949
0.210907 0.407288 0.092377
0.230225 0.408508 0.092834
0.250671 0.409637 0.093262
0.272064 0.410858 0.093719
0.294464 0.412048 0.094147
0.317657 0.413208 0.094604
0.341736 0.414429 0.095062
0.366516 0.415619 0.095520
0.391937 0.416809 0.095978
0.417999 0.417999 0.096436
0.444580 0.419189 0.096863
0.471619 0.420410 0.097351
0.499084 0.421600 0.097809
0.526825 0.422760 0.098267
0.554871 0.423981 0.098724
0.583099 0.425201 0.099182
0.611450 0.426392 0.099640
0.639893 0.427551 0.100098
0.668304 0.428741 0.100555
0.696747 0.429901 0.101013
0.725159 0.431091 0.101471
0.753571 0.432220 0.101929
0.782013 0.433380 0.102386
0.089355 0.424194 0.089355
0.099243 0.425354 0.089783
0.109802 0.426514 0.090210
0.121124 0.427673 0.090637
0.133392 0.428864 0.091064
0.146729 0.430023 0.091492
0.161285 0.431213 0.091919
0.177155 0.432434 0.092377
0.194275 0.433624 0.092804
0.212555 0.434814 0.093262
0.232025 0.436035 0.093719
0.252502 0.437256 0.094147
0.274048 0.438446 0.094604
0.296509 0.439697 0.095062
0.319824 0.440857 0.095490
0.343933 0.442139 0.095947
0.368744 0.443298 0.096405
0.394257 0.444550 0.096863
0.420410 0.445770 0.097321
0.446960 0.446960 0.097778
0.474060 0.448212 0.098236
0.501526 0.449402 0.098724
0.529327 0.450623 0.099152
0.557373 0.451843 0.099609
0.585602 0.453033 0.100098
0.613953 0.454224 0.100525
0.642395 0.455444 0.101013
0.670776 0.456604 0.101440
0.699188 0.457794 0.101898
0.727600 0.458984 0.102356
0.756012 0.460114 0.102814
0.784424 0.461273 0.103241
0.090179 0.451965 0.090179
0.100128 0.453156 0.090607
0.110748 0.454376 0.091034
0.122162 0.455566 0.091492
0.134552 0.456757 0.091919
0.147949 0.457977 0.092346
0.162628 0.459198 0.092804
0.178619 0.460449 0.093231
0.195831 0.461639 0.093689
0.214264 0.462891 0.094147
0.233826 0.464142 0.094604
0.254425 0.465363 0.095032
0.276031 0.466583 0.095490
0.298523 0.467834 0.095947
0.321930 0.469055 0.096405
0.346100 0.470337 0.096863
0.371002 0.471527 0.097290
0.396576 0.472778 0.097778
0.422699 0.474030 0.098236
0.449371 0.475220 0.098694
0.476471 0.476471 0.099152
0.503967 0.477722 0.099609
0.531769 0.478912 0.100067
0.559814 0.480133 0.100525
0.588104 0.481384 0.100983
0.616425 0.482574 0.101440
0.644806 0.483765 0.101898
0.673218 0.484924 0.102325
0.701630 0.486145 0.102783
0.730042 0.487335 0.103241
0.758392 0.488495 0.103668
0.786804 0.489655 0.104126
0.091034 0.480255 0.091034
0.101044 0.481476 0.091461
0.111725 0.482697 0.091888
0.123230 0.483948 0.092316
0.135681 0.485168 0.092804
0.149231 0.486420 0.093231
0.164001 0.487671 0.093689
0.180084 0.488892 0.094116
0.197449 0.490173 0.094574
0.215973 0.491394 0.095032
0.235596 0.492676 0.095490
0.256317 0.493927 0.095947
0.277985 0.495178 0.096375
0.300598 0.496429 0.096832
0.324066 0.497681 0.097290
0.348297 0.498962 0.097778
0.373260 0.500183 0.098206
0.398865 0.501434 0.098663
0.425079 0.502686 0.099152
0.451752 0.503906 0.099609
0.478912 0.505188 0.100067
0.506409 0.506409 0.100525
0.534241 0.507629 0.100952
0.562286 0.508850 0.101410
0.590515 0.510040 0.101868
0.618835 0.511261 0.102325
0.647247 0.512482 0.102783
0.675629 0.513672 0.103210
0.704041 0.514862 0.103668
0.732391 0.516052 0.104126
0.760773 0.517151 0.104553
0.789124 0.518341 0.104980
0.091888 0.509003 0.091888
0.101959 0.510254 0.092316
0.112701 0.511475 0.092773
0.124268 0.512756 0.093201
0.136841 0.514038 0.093658
0.150482 0.515228 0.094086
0.165375 0.516541 0.094543
0.181580 0.517792 0.095001
0.199036 0.519043 0.095459
0.217682 0.520355 0.095917
0.237427 0.521576 0.096375
0.258209 0.522888 0.096832
0.279968 0.524139 0.097290
0.302673 0.525391 0.097748
0.326202 0.526672 0.098206
0.350525 0.527924 0.098663
0.375488 0.529175 0.099121
0.401154 0.530426 0.099579
0.427399 0.531677 0.100037
0.454132 0.532928 0.100494
0.481262 0.534210 0.100952
0.508820 0.535431 0.101410
0.536621 0.536621 0.101868
0.564697 0.537842 0.102295
0.592926 0.539062 0.102753
0.621277 0.540283 0.103210
0.649658 0.541473 0.103638
0.677979 0.542633 0.104095
0.706360 0.543823 0.104553
0.734741 0.545013 0.104980
0.763031 0.546143 0.105408
0.791412 0.547302 0.105835
0.092773 0.538116 0.092773
0.102875 0.539368 0.093201
0.113678 0.540619 0.093658
0.125366 0.541870 0.094086
0.138031 0.543213 0.094543
0.151764 0.544434 0.094971
0.166779 0.545746 0.095459
0.183136 0.547028 0.095917
0.200653 0.548279 0.096344
0.219421 0.549591 0.096802
0.239227 0.550812 0.097260
0.260101 0.552124 0.097717
0.281982 0.553406 0.098175
0.304688 0.554626 0.098663
0.328308 0.555939 0.099121
0.352692 0.557190 0.099579
0.377777 0.558411 0.100037
0.403442 0.559723 0.100494
0.429718 0.561005 0.100952
0.456451 0.562195 0.101379
0.483673 0.563477 0.101837
0.511169 0.564636 0.102295
0.539001 0.565887 0.102722
0.567078 0.567078 0.103210
0.595306 0.568298 0.103638
0.623657 0.569489 0.104095
0.652008 0.570679 0.104523
0.680328 0.571838 0.104950
0.708649 0.572998 0.105408
0.737030 0.574158 0.105835
0.765320 0.575287 0.106262
0.793671 0.576416 0.106689
0.093628 0.567444 0.093628
0.103821 0.568726 0.094086
0.114685 0.570007 0.094513
0.126434 0.571289 0.094971
0.139191 0.572601 0.095428
0.153076 0.573883 0.095886
0.168213 0.575165 0.096344
0.184631 0.576477 0.096802
0.202301 0.577728 0.097260
0.221130 0.579010 0.097717
0.241028 0.580292 0.098175
0.262024 0.581573 0.098633
0.283966 0.582855 0.099091
0.306763 0.584137 0.099548
0.330414 0.585388 0.100006
0.354858 0.586670 0.100464
0.379974 0.587921 0.100922
0.405731 0.589142 0.101379
0.432037 0.590393 0.101837
0.458771 0.591614 0.102264
0.485992 0.592865 0.102722
0.513519 0.594086 0.103180
0.541382 0.595276 0.103638
0.569458 0.596497 0.104095
0.597656 0.597656 0.104492
0.625977 0.598846 0.104950
0.654327 0.600006 0.105408
0.682587 0.601166 0.105804
0.710938 0.602295 0.106262
0.739258 0.603455 0.106689
0.767548 0.604553 0.107086
0.795807 0.605652 0.107513
0.094513 0.597015 0.094513
0.104736 0.598297 0.094971
0.115692 0.599579 0.095428
0.127563 0.600891 0.095856
0.140381 0.602203 0.096313
0.154358 0.603485 0.096771
0.169617 0.604767 0.097260
0.186127 0.606018 0.097687
0.203918 0.607330 0.098145
0.222839 0.608612 0.098633
0.242889 0.609863 0.099091
0.263916 0.611176 0.099518
0.285950 0.612427 0.100006
0.308838 0.613678 0.100464
0.332550 0.614960 0.100922
0.357025 0.616241 0.101379
0.382172 0.617432 0.101807
0.407959 0.618683 0.102264
0.434235 0.619904 0.102692
0.461090 0.621155 0.103180
0.488312 0.622375 0.103607
0.515869 0.623535 0.104065
0.543701 0.624756 0.104492
0.571777 0.625946 0.104950
0.599945 0.627075 0.105377
0.628235 0.628235 0.105804
0.656555 0.629395 0.106232
0.684845 0.630524 0.106659
0.713135 0.631653 0.107086
0.741425 0.632721 0.107483
0.769684 0.633820 0.107910
0.797943 0.634888 0.108307
0.095398 0.626678 0.095398
0.105713 0.627991 0.095856
0.116730 0.629242 0.096313
0.128662 0.630585 0.096771
0.141602 0.631866 0.097229
0.155670 0.633148 0.097687
0.171051 0.634430 0.098145
0.187683 0.635681 0.098602
0.205566 0.636993 0.099060
0.224609 0.638245 0.099518
0.244659 0.639526 0.099976
0.265808 0.640808 0.100433
0.287933 0.642090 0.100891
0.310852 0.643311 0.101349
0.334625 0.644562 0.101807
0.359131 0.645813 0.102234
0.384369 0.647034 0.102692
0.410156 0.648285 0.103149
0.436493 0.649445 0.103577
0.463318 0.650665 0.104034
0.490570 0.651886 0.104492
0.518127 0.653046 0.104919
0.545990 0.654205 0.105347
0.574036 0.655396 0.105804
0.602234 0.656494 0.106201
0.630524 0.657623 0.106659
0.658783 0.658783 0.107056
0.687012 0.659851 0.107483
0.715302 0.660950 0.107880
0.743530 0.662018 0.108276
0.771729 0.663055 0.108673
0.800018 0.664124 0.109100
0.096283 0.656372 0.096283
0.106659 0.657654 0.096771
0.117767 0.658966 0.097198
0.129761 0.660278 0.097687
0.142792 0.661530 0.098114
0.156982 0.662811 0.098572
0.172455 0.664124 0.099060
0.189209 0.665344 0.099487
0.207184 0.666656 0.099976
0.226318 0.667938 0.100433
0.246490 0.669189 0.100891
0.267700 0.670441 0.101318
0.289856 0.671692 0.101807
0.312866 0.672913 0.102234
0.336700 0.674164 0.102692
0.361237 0.675354 0.103149
