3d-lut/luts/Tweed 71.CUBE
#Created by: Adobe Photoshop Export Color Lookup Plugin
#Copyright: (C) Copyright 2017 RocketStock
TITLE "Untitled"
#LUT size
LUT_3D_SIZE 8
#data domain
#LUT data points
DOMAIN_MIN 0.000000 0.000000 0.000000
DOMAIN_MAX 0.903226 0.903226 0.903226
0.001678 0.001678 0.001678
0.100555 0.026611 0.017639
0.194977 0.027985 0.018188
0.306244 0.028595 0.018066
0.435547 0.028717 0.017456
0.573792 0.029266 0.017395
0.700989 0.031067 0.017395
0.799011 0.033813 0.018646
0.041107 0.088654 0.018097
0.103546 0.089264 0.018219
0.196747 0.089630 0.018005
0.307251 0.089752 0.017456
0.436829 0.090271 0.017395
0.576538 0.092194 0.017426
0.705994 0.096130 0.019196
0.805481 0.100494 0.021301
0.043701 0.181396 0.017883
0.105438 0.181458 0.017578
0.198242 0.181671 0.017395
0.309540 0.182617 0.017395
0.441620 0.185455 0.018066
0.584961 0.190826 0.020538
0.716919 0.197571 0.023712
0.817688 0.203552 0.026611
0.045624 0.291321 0.017395
0.107971 0.292114 0.017395
0.202667 0.294220 0.017792
0.317322 0.298401 0.019623
0.453461 0.304993 0.022675
0.599579 0.313293 0.026581
0.732361 0.321533 0.030640
0.832794 0.327881 0.033966
0.052795 0.425446 0.019226
0.117432 0.428528 0.020599
0.215393 0.433868 0.022980
0.333160 0.441010 0.026276
0.471527 0.449738 0.030457
0.617432 0.458588 0.034973
0.748352 0.465881 0.039154
0.846619 0.470673 0.042175
0.068085 0.577240 0.025940
0.134155 0.581604 0.028046
0.233521 0.588104 0.031219
0.351746 0.595428 0.035034
0.489014 0.602814 0.039307
0.631897 0.609161 0.043427
0.760498 0.614441 0.047028
0.857635 0.618286 0.049896
0.084534 0.717804 0.034088
0.150391 0.721710 0.036285
0.248779 0.726959 0.039490
0.365234 0.732208 0.042908
0.500916 0.737518 0.046600
0.642334 0.742706 0.050629
0.769836 0.747498 0.054810
0.866333 0.751312 0.058594
0.095215 0.822388 0.040375
0.160248 0.825287 0.042358
0.257751 0.829346 0.045166
0.373627 0.833740 0.048431
0.508728 0.838501 0.052460
0.649414 0.843597 0.057312
0.776428 0.848724 0.062836
0.872803 0.853424 0.068359
0.021545 0.014923 0.071198
0.101288 0.027039 0.078735
0.195404 0.028198 0.079102
0.306458 0.028656 0.078857
0.435699 0.028748 0.078278
0.574158 0.029480 0.078278
0.701721 0.031616 0.078491
0.800049 0.034698 0.079956
0.041595 0.088928 0.079071
0.103912 0.089386 0.079102
0.196960 0.089661 0.078766
0.307434 0.089783 0.078278
0.437164 0.090454 0.078278
0.577332 0.092804 0.078552
0.707123 0.097107 0.080566
0.806885 0.101746 0.082794
0.043884 0.181427 0.078644
0.105591 0.181488 0.078308
0.198486 0.181793 0.078278
0.310028 0.182983 0.078278
0.442596 0.186279 0.079315
0.586365 0.192017 0.082031
0.718536 0.198975 0.085358
0.819305 0.205017 0.088379
0.045959 0.291565 0.078278
0.108459 0.292511 0.078278
0.203552 0.294983 0.079010
0.318573 0.299500 0.081055
0.455048 0.306366 0.084259
0.601227 0.314850 0.088348
0.734039 0.323120 0.092529
0.834290 0.329315 0.095856
0.053894 0.426514 0.080597
0.118744 0.429749 0.082062
0.216980 0.435364 0.084595
0.334869 0.442627 0.088013
0.473267 0.451324 0.092285
0.619019 0.460083 0.096924
0.749603 0.467133 0.101105
0.847717 0.471802 0.104095
0.069702 0.578827 0.087708
0.135803 0.583221 0.089844
0.235138 0.589691 0.093109
0.353241 0.596893 0.096985
0.490295 0.604034 0.101288
0.633026 0.610229 0.105377
0.761475 0.615387 0.109009
0.858521 0.619232 0.112000
0.086029 0.719238 0.095978
0.151825 0.723083 0.098236
0.250000 0.728149 0.101410
0.366333 0.733246 0.104858
0.501953 0.738464 0.108612
0.643280 0.743622 0.112732
0.770660 0.748413 0.117096
0.867126 0.752319 0.121124
0.096313 0.823456 0.102325
0.161346 0.826355 0.104340
0.258789 0.830322 0.107147
0.374573 0.834625 0.110474
0.509674 0.839417 0.114655
0.650269 0.844574 0.119751
0.777191 0.849762 0.125580
0.873657 0.854767 0.131653
0.039185 0.026489 0.169922
0.102234 0.027557 0.170410
0.195953 0.028412 0.170563
0.306763 0.028656 0.170166
0.436035 0.028839 0.169739
0.574799 0.029907 0.169739
0.703003 0.032593 0.170441
0.801758 0.036133 0.172150
0.042236 0.089233 0.170593
0.104370 0.089539 0.170502
0.197235 0.089722 0.170074
0.307739 0.089874 0.169739
0.437805 0.090881 0.169739
0.578644 0.093811 0.170471
0.709015 0.098663 0.172852
0.809021 0.103638 0.175323
0.044159 0.181458 0.169922
0.105865 0.181549 0.169739
0.198944 0.182007 0.169739
0.310913 0.183655 0.169739
0.444183 0.187531 0.171387
0.588501 0.193848 0.174438
0.720947 0.201141 0.178070
0.821777 0.207336 0.181244
0.046570 0.292023 0.169739
0.109406 0.293274 0.169769
0.204987 0.296234 0.171082
0.320557 0.301239 0.173401
0.457489 0.308533 0.176910
0.603851 0.317169 0.181213
0.736511 0.325439 0.185547
0.836517 0.331482 0.188965
0.055695 0.428223 0.172882
0.120789 0.431702 0.174500
0.219238 0.437561 0.177246
0.337402 0.445007 0.180878
0.475830 0.453705 0.185303
0.621246 0.462219 0.190002
0.751312 0.468903 0.194183
0.849304 0.473389 0.197174
0.072113 0.581177 0.180542
0.138245 0.585632 0.182770
0.237549 0.592041 0.186127
0.355469 0.598999 0.190063
0.492096 0.605713 0.194336
0.634583 0.611725 0.198425
0.762878 0.616821 0.202179
0.859833 0.620575 0.205292
0.088165 0.721375 0.189087
0.153809 0.725037 0.191345
0.251709 0.729767 0.194458
0.367950 0.734711 0.197906
0.503479 0.739868 0.201782
0.644623 0.744965 0.206116
0.771912 0.749786 0.210785
0.868286 0.753784 0.215057
0.097961 0.825043 0.195404
0.162903 0.827850 0.197388
0.260254 0.831696 0.200256
0.375977 0.835938 0.203735
0.511047 0.840759 0.208130
0.651520 0.846008 0.213623
0.778442 0.851440 0.220001
0.874908 0.856750 0.226807
0.040405 0.027252 0.279327
0.103088 0.028046 0.279602
0.196472 0.028564 0.279510
0.307068 0.028687 0.278931
0.436462 0.029022 0.278748
0.575745 0.030548 0.278748
0.704712 0.033966 0.280151
0.803925 0.037994 0.282166
0.042847 0.089447 0.279602
0.104767 0.089630 0.279388
0.197510 0.089752 0.278870
0.308197 0.090057 0.278748
0.438751 0.091522 0.278748
0.580383 0.095215 0.280212
0.711365 0.100677 0.282959
0.811646 0.105988 0.285645
0.044434 0.181488 0.278748
0.106262 0.181702 0.278748
0.199585 0.182465 0.278748
0.312164 0.184631 0.279083
0.446259 0.189240 0.281281
0.591156 0.196136 0.284698
0.723846 0.203766 0.288605
0.824646 0.209991 0.291931
0.047455 0.292725 0.278748
0.110687 0.294342 0.279236
0.206879 0.297882 0.280884
0.323029 0.303436 0.283569
0.460388 0.311096 0.287384
0.606842 0.319916 0.291931
0.739258 0.328094 0.296417
0.838959 0.333893 0.299866
0.057922 0.430359 0.282990
0.123291 0.434113 0.284760
0.222076 0.440216 0.287720
0.340363 0.447845 0.291565
0.478729 0.456421 0.296173
0.623657 0.464569 0.300964
0.753296 0.470825 0.305084
0.851074 0.475189 0.308075
0.074921 0.584015 0.291229
0.141022 0.588379 0.293518
0.240265 0.594696 0.296997
0.357880 0.601318 0.301025
0.494171 0.607666 0.305237
0.636414 0.613434 0.309357
0.764496 0.618439 0.313293
0.861298 0.622223 0.316620
0.090546 0.723724 0.299988
0.155945 0.727173 0.302277
0.253662 0.731659 0.305389
0.369781 0.736389 0.308838
0.505157 0.741425 0.312866
0.646149 0.746552 0.317474
0.773346 0.751465 0.322571
0.869629 0.755554 0.327240
0.099823 0.826813 0.306305
0.164703 0.829529 0.308319
0.261932 0.833252 0.311249
0.377594 0.837494 0.314911
0.512573 0.842316 0.319641
0.652954 0.847687 0.325653
0.779968 0.853607 0.333008
0.876373 0.859192 0.340485
0.041473 0.027863 0.407074
0.103851 0.028351 0.407135
0.196899 0.028656 0.406830
0.307404 0.028748 0.406281
0.437103 0.029358 0.406281
0.577148 0.031586 0.406494
0.706909 0.035767 0.408630
0.806610 0.040314 0.411011
0.043365 0.089600 0.406952
0.105133 0.089691 0.406677
0.197845 0.089813 0.406281
0.308807 0.090393 0.406281
0.440094 0.092499 0.406433
0.582672 0.097076 0.408691
0.714233 0.103180 0.411865
0.814789 0.108765 0.414856
0.044830 0.181610 0.406281
0.106781 0.181946 0.406281
0.200562 0.183167 0.406281
0.313965 0.186096 0.407288
0.448853 0.191467 0.410004
0.594330 0.198914 0.413818
0.727173 0.206787 0.418030
0.827881 0.213013 0.421539
0.048767 0.293823 0.406525
0.112488 0.295929 0.407501
0.209259 0.300018 0.409515
0.326019 0.306122 0.412537
0.463806 0.314117 0.416687
0.610199 0.323029 0.421509
0.742279 0.330963 0.426117
0.841522 0.336456 0.429657
0.060669 0.433044 0.411926
0.126282 0.437042 0.413879
0.225342 0.443390 0.417114
0.343750 0.451019 0.421143
0.481934 0.459412 0.425873
0.626190 0.467072 0.430695
0.755432 0.472992 0.434784
0.853058 0.477173 0.437836
0.078094 0.587158 0.420776
0.144226 0.591522 0.423187
0.243225 0.597595 0.426727
0.360413 0.603790 0.430756
0.496460 0.609772 0.434967
0.638367 0.615326 0.439148
0.766296 0.620270 0.443329
0.862976 0.624054 0.446869
0.093109 0.726257 0.429779
0.158234 0.729431 0.431976
0.255829 0.733704 0.435089
0.371796 0.738281 0.438629
0.507080 0.743195 0.442841
0.647888 0.748383 0.447876
0.774963 0.753418 0.453430
0.871246 0.757782 0.458740
0.101837 0.828766 0.436035
0.166656 0.831390 0.438049
0.263824 0.835022 0.441132
0.379364 0.839233 0.445038
0.514282 0.844147 0.450256
0.654572 0.849731 0.456909
0.781677 0.856262 0.465485
0.878021 0.862122 0.473816
0.042389 0.028259 0.543915
0.104462 0.028564 0.543793
0.197296 0.028656 0.543335
0.307831 0.028870 0.543030
0.437988 0.029968 0.543030
0.579010 0.033020 0.543945
0.709503 0.037964 0.546570
0.809601 0.042908 0.549194
0.043762 0.089691 0.543518
0.105469 0.089752 0.543152
0.198303 0.089996 0.543030
0.309662 0.091003 0.543030
0.441895 0.093903 0.543854
0.585358 0.099274 0.546661
0.717407 0.105927 0.550140
0.818176 0.111816 0.553375
0.045319 0.181854 0.543030
0.107513 0.182465 0.543030
0.201874 0.184204 0.543182
0.316101 0.187897 0.544952
0.451904 0.194061 0.548126
0.597839 0.201965 0.552246
0.730652 0.209961 0.556641
0.831177 0.216187 0.560211
0.050507 0.295349 0.544006
0.114655 0.297882 0.545258
0.212036 0.302521 0.547546
0.329285 0.309082 0.550873
0.467438 0.317413 0.555267
0.613678 0.326233 0.560181
0.745239 0.333832 0.564819
0.843994 0.338898 0.568207
0.063690 0.436005 0.550171
0.129517 0.440216 0.552338
0.228821 0.446716 0.555695
0.347198 0.454315 0.559814
0.485077 0.462402 0.564545
0.628662 0.469482 0.569244
0.757660 0.475159 0.573242
0.855011 0.479187 0.576263
0.081360 0.590454 0.559448
0.147400 0.594696 0.561890
0.246124 0.600403 0.565399
0.362885 0.606140 0.569275
0.498749 0.611877 0.573395
0.640411 0.617310 0.577637
0.768066 0.622192 0.581909
0.864685 0.626038 0.585754
0.095490 0.728638 0.568329
0.160522 0.731659 0.570496
0.258026 0.735748 0.573517
0.373871 0.740204 0.577087
0.509003 0.745056 0.581451
0.649628 0.750305 0.586761
0.776642 0.755554 0.592773
0.872986 0.760406 0.598846
0.103882 0.830719 0.574432
0.168640 0.833252 0.576508
0.265717 0.836884 0.579681
0.381226 0.841095 0.583801
0.516083 0.846100 0.589325
0.656372 0.852081 0.596680
0.783447 0.859192 0.606262
0.879700 0.865204 0.614777
0.042999 0.028503 0.669250
0.104889 0.028656 0.669006
0.197601 0.028717 0.668457
0.308350 0.029114 0.668427
0.439087 0.030701 0.668427
0.581024 0.034607 0.670135
0.712158 0.040192 0.673004
0.812592 0.045563 0.675842
0.044098 0.089722 0.668640
0.105804 0.089813 0.668427
0.198853 0.090271 0.668427
0.310760 0.091766 0.668427
0.443878 0.095490 0.670013
0.588074 0.101562 0.673126
0.720520 0.108673 0.676819
0.821320 0.114685 0.680054
0.045929 0.182220 0.668427
0.108429 0.183167 0.668427
0.203461 0.185516 0.669159
0.318451 0.189880 0.671295
0.454895 0.196594 0.674683
0.601074 0.204834 0.678955
0.733826 0.212891 0.683319
0.834198 0.219025 0.686859
0.052368 0.297058 0.670166
0.116913 0.299957 0.671570
0.214783 0.305054 0.674103
0.332428 0.311951 0.677551
0.470825 0.320404 0.682007
0.616821 0.329132 0.686829
0.747833 0.336365 0.691254
0.846161 0.341095 0.694489
0.066681 0.438934 0.676849
0.132690 0.443298 0.679016
0.231995 0.449829 0.682404
0.350281 0.457306 0.686462
0.487823 0.465027 0.691040
0.630890 0.471680 0.695465
0.759583 0.477081 0.699280
0.856781 0.481018 0.702271
0.084290 0.593414 0.686096
0.150208 0.597504 0.688446
0.248627 0.602905 0.691833
0.365082 0.608307 0.695496
0.500763 0.613770 0.699432
0.642212 0.619110 0.703644
0.769745 0.623993 0.708069
0.866211 0.627930 0.712006
0.097626 0.730804 0.694611
0.162567 0.733643 0.696625
0.259949 0.737610 0.699585
0.375702 0.741943 0.703094
0.510742 0.746826 0.707550
0.651245 0.752167 0.713074
0.778168 0.757660 0.719452
0.874634 0.763031 0.726227
0.105743 0.832550 0.700470
0.170410 0.834991 0.702515
0.267426 0.838562 0.705719
0.382874 0.842834 0.709961
0.517670 0.847992 0.715759
0.658081 0.854553 0.723846
0.785095 0.862000 0.733887
0.881195 0.868073 0.742462
0.043365 0.028595 0.764282
0.105164 0.028656 0.763977
0.197876 0.028778 0.763611
0.308838 0.029388 0.763611
0.440155 0.031494 0.763794
0.582794 0.036011 0.766022
0.714355 0.042053 0.769043
0.814972 0.047607 0.771973
0.044342 0.089752 0.763641
0.106140 0.089935 0.763611
0.199371 0.090607 0.763611
0.311768 0.092560 0.763794
0.445618 0.096863 0.765869
0.590363 0.103455 0.769165
0.722992 0.110870 0.772980
0.823792 0.116943 0.776245
0.046509 0.182678 0.763611
0.109344 0.183868 0.763611
0.204895 0.186737 0.764923
0.320404 0.191620 0.767273
0.457336 0.198700 0.770782
0.603668 0.207153 0.775146
0.736298 0.215179 0.779480
0.836395 0.221161 0.782928
0.053986 0.298584 0.766052
0.118866 0.301758 0.767548
0.217072 0.307159 0.770172
0.334961 0.314270 0.773712
0.473419 0.322784 0.778137
0.619141 0.331329 0.782898
0.749664 0.338135 0.787201
0.847809 0.342712 0.790253
0.069031 0.441284 0.773010
0.135132 0.445709 0.775208
0.234467 0.452240 0.778534
0.352631 0.459534 0.782562
0.489777 0.466919 0.786987
0.632538 0.473236 0.791168
0.761047 0.478546 0.794922
0.858124 0.482452 0.797913
0.086548 0.595673 0.782196
0.152313 0.599609 0.784485
0.250427 0.604706 0.787750
0.366760 0.609863 0.791229
0.502319 0.615204 0.795074
0.643585 0.620483 0.799316
0.770996 0.625427 0.803833
0.867401 0.629425 0.807922
0.099243 0.732391 0.790375
0.164093 0.735107 0.792297
0.261414 0.739014 0.795227
0.377106 0.743286 0.798737
0.512085 0.748199 0.803253
0.652496 0.753662 0.808990
0.779480 0.759552 0.815918
0.875916 0.765198 0.822968
0.107147 0.833893 0.796082
0.171722 0.836304 0.798126
0.268707 0.839905 0.801422
0.384125 0.844238 0.805786
0.518951 0.849518 0.811798
0.659393 0.856567 0.820557
0.786346 0.864227 0.830780
0.882324 0.870270 0.839325
