3d-lut/luts/Tweed 71.CUBE
#Created by: Adobe Photoshop Export Color Lookup Plugin
#Copyright: (C) Copyright 2017 RocketStock
TITLE "Untitled"
#LUT size
LUT_3D_SIZE 5
#data domain
#LUT data points
DOMAIN_MIN 0.000000 0.000000 0.000000
DOMAIN_MAX 0.903226 0.903226 0.903226
0.001678 0.001678 0.001678
0.170135 0.027710 0.018127
0.369080 0.028656 0.017792
0.607513 0.029572 0.017395
0.799011 0.033813 0.018646
0.043274 0.157074 0.018097
0.173279 0.157227 0.017456
0.372162 0.158569 0.017395
0.617157 0.165771 0.020172
0.814301 0.176086 0.025085
0.048065 0.355377 0.017426
0.182343 0.359924 0.019379
0.391144 0.370728 0.024292
0.643860 0.386139 0.031738
0.840240 0.397827 0.038116
0.072510 0.614746 0.028046
0.211700 0.623840 0.032532
0.422333 0.635773 0.039276
0.669128 0.646301 0.046265
0.860046 0.653717 0.051941
0.095215 0.822388 0.040375
0.232025 0.828339 0.044434
0.439301 0.836090 0.050354
0.683289 0.844910 0.058685
0.872803 0.853424 0.068359
0.038879 0.026306 0.145630
0.171143 0.028198 0.146423
0.369446 0.028687 0.145721
0.608521 0.030243 0.145569
0.801300 0.035736 0.147797
0.043701 0.157135 0.146057
0.173676 0.157318 0.145569
0.373352 0.159485 0.145569
0.620056 0.168213 0.149597
0.817688 0.179199 0.155060
0.049652 0.356720 0.146149
0.184906 0.362274 0.148651
0.394592 0.373901 0.154144
0.647308 0.389404 0.162079
0.842865 0.400452 0.168549
0.075897 0.618103 0.158173
0.215057 0.627075 0.162933
0.424927 0.638245 0.169708
0.671204 0.648315 0.176758
0.861786 0.655640 0.182861
0.097565 0.824646 0.170807
0.234161 0.830353 0.174927
0.441284 0.837921 0.181122
0.685028 0.846954 0.190338
0.874573 0.856232 0.201630
0.041016 0.027557 0.341400
0.172119 0.028564 0.341431
0.370056 0.028839 0.340698
0.610657 0.031830 0.341034
0.805206 0.039062 0.344727
0.044250 0.157196 0.340820
0.174469 0.157715 0.340698
0.375885 0.161469 0.341522
0.624695 0.172211 0.346924
0.822754 0.183899 0.353088
0.052551 0.359406 0.342560
0.189117 0.366150 0.345795
0.399963 0.378784 0.352173
0.652161 0.394012 0.360565
0.846375 0.404022 0.367065
0.080811 0.622986 0.356476
0.219635 0.631561 0.361481
0.428558 0.641663 0.368225
0.674164 0.651184 0.375519
0.864410 0.658569 0.382446
0.100800 0.827789 0.369293
0.237183 0.833191 0.373566
0.444061 0.840698 0.380432
0.687531 0.850098 0.391144
0.877197 0.860626 0.405212
0.042572 0.028351 0.577332
0.172882 0.028656 0.576813
0.371033 0.029358 0.576447
0.614166 0.034576 0.578186
0.810394 0.043579 0.582916
0.044922 0.157410 0.576447
0.175903 0.158722 0.576447
0.379822 0.164703 0.578918
0.630524 0.177307 0.585449
0.828674 0.189362 0.592133
0.056793 0.363373 0.580261
0.194519 0.371277 0.584198
0.406158 0.384552 0.591156
0.657227 0.398895 0.599640
0.850220 0.407837 0.605835
0.086273 0.628479 0.595581
0.224335 0.636230 0.600525
0.432465 0.645325 0.606964
0.677429 0.654480 0.614563
0.867249 0.662079 0.622314
0.104401 0.831207 0.608002
0.240540 0.836365 0.612427
0.447205 0.843964 0.620026
0.690704 0.854523 0.632874
0.880096 0.865936 0.648804
0.043365 0.028595 0.764282
0.173370 0.028717 0.763611
0.372375 0.030182 0.763611
0.617706 0.037476 0.766724
0.814972 0.047607 0.771973
0.045685 0.157867 0.763611
0.177734 0.160156 0.763824
0.383667 0.167969 0.767578
0.635468 0.181702 0.774567
0.833252 0.193726 0.781189
0.060791 0.367218 0.769104
0.199219 0.375732 0.773254
0.411041 0.389099 0.780182
0.660797 0.402405 0.788208
0.853119 0.410706 0.793945
0.090393 0.632629 0.784485
0.227722 0.639557 0.788971
0.435486 0.648132 0.795044
0.679993 0.657196 0.802765
0.869537 0.665070 0.811005
0.107147 0.833893 0.796082
0.243103 0.838959 0.800507
0.449646 0.846741 0.808563
0.693268 0.858582 0.823151
0.882324 0.870270 0.839325
