3d-lut/luts/Tweed 71.CUBE
#Created by: Adobe Photoshop Export Color Lookup Plugin
#Copyright: (C) Copyright 2017 RocketStock
TITLE "Untitled"
#LUT size
LUT_3D_SIZE 32
#data domain
DOMAIN_MIN 0.0 0.0 0.0
DOMAIN_MAX 1.0 1.0 1.0
#LUT data points
0.001678 0.001678 0.001678
0.001678 0.001678 0.001678
0.035706 0.012024 0.008545
0.077667 0.025635 0.017120
0.100555 0.026611 0.017639
0.123108 0.027039 0.017822
0.146240 0.027405 0.018005
0.170135 0.027710 0.018127
0.194977 0.027985 0.018188
0.220856 0.028198 0.018219
0.247955 0.028381 0.018219
0.276459 0.028503 0.018158
0.306244 0.028595 0.018066
0.337128 0.028656 0.017944
0.369080 0.028656 0.017792
0.401917 0.028687 0.017639
0.435547 0.028717 0.017456
0.469788 0.028778 0.017395
0.504547 0.028870 0.017395
0.539368 0.029022 0.017395
0.573792 0.029266 0.017395
0.607513 0.029572 0.017395
0.640198 0.029999 0.017395
0.671448 0.030487 0.017395
0.700989 0.031067 0.017395
0.728485 0.031708 0.017670
0.753845 0.032379 0.017975
0.777283 0.033112 0.018311
0.799011 0.033813 0.018646
0.819275 0.034576 0.018982
0.838318 0.035278 0.019348
0.856323 0.036072 0.019684
0.001678 0.001678 0.001678
0.001678 0.001678 0.001678
0.035706 0.012024 0.008545
0.077667 0.025635 0.017120
0.100555 0.026611 0.017639
0.123108 0.027039 0.017822
0.146240 0.027405 0.018005
0.170135 0.027710 0.018127
0.194977 0.027985 0.018188
0.220856 0.028198 0.018219
0.247955 0.028381 0.018219
0.276459 0.028503 0.018158
0.306244 0.028595 0.018066
0.337128 0.028656 0.017944
0.369080 0.028656 0.017792
0.401917 0.028687 0.017639
0.435547 0.028717 0.017456
0.469788 0.028778 0.017395
0.504547 0.028870 0.017395
0.539368 0.029022 0.017395
0.573792 0.029266 0.017395
0.607513 0.029572 0.017395
0.640198 0.029999 0.017395
0.671448 0.030487 0.017395
0.700989 0.031067 0.017395
0.728485 0.031708 0.017670
0.753845 0.032379 0.017975
0.777283 0.033112 0.018311
0.799011 0.033813 0.018646
0.819275 0.034576 0.018982
0.838318 0.035278 0.019348
0.856323 0.036072 0.019684
0.035400 0.042542 0.016205
0.035400 0.042542 0.016205
0.057739 0.045013 0.017578
0.079773 0.045471 0.017792
0.101715 0.045807 0.017944
0.124146 0.046143 0.018066
0.147125 0.046417 0.018158
0.170959 0.046631 0.018219
0.195648 0.046814 0.018219
0.221436 0.046967 0.018188
0.248444 0.047089 0.018127
0.276886 0.047119 0.018036
0.306580 0.047180 0.017883
0.337433 0.047211 0.017731
0.369385 0.047241 0.017609
0.402222 0.047272 0.017426
0.435822 0.047333 0.017395
0.470123 0.047424 0.017395
0.504974 0.047577 0.017395
0.539856 0.047852 0.017395
0.574432 0.048187 0.017395
0.608307 0.048615 0.017395
0.641083 0.049164 0.017395
0.672516 0.049805 0.017487
0.702271 0.050537 0.017792
0.729889 0.051361 0.018158
0.755402 0.052216 0.018555
0.778931 0.053040 0.018921
0.800781 0.053864 0.019348
0.821136 0.054688 0.019745
0.840271 0.055542 0.020172
0.858337 0.056366 0.020538
0.039948 0.066711 0.017792
0.039948 0.066711 0.017792
0.059082 0.067047 0.017944
0.080933 0.067352 0.018066
0.102753 0.067627 0.018158
0.125061 0.067841 0.018219
0.147949 0.067993 0.018219
0.171631 0.068146 0.018219
0.196259 0.068268 0.018158
0.221954 0.068329 0.018066
0.248901 0.068390 0.017975
0.277283 0.068420 0.017822
0.306946 0.068451 0.017700
0.337799 0.068481 0.017548
0.369690 0.068542 0.017395
0.402588 0.068604 0.017395
0.436279 0.068726 0.017395
0.470642 0.068909 0.017395
0.505615 0.069183 0.017395
0.540619 0.069580 0.017395
0.575348 0.070068 0.017395
0.609406 0.070679 0.017395
0.642456 0.071411 0.017639
0.674072 0.072266 0.018005
0.703979 0.073212 0.018433
0.731781 0.074158 0.018890
0.757416 0.075165 0.019348
0.781067 0.076080 0.019806
0.802979 0.077057 0.020264
0.823486 0.078003 0.020721
0.842682 0.078918 0.021149
0.860840 0.079834 0.021606
0.041107 0.088654 0.018097
0.041107 0.088654 0.018097
0.060120 0.088867 0.018158
0.081848 0.089111 0.018219
0.103546 0.089264 0.018219
0.125793 0.089386 0.018219
0.148560 0.089508 0.018158
0.172180 0.089569 0.018097
0.196747 0.089630 0.018005
0.222382 0.089661 0.017883
0.249268 0.089691 0.017761
0.277588 0.089722 0.017609
0.307251 0.089752 0.017456
0.338135 0.089813 0.017395
0.370087 0.089905 0.017395
0.403046 0.090057 0.017395
0.436829 0.090271 0.017395
0.471313 0.090546 0.017395
0.506439 0.090973 0.017395
0.541626 0.091522 0.017395
0.576538 0.092194 0.017426
0.610840 0.093048 0.017761
0.644104 0.093994 0.018219
0.675903 0.095032 0.018707
0.705994 0.096130 0.019196
0.733917 0.097260 0.019714
0.759674 0.098358 0.020264
0.783447 0.099457 0.020782
0.805481 0.100494 0.021301
0.826019 0.101501 0.021790
0.845306 0.102539 0.022247
0.863495 0.103516 0.022736
0.042023 0.110901 0.018219
0.042023 0.110901 0.018219
0.060944 0.111053 0.018219
0.082550 0.111206 0.018219
0.104187 0.111298 0.018158
0.126312 0.111359 0.018097
0.149048 0.111420 0.018005
0.172607 0.111450 0.017914
0.197113 0.111481 0.017792
0.222717 0.111511 0.017670
0.249603 0.111542 0.017548
0.277924 0.111572 0.017395
0.307617 0.111633 0.017395
0.338531 0.111755 0.017395
0.370575 0.111908 0.017395
0.403625 0.112152 0.017395
0.437561 0.112518 0.017395
0.472198 0.112946 0.017395
0.507538 0.113525 0.017395
0.542938 0.114288 0.017548
0.578094 0.115204 0.017914
0.612610 0.116241 0.018433
0.645996 0.117371 0.018921
0.678040 0.118622 0.019531
0.708282 0.119904 0.020142
0.736328 0.121185 0.020721
0.762207 0.122375 0.021301
0.786102 0.123596 0.021881
0.808197 0.124725 0.022430
0.828766 0.125854 0.022949
0.848114 0.126953 0.023499
0.866364 0.127991 0.023987
0.042725 0.133636 0.018219
0.042725 0.133636 0.018219
0.061554 0.133728 0.018158
0.083130 0.133789 0.018097
0.104675 0.133850 0.018005
0.126770 0.133881 0.017914
0.149445 0.133911 0.017792
0.172974 0.133942 0.017700
0.197479 0.133942 0.017578
0.223053 0.133972 0.017426
0.249969 0.134033 0.017395
0.278320 0.134125 0.017395
0.308044 0.134247 0.017395
0.339081 0.134430 0.017395
0.371246 0.134705 0.017395
0.404449 0.135071 0.017395
0.438538 0.135590 0.017395
0.473419 0.136230 0.017395
0.508972 0.137054 0.017700
0.544617 0.138031 0.018097
0.579987 0.139160 0.018616
0.614716 0.140411 0.019196
0.648315 0.141754 0.019836
0.680481 0.143158 0.020508
0.710876 0.144562 0.021179
0.739044 0.145966 0.021820
0.764984 0.147308 0.022461
0.788940 0.148621 0.023102
0.811096 0.149841 0.023682
0.831787 0.151031 0.024292
0.851135 0.152191 0.024811
0.869415 0.153259 0.025330
0.043274 0.157074 0.018097
0.043274 0.157074 0.018097
0.062042 0.157135 0.018005
0.083557 0.157135 0.017914
0.105072 0.157166 0.017792
0.127106 0.157166 0.017700
0.149780 0.157196 0.017578
0.173279 0.157227 0.017456
0.197784 0.157257 0.017395
0.223419 0.157318 0.017395
0.250397 0.157440 0.017395
0.278809 0.157593 0.017395
0.308685 0.157837 0.017395
0.339813 0.158142 0.017395
0.372162 0.158569 0.017395
0.405518 0.159119 0.017395
0.439819 0.159851 0.017487
0.475006 0.160706 0.017822
0.510834 0.161774 0.018341
0.546722 0.162994 0.018890
0.582306 0.164307 0.019501
0.617157 0.165771 0.020172
0.650940 0.167297 0.020874
0.683258 0.168884 0.021637
0.713745 0.170410 0.022369
0.742065 0.171967 0.023102
0.768066 0.173401 0.023773
0.792053 0.174744 0.024445
0.814301 0.176086 0.025085
0.834961 0.177307 0.025665
0.854370 0.178528 0.026306
0.872681 0.179626 0.026825
0.043701 0.181396 0.017883
0.043701 0.181396 0.017883
0.062469 0.181427 0.017792
0.083954 0.181427 0.017700
0.105438 0.181458 0.017578
0.127472 0.181488 0.017456
0.150146 0.181519 0.017395
0.173676 0.181580 0.017395
0.198242 0.181671 0.017395
0.223907 0.181793 0.017395
0.250977 0.181976 0.017395
0.279541 0.182251 0.017395
0.309540 0.182617 0.017395
0.340851 0.183105 0.017395
0.373352 0.183716 0.017395
0.406982 0.184479 0.017670
0.441620 0.185455 0.018066
0.477051 0.186584 0.018585
0.513062 0.187866 0.019135
0.549194 0.189270 0.019806
0.584961 0.190826 0.020538
0.620026 0.192444 0.021301
0.653931 0.194183 0.022095
0.686340 0.195862 0.022888
0.716919 0.197571 0.023712
0.745331 0.199188 0.024506
0.771393 0.200714 0.025238
0.795410 0.202148 0.025940
0.817688 0.203552 0.026611
0.838348 0.204803 0.027252
0.857788 0.206055 0.027863
0.876068 0.207184 0.028442
0.044098 0.206726 0.017639
0.044098 0.206726 0.017639
0.062805 0.206757 0.017517
0.084290 0.206787 0.017426
0.105804 0.206818 0.017395
0.127899 0.206909 0.017395
0.150604 0.206970 0.017395
0.174194 0.207123 0.017395
0.198822 0.207275 0.017395
0.224609 0.207520 0.017395
0.251801 0.207855 0.017395
0.280518 0.208252 0.017395
0.310699 0.208801 0.017395
0.342255 0.209503 0.017517
0.375031 0.210358 0.017853
0.408997 0.211426 0.018341
0.443817 0.212585 0.018890
0.479523 0.213959 0.019531
0.515808 0.215454 0.020203
0.552063 0.217102 0.020935
0.588043 0.218842 0.021790
0.623260 0.220642 0.022614
0.657288 0.222504 0.023499
0.689789 0.224304 0.024384
0.720428 0.226105 0.025208
0.748840 0.227783 0.026031
0.774933 0.229370 0.026794
0.799011 0.230896 0.027557
0.821228 0.232300 0.028229
0.841949 0.233612 0.028931
0.861328 0.234802 0.029541
0.879639 0.236023 0.030151
0.044464 0.233398 0.017395
0.044464 0.233398 0.017395
0.063232 0.233459 0.017395
0.084747 0.233521 0.017395
0.106323 0.233612 0.017395
0.128418 0.233734 0.017395
0.151215 0.233917 0.017395
0.174927 0.234161 0.017395
0.199677 0.234467 0.017395
0.225616 0.234833 0.017395
0.252991 0.235352 0.017395
0.281891 0.235962 0.017456
0.312378 0.236725 0.017761
0.344208 0.237701 0.018188
0.377228 0.238800 0.018677
0.411407 0.240082 0.019257
0.446533 0.241516 0.019928
0.482483 0.243103 0.020660
0.518951 0.244812 0.021454
0.555420 0.246613 0.022278
0.591492 0.248505 0.023193
0.626831 0.250488 0.024109
0.660980 0.252441 0.025024
0.693481 0.254425 0.025970
0.724182 0.256256 0.026855
0.752625 0.258026 0.027740
0.778687 0.259644 0.028564
0.802765 0.261169 0.029327
0.824982 0.262573 0.030060
0.845703 0.263947 0.030731
0.865021 0.265137 0.031342
0.883240 0.266296 0.031952
0.044952 0.261597 0.017395
0.044952 0.261597 0.017395
0.063751 0.261688 0.017395
0.085327 0.261841 0.017395
0.106964 0.262024 0.017395
0.129211 0.262268 0.017395
0.152130 0.262573 0.017395
0.175964 0.262939 0.017395
0.200897 0.263428 0.017395
0.227051 0.264038 0.017487
0.254669 0.264740 0.017731
0.283875 0.265625 0.018127
0.314606 0.266632 0.018585
0.346649 0.267822 0.019104
0.379944 0.269165 0.019714
0.414398 0.270721 0.020416
0.449768 0.272339 0.021179
0.485901 0.274109 0.022003
0.522583 0.276031 0.022888
0.559204 0.278015 0.023804
0.595367 0.280090 0.024811
0.630737 0.282135 0.025757
0.664886 0.284180 0.026764
0.697540 0.286224 0.027771
0.728210 0.288147 0.028687
0.756622 0.289948 0.029602
0.782715 0.291565 0.030457
0.806671 0.293060 0.031219
0.828888 0.294495 0.031952
0.849487 0.295807 0.032623
0.868805 0.297028 0.033264
0.886993 0.298126 0.033875
0.045624 0.291321 0.017395
0.045624 0.291321 0.017395
0.064514 0.291534 0.017395
0.086182 0.291779 0.017395
0.107971 0.292114 0.017395
0.130371 0.292480 0.017395
0.153473 0.292999 0.017395
0.177490 0.293549 0.017548
0.202667 0.294220 0.017792
0.229065 0.295044 0.018158
0.256958 0.296021 0.018585
0.286346 0.297119 0.019073
0.317322 0.298401 0.019623
0.349670 0.299835 0.020294
0.383209 0.301422 0.021027
0.417877 0.303101 0.021820
0.453461 0.304993 0.022675
0.489807 0.306946 0.023590
0.526642 0.308990 0.024536
0.563324 0.311157 0.025574
0.599579 0.313293 0.026581
0.634979 0.315430 0.027618
0.669128 0.317566 0.028656
0.701660 0.319580 0.029663
0.732361 0.321533 0.030640
0.760712 0.323303 0.031555
0.786743 0.324982 0.032410
0.810669 0.326447 0.033203
0.832794 0.327881 0.033966
0.853333 0.329102 0.034637
0.872589 0.330292 0.035278
0.890656 0.331360 0.035889
0.046600 0.322601 0.017395
0.046600 0.322601 0.017395
0.065643 0.322906 0.017395
0.087494 0.323334 0.017395
0.109436 0.323822 0.017426
0.132019 0.324432 0.017670
0.155365 0.325104 0.017944
0.179626 0.325897 0.018311
0.205048 0.326843 0.018707
0.231689 0.327881 0.019165
0.259766 0.329071 0.019684
0.289429 0.330414 0.020294
0.320648 0.331909 0.020966
0.353180 0.333527 0.021729
0.386963 0.335327 0.022552
0.421844 0.337219 0.023438
0.457581 0.339264 0.024384
0.494080 0.341339 0.025330
0.531006 0.343536 0.026367
0.567688 0.345734 0.027466
0.603943 0.347961 0.028534
0.639374 0.350189 0.029633
0.673492 0.352356 0.030701
0.705994 0.354370 0.031738
0.736603 0.356262 0.032715
0.764862 0.358032 0.033661
0.790771 0.359589 0.034485
0.814636 0.361053 0.035278
0.836609 0.362335 0.036011
0.857025 0.363525 0.036682
0.876160 0.364655 0.037323
0.894165 0.365662 0.037903
0.048065 0.355377 0.017426
0.048065 0.355377 0.017426
0.067261 0.355865 0.017609
0.089325 0.356506 0.017853
0.111481 0.357208 0.018158
0.134369 0.358063 0.018524
0.157867 0.358948 0.018921
0.182343 0.359924 0.019379
0.207977 0.361084 0.019867
0.234802 0.362335 0.020447
0.263092 0.363708 0.021057
0.293060 0.365295 0.021790
0.324463 0.366974 0.022552
0.357147 0.368805 0.023346
0.391144 0.370728 0.024292
0.426147 0.372803 0.025238
0.462036 0.374939 0.026245
0.498657 0.377136 0.027283
0.535583 0.379425 0.028381
0.572266 0.381653 0.029480
0.608490 0.383911 0.030579
0.643860 0.386139 0.031738
0.677917 0.388245 0.032806
0.710266 0.390228 0.033844
0.740753 0.392090 0.034851
0.768860 0.393768 0.035767
0.794647 0.395264 0.036621
0.818390 0.396606 0.037415
0.840240 0.397827 0.038116
0.860504 0.398895 0.038757
0.879517 0.399902 0.039398
0.897400 0.400818 0.039948
0.050110 0.389679 0.018158
0.050110 0.389679 0.018158
0.069519 0.390381 0.018433
0.091797 0.391235 0.018829
0.114197 0.392181 0.019226
0.137207 0.393219 0.019684
0.160950 0.394318 0.020203
0.185638 0.395508 0.020721
0.211487 0.396881 0.021332
0.238495 0.398285 0.021942
0.266998 0.399872 0.022675
0.297089 0.401611 0.023468
0.328644 0.403473 0.024323
0.361542 0.405396 0.025208
0.395630 0.407471 0.026215
0.430786 0.409637 0.027222
0.466705 0.411865 0.028259
0.503387 0.414093 0.029358
0.540314 0.416412 0.030518
0.576904 0.418640 0.031647
0.613037 0.420898 0.032776
0.648224 0.423004 0.033875
0.682159 0.425049 0.034973
0.714447 0.427002 0.036041
0.744720 0.428741 0.037048
0.772675 0.430267 0.037903
0.798279 0.431671 0.038727
0.821838 0.432861 0.039520
0.843536 0.433960 0.040192
0.863708 0.434937 0.040802
0.882599 0.435883 0.041382
0.900421 0.436707 0.041931
0.052795 0.425446 0.019226
0.052795 0.425446 0.019226
0.072388 0.426361 0.019592
0.094849 0.427429 0.020111
0.117432 0.428528 0.020599
0.140625 0.429718 0.021118
0.164520 0.431000 0.021698
0.189453 0.432404 0.022308
0.215393 0.433868 0.022980
0.242584 0.435486 0.023712
0.271271 0.437225 0.024506
0.301483 0.439026 0.025330
0.333160 0.441010 0.026276
0.366180 0.443115 0.027252
0.400299 0.445190 0.028229
0.435516 0.447418 0.029327
0.471527 0.449738 0.030457
0.508209 0.451965 0.031555
0.544983 0.454193 0.032684
0.581482 0.456421 0.033844
0.617432 0.458588 0.034973
0.652496 0.460632 0.036102
0.686249 0.462555 0.037170
0.718262 0.464325 0.038208
0.748352 0.465881 0.039154
0.776123 0.467285 0.040009
0.801544 0.468536 0.040802
0.824982 0.469666 0.041504
0.846619 0.470673 0.042175
0.866760 0.471619 0.042786
0.885559 0.472473 0.043304
0.903320 0.473267 0.043823
0.056030 0.462463 0.020599
0.056030 0.462463 0.020599
0.075775 0.463531 0.021057
0.098419 0.464783 0.021606
0.121155 0.466034 0.022156
0.144531 0.467407 0.022797
0.168610 0.468872 0.023438
0.193604 0.470337 0.024109
0.219727 0.471985 0.024872
0.247040 0.473724 0.025635
0.275787 0.475494 0.026459
0.306122 0.477478 0.027405
0.337891 0.479492 0.028351
0.370911 0.481598 0.029358
0.405121 0.483795 0.030457
0.440338 0.486053 0.031555
0.476318 0.488251 0.032654
0.512878 0.490479 0.033783
0.549469 0.492615 0.034943
0.585876 0.494781 0.036102
0.621613 0.496765 0.037201
0.656433 0.498657 0.038269
0.689911 0.500397 0.039337
0.721741 0.501984 0.040314
0.751648 0.503418 0.041229
0.779297 0.504730 0.042053
0.804657 0.505890 0.042786
0.828003 0.506897 0.043457
0.849579 0.507904 0.044098
0.869598 0.508759 0.044678
0.888428 0.509583 0.045227
0.906097 0.510376 0.045715
0.059723 0.500519 0.022186
0.059723 0.500519 0.022186
0.079590 0.501709 0.022705
0.102386 0.503082 0.023315
0.125275 0.504517 0.023956
0.148773 0.506012 0.024628
0.172943 0.507507 0.025330
0.198029 0.509125 0.026093
0.224243 0.510864 0.026855
0.251648 0.512634 0.027710
0.280457 0.514465 0.028595
0.310852 0.516479 0.029541
0.342621 0.518555 0.030548
0.375671 0.520630 0.031586
0.409851 0.522766 0.032684
0.445007 0.524933 0.033783
0.480896 0.527008 0.034912
0.517334 0.529144 0.036041
0.553802 0.531189 0.037170
0.589874 0.533081 0.038269
0.625397 0.534882 0.039398
0.659912 0.536560 0.040405
0.693268 0.538147 0.041443
0.724945 0.539581 0.042328
0.754761 0.540924 0.043182
0.782349 0.542145 0.043976
0.807617 0.543213 0.044708
0.830902 0.544189 0.045380
0.852386 0.545105 0.045990
0.872375 0.545959 0.046570
0.891113 0.546722 0.047119
0.908783 0.547455 0.047638
0.063843 0.539001 0.024017
0.063843 0.539001 0.024017
0.083801 0.540283 0.024567
0.106689 0.541748 0.025269
0.129608 0.543182 0.025940
0.153229 0.544769 0.026672
0.177460 0.546326 0.027405
0.202637 0.547943 0.028198
0.228912 0.549713 0.029022
0.256348 0.551514 0.029907
0.285187 0.553406 0.030823
0.315521 0.555298 0.031799
0.347290 0.557312 0.032806
0.380341 0.559357 0.033844
0.414368 0.561371 0.034943
0.449432 0.563385 0.036041
0.485168 0.565338 0.037140
0.521423 0.567261 0.038239
0.557587 0.569061 0.039368
0.593414 0.570770 0.040405
0.628723 0.572388 0.041443
0.663208 0.573944 0.042450
0.696381 0.575378 0.043396
0.727997 0.576721 0.044281
0.757721 0.578003 0.045105
0.785187 0.579132 0.045898
0.810425 0.580139 0.046600
0.833649 0.581085 0.047302
0.855072 0.581970 0.047913
0.875000 0.582764 0.048492
0.893677 0.583527 0.049072
0.911316 0.584229 0.049622
0.068085 0.577240 0.025940
0.068085 0.577240 0.025940
0.088135 0.578522 0.026581
0.111115 0.580048 0.027283
0.134155 0.581604 0.028046
0.157776 0.583191 0.028778
0.182037 0.584747 0.029541
0.207275 0.586395 0.030365
0.233521 0.588104 0.031219
0.260956 0.589874 0.032104
0.289734 0.591644 0.033051
0.320068 0.593536 0.034027
0.351746 0.595428 0.035034
0.384644 0.597321 0.036102
0.418579 0.599213 0.037170
0.453461 0.601044 0.038239
0.489014 0.602814 0.039307
0.525024 0.604492 0.040375
0.561035 0.606110 0.041443
0.596710 0.607697 0.042419
0.631897 0.609161 0.043427
0.666229 0.610626 0.044342
0.699341 0.611969 0.045288
0.730865 0.613251 0.046204
0.760498 0.614441 0.047028
0.787933 0.615570 0.047791
0.813080 0.616516 0.048523
0.836212 0.617462 0.049225
0.857635 0.618286 0.049896
0.877533 0.619080 0.050507
0.896179 0.619843 0.051117
0.913727 0.620514 0.051697
0.072510 0.614746 0.028046
0.072510 0.614746 0.028046
0.092560 0.616089 0.028656
0.115540 0.617584 0.029388
0.138580 0.619110 0.030151
0.162231 0.620667 0.030945
0.186493 0.622253 0.031738
0.211700 0.623840 0.032532
0.237946 0.625519 0.033417
0.265320 0.627167 0.034332
0.294037 0.628876 0.035248
0.324280 0.630646 0.036224
0.355804 0.632416 0.037231
0.388519 0.634094 0.038239
0.422333 0.635773 0.039276
0.457001 0.637451 0.040314
0.492371 0.639008 0.041351
0.528290 0.640533 0.042328
0.564178 0.642059 0.043365
0.599762 0.643524 0.044312
0.634827 0.644928 0.045288
0.669128 0.646301 0.046265
0.702118 0.647583 0.047150
0.733521 0.648804 0.048065
0.763123 0.649963 0.048950
0.790466 0.651031 0.049713
0.815552 0.652008 0.050507
0.838684 0.652893 0.051239
0.860046 0.653717 0.051941
0.879883 0.654480 0.052582
0.898499 0.655243 0.053223
0.916016 0.655914 0.053864
0.076721 0.650940 0.030060
0.076721 0.650940 0.030060
0.096832 0.652283 0.030731
0.119873 0.653778 0.031525
0.142883 0.655273 0.032288
0.166473 0.656769 0.033081
0.190765 0.658295 0.033875
0.215881 0.659821 0.034698
0.242004 0.661346 0.035583
0.269257 0.662933 0.036438
0.297913 0.664520 0.037384
0.327972 0.666107 0.038300
0.359406 0.667725 0.039307
0.391937 0.669220 0.040314
0.425598 0.670776 0.041260
0.460144 0.672211 0.042206
0.495544 0.673706 0.043213
0.531311 0.675171 0.044220
0.567078 0.676575 0.045166
0.602570 0.677979 0.046143
0.637604 0.679321 0.047089
0.671722 0.680603 0.048065
0.704681 0.681885 0.049011
0.735992 0.683044 0.049927
0.765533 0.684174 0.050842
0.792816 0.685181 0.051727
0.817902 0.686188 0.052551
0.840973 0.687073 0.053314
0.862274 0.687927 0.054077
0.882080 0.688690 0.054779
0.900696 0.689453 0.055511
0.918213 0.690155 0.056213
0.080811 0.685394 0.032104
0.080811 0.685394 0.032104
0.100861 0.686707 0.032806
0.123840 0.688171 0.033569
0.146851 0.689575 0.034363
0.170380 0.691010 0.035095
0.194580 0.692474 0.035950
0.219635 0.693878 0.036774
0.245636 0.695282 0.037598
0.272797 0.696747 0.038452
0.301300 0.698151 0.039368
0.331146 0.699585 0.040283
0.362427 0.700989 0.041168
0.394958 0.702423 0.042145
0.428558 0.703827 0.043060
0.463043 0.705231 0.044006
0.498352 0.706635 0.044983
0.534058 0.708008 0.045929
0.569733 0.709351 0.046906
0.605133 0.710724 0.047882
0.640076 0.712006 0.048889
0.674164 0.713257 0.049866
0.707001 0.714478 0.050873
0.738312 0.715637 0.051849
0.767761 0.716736 0.052826
0.795044 0.717804 0.053741
0.820068 0.718781 0.054626
0.843079 0.719666 0.055481
0.864410 0.720520 0.056305
0.884186 0.721344 0.057098
0.902740 0.722107 0.057861
0.920227 0.722839 0.058594
0.084534 0.717804 0.034088
0.084534 0.717804 0.034088
0.104553 0.719025 0.034760
0.127502 0.720398 0.035553
0.150391 0.721710 0.036285
0.173859 0.723053 0.037048
0.197937 0.724365 0.037842
0.222870 0.725677 0.038635
0.248779 0.726959 0.039490
0.275818 0.728241 0.040314
0.304199 0.729553 0.041168
0.334015 0.730865 0.042023
0.365234 0.732208 0.042908
0.397675 0.733551 0.043823
0.431213 0.734863 0.044739
0.465698 0.736206 0.045685
0.500916 0.737518 0.046600
0.536530 0.738831 0.047577
0.572144 0.740143 0.048584
0.607483 0.741425 0.049591
0.642334 0.742706 0.050629
0.676392 0.743958 0.051697
0.709198 0.745178 0.052734
0.740448 0.746368 0.053802
0.769836 0.747498 0.054810
0.797058 0.748535 0.055817
0.822052 0.749512 0.056793
0.845062 0.750458 0.057709
0.866333 0.751312 0.058594
0.886108 0.752136 0.059448
0.904633 0.752930 0.060303
0.922119 0.753693 0.061127
0.087830 0.747589 0.035889
0.087830 0.747589 0.035889
0.107788 0.748749 0.036560
0.130646 0.750031 0.037323
0.153473 0.751251 0.038055
0.176849 0.752472 0.038849
0.200775 0.753662 0.039612
0.225586 0.754822 0.040344
0.251434 0.756012 0.041138
0.278412 0.757233 0.041931
0.306763 0.758453 0.042786
0.336548 0.759674 0.043579
0.367706 0.760956 0.044464
0.400116 0.762238 0.045380
0.433563 0.763489 0.046265
0.468018 0.764771 0.047211
0.503204 0.766052 0.048187
0.538757 0.767334 0.049164
0.574280 0.768585 0.050201
0.609589 0.769867 0.051239
0.644379 0.771118 0.052338
0.678375 0.772400 0.053467
0.711151 0.773621 0.054565
0.742340 0.774811 0.055725
0.771729 0.775940 0.056854
0.798920 0.777008 0.057922
0.823853 0.778015 0.058960
0.846863 0.778992 0.059967
0.868103 0.779877 0.060944
0.887848 0.780731 0.061859
0.906372 0.781555 0.062775
0.923859 0.782349 0.063660
0.090668 0.774750 0.037537
0.090668 0.774750 0.037537
0.110565 0.775818 0.038208
0.133301 0.776978 0.038940
0.156067 0.778107 0.039673
0.179321 0.779205 0.040375
0.203217 0.780304 0.041107
0.227997 0.781464 0.041870
0.253754 0.782562 0.042603
0.280701 0.783661 0.043396
0.309021 0.784851 0.044220
0.338745 0.786041 0.045013
0.369904 0.787231 0.045868
0.402252 0.788452 0.046783
0.435669 0.789673 0.047668
0.470093 0.790955 0.048645
0.505280 0.792175 0.049652
0.540741 0.793457 0.050690
0.576233 0.794708 0.051758
0.611450 0.795959 0.052856
0.646240 0.797272 0.054016
0.680176 0.798523 0.055237
0.712891 0.799744 0.056427
0.744049 0.800934 0.057617
0.773407 0.802124 0.058838
0.800568 0.803223 0.059998
0.825500 0.804260 0.061127
0.848511 0.805267 0.062225
0.869720 0.806183 0.063293
0.889496 0.807098 0.064301
0.907990 0.807953 0.065308
0.925537 0.808899 0.066437
0.093140 0.799561 0.039032
0.093140 0.799561 0.039032
0.112915 0.800568 0.039673
0.135590 0.801636 0.040375
0.158264 0.802673 0.041107
0.181488 0.803741 0.041779
0.205383 0.804810 0.042511
0.230133 0.805847 0.043213
0.255859 0.806915 0.043945
0.282745 0.808014 0.044708
0.311035 0.809113 0.045502
0.340759 0.810242 0.046326
0.371826 0.811401 0.047180
0.404175 0.812622 0.048096
0.437622 0.813812 0.049042
0.471954 0.815033 0.050018
