3d-lut/luts/Vireo 37.CUBE
#Created by: Adobe Photoshop Export Color Lookup Plugin
#Copyright: (C) Copyright 2017 RocketStock
TITLE "Cool Dark"
#LUT size
LUT_3D_SIZE 8
#data domain
#LUT data points
DOMAIN_MIN 0.000000 0.000000 0.000000
DOMAIN_MAX 0.903226 0.903226 0.903226
0.000000 0.000000 0.033875
0.049774 0.000000 0.032745
0.129456 0.000000 0.031494
0.223602 0.000000 0.029999
0.338135 0.001526 0.028351
0.469391 0.006683 0.026581
0.603485 0.012177 0.024658
0.725311 0.018127 0.022552
0.000000 0.061707 0.031555
0.058289 0.066132 0.030060
0.140564 0.071228 0.028412
0.238251 0.076752 0.026642
0.357086 0.082855 0.024689
0.491028 0.089355 0.022644
0.625183 0.096252 0.020508
0.744476 0.103546 0.018311
0.000000 0.149170 0.028473
0.069061 0.155548 0.026672
0.154022 0.162506 0.024750
0.255707 0.170044 0.022736
0.378845 0.178070 0.020569
0.514832 0.186523 0.018372
0.648102 0.195435 0.016052
0.764130 0.204681 0.013763
0.004883 0.256287 0.024811
0.081757 0.265350 0.022827
0.169678 0.274963 0.020630
0.275665 0.285095 0.018433
0.402802 0.295776 0.016144
0.540039 0.306793 0.013855
0.671478 0.318207 0.011475
0.783630 0.329803 0.009094
0.017273 0.389130 0.020752
0.096069 0.400696 0.018494
0.187164 0.412567 0.016266
0.297638 0.424896 0.013916
0.428192 0.437469 0.011536
0.565796 0.450134 0.009186
0.694458 0.462860 0.006805
0.802582 0.475494 0.004486
0.030792 0.536713 0.016327
0.111725 0.549103 0.013977
0.206116 0.561493 0.011627
0.320984 0.574036 0.009247
0.454102 0.586487 0.006866
0.591248 0.598724 0.004547
0.716309 0.610718 0.002197
0.820496 0.622223 0.000000
0.045197 0.678650 0.011719
0.128296 0.689850 0.009308
0.226135 0.700775 0.006927
0.345062 0.711548 0.004608
0.479889 0.721863 0.002319
0.615570 0.731842 0.000031
0.736359 0.741302 0.000000
0.836914 0.750305 0.000000
0.060120 0.798157 0.007050
0.145325 0.807220 0.004700
0.246613 0.816040 0.002380
0.369049 0.824585 0.000092
0.504669 0.832733 0.000000
0.638062 0.840576 0.000000
0.754425 0.847870 0.000000
0.851562 0.854736 0.000000
0.000000 0.000000 0.106598
0.051178 0.000000 0.105316
0.131317 0.000000 0.103790
0.226105 0.000000 0.102112
0.341400 0.003326 0.100189
0.473206 0.008667 0.098175
0.607361 0.014313 0.095947
0.728821 0.020416 0.093628
0.000000 0.063263 0.103821
0.060150 0.067993 0.102142
0.142853 0.073212 0.100220
0.241302 0.078979 0.098236
0.360962 0.085175 0.096039
0.495331 0.091858 0.093719
0.629364 0.098907 0.091339
0.748138 0.106293 0.088837
0.000000 0.151398 0.100342
0.071259 0.158020 0.098297
0.156799 0.165222 0.096100
0.259216 0.172882 0.093811
0.383179 0.181091 0.091400
0.519531 0.189758 0.088928
0.652466 0.198730 0.086426
0.767792 0.208130 0.083801
0.007111 0.259613 0.096130
0.084320 0.268768 0.093872
0.172852 0.278656 0.091492
0.279633 0.288971 0.089020
0.407410 0.299774 0.086487
0.544800 0.310944 0.083923
0.675781 0.322449 0.081299
0.787231 0.334106 0.078735
0.019714 0.393372 0.091553
0.098907 0.404968 0.089081
0.190643 0.417145 0.086548
0.301880 0.429443 0.083984
0.432983 0.442139 0.081360
0.570526 0.454773 0.078796
0.698608 0.467499 0.076233
0.806000 0.480042 0.073669
0.033417 0.541229 0.086639
0.114716 0.553650 0.084076
0.209808 0.566132 0.081451
0.325439 0.578613 0.078857
0.459015 0.590973 0.076294
0.595856 0.603119 0.073730
0.720184 0.614990 0.071259
0.823639 0.626373 0.068848
0.047943 0.682739 0.081573
0.131439 0.693909 0.078979
0.229919 0.704712 0.076385
0.349548 0.715332 0.073822
0.484619 0.725525 0.071350
0.619904 0.735321 0.068909
0.739868 0.744629 0.066620
0.839783 0.753479 0.064331
0.062897 0.801514 0.076447
0.148621 0.810516 0.073944
0.250488 0.819214 0.071442
0.373444 0.827637 0.069000
0.509155 0.835663 0.066681
0.641937 0.843323 0.064453
0.757538 0.850433 0.062347
0.854034 0.857117 0.060333
0.000000 0.000000 0.189850
0.052673 0.000000 0.188263
0.133270 0.000000 0.186371
0.228699 0.000214 0.184326
0.344788 0.005219 0.182037
0.477142 0.010681 0.179565
0.611420 0.016541 0.176971
0.732330 0.022705 0.174255
0.000000 0.064941 0.186493
0.062103 0.069824 0.184387
0.145294 0.075256 0.182098
0.244415 0.081207 0.179657
0.364899 0.087555 0.177063
0.499725 0.094391 0.174316
0.633636 0.101532 0.171509
0.751770 0.109100 0.168610
0.000000 0.153778 0.182220
0.073517 0.160583 0.179749
0.159637 0.167969 0.177185
0.262909 0.175903 0.174408
0.387573 0.184235 0.171631
0.524170 0.192993 0.168701
0.656860 0.202118 0.165741
0.771454 0.211670 0.162750
0.009369 0.262909 0.177246
0.086914 0.272308 0.174530
0.176056 0.282349 0.171692
0.283630 0.292847 0.168823
0.412170 0.303802 0.165833
0.549591 0.315094 0.162872
0.680084 0.326721 0.159851
0.790833 0.338470 0.156891
0.022186 0.397583 0.171783
0.101746 0.409363 0.168884
0.194153 0.421631 0.165924
0.306183 0.434082 0.162933
0.437836 0.446747 0.159973
0.575348 0.459412 0.156982
0.702728 0.472137 0.154022
0.809387 0.484650 0.151123
0.036041 0.545746 0.166016
0.117767 0.558167 0.163025
0.213562 0.570770 0.160065
0.329926 0.583160 0.157104
0.463837 0.595490 0.154114
0.600433 0.607513 0.151184
0.723999 0.619263 0.148407
0.826813 0.630463 0.145630
0.050720 0.686829 0.160156
0.134613 0.697906 0.157166
0.233704 0.708649 0.154205
0.354004 0.719116 0.151306
0.489349 0.729248 0.148468
0.624146 0.738831 0.145721
0.743408 0.747986 0.143066
0.842590 0.756531 0.140594
0.065735 0.804840 0.154297
0.151825 0.813751 0.151398
0.254272 0.822327 0.148560
0.377808 0.830597 0.145813
0.513489 0.838501 0.143188
0.645844 0.845947 0.140717
0.760498 0.852936 0.138336
0.856445 0.859406 0.136108
0.000000 0.000000 0.288818
0.054260 0.000000 0.286774
0.135345 0.000000 0.284454
0.231415 0.002014 0.281860
0.348358 0.007202 0.279022
0.481171 0.012787 0.276001
0.615448 0.018768 0.272797
0.735901 0.025055 0.269470
0.000000 0.066650 0.284515
0.064056 0.071747 0.281921
0.147766 0.077393 0.279114
0.247681 0.083496 0.276093
0.368958 0.090027 0.272919
0.504120 0.096954 0.269562
0.637939 0.104309 0.266144
0.755402 0.111908 0.262665
0.000000 0.156219 0.279175
0.075928 0.163239 0.276184
0.162506 0.170776 0.273010
0.266632 0.178894 0.269714
0.391998 0.187347 0.266266
0.528839 0.196320 0.262787
0.661163 0.205566 0.259186
0.775055 0.215179 0.255646
0.011627 0.266266 0.273102
0.089539 0.275909 0.269806
0.179291 0.286163 0.266357
0.287750 0.296844 0.262878
0.416840 0.307922 0.259308
0.554474 0.319397 0.255737
0.684387 0.331024 0.252167
0.794373 0.342865 0.248566
0.024719 0.401886 0.266510
0.104645 0.413818 0.263000
0.197662 0.426147 0.259460
0.310516 0.438660 0.255890
0.442688 0.451416 0.252258
0.580109 0.464142 0.248718
0.706787 0.476776 0.245209
0.812775 0.489258 0.241791
0.038788 0.550323 0.259583
0.120850 0.562805 0.256012
0.217255 0.575317 0.252380
0.334381 0.587677 0.248840
0.468658 0.599945 0.245300
0.604980 0.611786 0.241913
0.727753 0.623413 0.238556
0.829865 0.634460 0.235352
0.053436 0.690918 0.252502
0.137817 0.701874 0.248962
0.237610 0.712585 0.245422
0.358490 0.722839 0.242035
0.493988 0.732788 0.238647
0.628387 0.742218 0.235443
0.746765 0.751190 0.232330
0.845337 0.759583 0.229462
0.068481 0.808105 0.245544
0.155029 0.816925 0.242126
0.258087 0.825409 0.238800
0.382080 0.833557 0.235535
0.517761 0.841278 0.232452
0.649567 0.848602 0.229553
0.763489 0.855408 0.226807
0.858765 0.861633 0.224274
0.000000 0.000000 0.404419
0.055908 0.000000 0.402008
0.137512 0.000000 0.399261
0.234253 0.003815 0.396240
0.352020 0.009216 0.392914
0.485260 0.014923 0.389404
0.619507 0.021027 0.385742
0.739502 0.027405 0.381897
0.000000 0.068451 0.399384
0.066101 0.073730 0.396301
0.150360 0.079559 0.393036
0.251007 0.085815 0.389557
0.373077 0.092560 0.385803
0.508636 0.099640 0.382019
0.642242 0.107086 0.378052
0.759094 0.114777 0.373993
0.001984 0.158752 0.393158
0.078369 0.165955 0.389648
0.165527 0.173676 0.385986
0.270355 0.181946 0.382111
0.396515 0.190613 0.378174
0.533569 0.199707 0.374146
0.665527 0.209076 0.370026
0.778717 0.218750 0.365875
0.013977 0.269745 0.386108
0.092316 0.279663 0.382263
0.182587 0.290009 0.378296
0.291931 0.300903 0.374237
0.421570 0.312103 0.370148
0.559296 0.323639 0.365997
0.688660 0.335327 0.361816
0.797882 0.347198 0.357697
0.027252 0.406219 0.378418
0.107605 0.418274 0.374420
0.201202 0.430725 0.370239
0.315002 0.443359 0.366119
0.447540 0.456055 0.361938
0.584900 0.468781 0.357819
0.710815 0.481354 0.353760
0.816071 0.493744 0.349731
0.041504 0.554871 0.370392
0.123932 0.567352 0.366272
0.220978 0.579865 0.362061
0.338867 0.592194 0.358002
0.473450 0.604340 0.353912
0.609467 0.616089 0.349915
0.731445 0.627502 0.346039
0.832916 0.638458 0.342316
0.056305 0.695007 0.362244
0.140991 0.705841 0.358093
0.241425 0.716400 0.354004
0.362976 0.726562 0.350037
0.498566 0.736328 0.346130
0.632477 0.745575 0.342438
0.750061 0.754333 0.338837
0.847961 0.762451 0.335510
0.071320 0.811340 0.354187
0.158234 0.820068 0.350159
0.261871 0.828400 0.346313
0.386353 0.836456 0.342560
0.522034 0.844025 0.338959
0.653168 0.851135 0.335632
0.766327 0.857758 0.332458
0.861023 0.863800 0.329559
0.000000 0.000000 0.527954
0.057648 0.000000 0.525299
0.139709 0.000702 0.522400
0.237122 0.005768 0.519226
0.355743 0.011261 0.515778
0.489410 0.017120 0.512115
0.623627 0.023346 0.508179
0.743103 0.029846 0.504150
0.000000 0.070343 0.522552
0.068298 0.075836 0.519348
0.153046 0.081879 0.515869
0.254425 0.088257 0.512238
0.377350 0.095123 0.508301
0.513214 0.102295 0.504272
0.646576 0.109863 0.500122
0.762756 0.117676 0.495880
0.004120 0.161316 0.515991
0.080841 0.168762 0.512299
0.168579 0.176697 0.508453
0.274292 0.185089 0.504425
0.401154 0.193939 0.500275
0.538361 0.203094 0.496033
0.669891 0.212616 0.491669
0.782318 0.222351 0.487305
0.016357 0.273285 0.508545
0.095062 0.283386 0.504547
0.185913 0.293915 0.500397
0.296143 0.304993 0.496155
0.426361 0.316254 0.491852
0.564056 0.327911 0.487488
0.692841 0.339630 0.483124
0.801331 0.351562 0.478729
0.029846 0.410583 0.500519
0.110657 0.422852 0.496307
0.204803 0.435303 0.491943
0.319397 0.448029 0.487610
0.452332 0.460663 0.483246
0.589569 0.473419 0.478882
0.714783 0.485931 0.474609
0.819305 0.498199 0.470398
0.044220 0.559479 0.492126
0.127075 0.571930 0.487793
0.224762 0.584412 0.483398
0.343414 0.596710 0.479004
0.478180 0.608704 0.474731
0.613983 0.620392 0.470551
0.735077 0.631561 0.466492
0.835876 0.642303 0.462463
0.059052 0.698975 0.483490
0.144165 0.709717 0.479187
0.245239 0.720184 0.474823
0.367401 0.730164 0.470673
0.503082 0.739746 0.466614
0.636536 0.748840 0.462646
0.753265 0.757416 0.458893
0.850647 0.765381 0.455353
0.074158 0.814606 0.474976
0.161407 0.823181 0.470856
0.265747 0.831421 0.466705
0.390564 0.839264 0.462769
0.526154 0.846680 0.458984
0.656708 0.853607 0.455475
0.769043 0.860016 0.452148
0.863159 0.865845 0.449158
0.000000 0.000000 0.647644
0.059479 0.000000 0.645111
0.141998 0.002502 0.642303
0.240173 0.007690 0.639282
0.359558 0.013367 0.635956
0.493774 0.019409 0.632416
0.627869 0.025726 0.628784
0.746796 0.032318 0.624939
0.000000 0.072327 0.642426
0.070465 0.077972 0.639374
0.155762 0.084137 0.636047
0.257935 0.090698 0.632568
0.381622 0.097687 0.628906
0.517761 0.105011 0.625092
0.650909 0.112701 0.621094
0.766388 0.120605 0.617035
0.006256 0.163971 0.636169
0.083405 0.171631 0.632690
0.171692 0.179749 0.629028
0.278137 0.188263 0.625214
0.405731 0.197235 0.621246
0.543091 0.206543 0.617157
0.674255 0.216187 0.613037
0.785919 0.225952 0.608887
0.018799 0.276947 0.629150
0.097839 0.287231 0.625336
0.189362 0.297882 0.621368
0.300323 0.309082 0.617249
0.431183 0.320526 0.613220
0.568848 0.332184 0.609039
0.697113 0.344055 0.604858
0.804779 0.355835 0.600708
0.032471 0.415039 0.621490
0.113647 0.427399 0.617432
0.208435 0.439972 0.613342
0.323822 0.452698 0.609161
0.457153 0.465363 0.604980
0.594177 0.478027 0.600830
0.718719 0.490448 0.596771
0.822510 0.502625 0.592712
0.046936 0.563995 0.613464
0.130280 0.576569 0.609283
0.228516 0.588928 0.605164
0.347931 0.601166 0.600952
0.482910 0.613037 0.596863
0.618347 0.624573 0.592834
0.738617 0.635529 0.588989
0.838745 0.646057 0.585236
0.061890 0.702972 0.605286
0.147400 0.713593 0.601105
0.249084 0.723877 0.597015
0.371796 0.733704 0.592987
0.507507 0.743164 0.589111
0.640564 0.752075 0.585327
0.756409 0.760376 0.581757
0.853119 0.768097 0.578369
0.076935 0.817810 0.597137
0.164612 0.826233 0.593109
0.269470 0.834351 0.589203
0.394745 0.842010 0.585480
0.530151 0.849274 0.581879
0.660156 0.856018 0.578461
0.771698 0.862213 0.575317
0.865234 0.867828 0.572479
0.000000 0.000000 0.752930
0.061310 0.000000 0.750702
0.144379 0.004395 0.748260
0.243317 0.009735 0.745575
0.363434 0.015503 0.742737
0.498108 0.021667 0.739655
0.632080 0.028076 0.736481
0.750427 0.034790 0.733154
0.000000 0.074341 0.748322
0.072723 0.080139 0.745667
0.158600 0.086517 0.742798
0.261536 0.093201 0.739777
0.385956 0.100372 0.736603
0.522400 0.107788 0.733276
0.655243 0.115570 0.729858
0.770142 0.123596 0.726349
0.008514 0.166718 0.742889
0.085938 0.174530 0.739868
0.174866 0.182831 0.736694
0.282135 0.191528 0.733398
0.410431 0.200592 0.729980
0.547882 0.210022 0.726501
0.678558 0.219727 0.722931
0.789490 0.229614 0.719360
0.021271 0.280640 0.736816
0.100677 0.291077 0.733490
0.192810 0.301971 0.730103
0.304657 0.313232 0.726593
0.436066 0.324829 0.723022
0.573639 0.336487 0.719482
0.701233 0.348358 0.715851
0.808167 0.360168 0.712280
0.035126 0.419525 0.730225
0.116699 0.431976 0.726715
0.212097 0.444580 0.723175
0.328308 0.457336 0.719604
0.462097 0.470093 0.716003
0.598816 0.482605 0.712372
0.722626 0.494965 0.708832
0.825653 0.506958 0.705383
0.049683 0.568604 0.723297
0.133423 0.581116 0.719696
0.232330 0.593414 0.716125
0.352417 0.605560 0.712524
0.487610 0.617218 0.708984
0.622620 0.628632 0.705505
0.742096 0.639435 0.702118
0.841583 0.649719 0.698883
0.064667 0.706909 0.716248
0.150604 0.717377 0.712616
0.252899 0.727539 0.709076
0.376221 0.737274 0.705597
0.511932 0.746460 0.702271
0.644409 0.755188 0.698944
0.759460 0.763275 0.695923
0.855560 0.770752 0.693024
0.079742 0.820923 0.709198
0.167786 0.829224 0.705750
0.273224 0.837250 0.702332
0.398804 0.844727 0.699097
0.534149 0.851807 0.695984
0.663513 0.858368 0.693085
0.774231 0.864349 0.690399
0.867279 0.869751 0.687927
