3d-lut/luts/Vireo 37.CUBE
#Created by: Adobe Photoshop Export Color Lookup Plugin
#Copyright: (C) Copyright 2017 RocketStock
TITLE "Cool Dark"
#LUT size
LUT_3D_SIZE 5
#data domain
#LUT data points
DOMAIN_MIN 0.000000 0.000000 0.000000
DOMAIN_MAX 0.903226 0.903226 0.903226
0.000000 0.000000 0.033875
0.108459 0.000000 0.031830
0.278107 0.000000 0.029205
0.503204 0.007996 0.026093
0.725311 0.018127 0.022552
0.000000 0.125763 0.029297
0.128113 0.136353 0.026215
0.309662 0.148682 0.022705
0.542938 0.162445 0.018890
0.759216 0.177460 0.014923
0.010895 0.319763 0.022858
0.154358 0.338379 0.019012
0.348785 0.358368 0.015045
0.586823 0.379547 0.010895
0.793213 0.401154 0.006775
0.034332 0.573517 0.015167
0.185547 0.595001 0.011047
0.392334 0.616364 0.006897
0.630249 0.637115 0.002838
0.824738 0.656677 0.000000
0.060120 0.798157 0.007050
0.219421 0.813843 0.002960
0.436127 0.828735 0.000000
0.669159 0.842407 0.000000
0.851562 0.854736 0.000000
0.000000 0.000000 0.167786
0.111542 0.000000 0.164948
0.283295 0.002197 0.161438
0.510101 0.011597 0.157379
0.731506 0.022125 0.152924
0.000000 0.129425 0.161591
0.132568 0.140747 0.157532
0.316406 0.153534 0.153046
0.550964 0.167816 0.148285
0.765564 0.183167 0.143341
0.015015 0.326447 0.153229
0.159912 0.345612 0.148468
0.356689 0.366089 0.143494
0.595032 0.387451 0.138458
0.799347 0.409119 0.133453
0.039001 0.581360 0.143677
0.191711 0.602844 0.138641
0.400635 0.624084 0.133636
0.637909 0.644348 0.128784
0.830170 0.663513 0.124176
0.065033 0.803986 0.133789
0.225861 0.819427 0.128937
0.444031 0.833893 0.124298
0.675629 0.847107 0.120026
0.855835 0.858826 0.116241
0.000000 0.000000 0.344910
0.114899 0.000000 0.340759
0.288757 0.005493 0.335754
0.517303 0.015320 0.330017
0.737701 0.026245 0.323792
0.000000 0.133362 0.335876
0.137177 0.145294 0.330200
0.323517 0.158691 0.324005
0.559113 0.173340 0.317413
0.772003 0.189026 0.310638
0.019257 0.333282 0.324219
0.165527 0.352905 0.317627
0.364746 0.373840 0.310852
0.603210 0.395355 0.304047
0.805450 0.417084 0.297302
0.043793 0.589294 0.311066
0.197968 0.610657 0.304260
0.408905 0.631683 0.297546
0.645477 0.651581 0.291046
0.835388 0.670044 0.285004
0.069885 0.809723 0.297760
0.232239 0.824890 0.291229
0.451630 0.838867 0.285187
0.681854 0.851624 0.279602
0.859924 0.862701 0.274628
0.000000 0.000000 0.558655
0.118561 0.000000 0.553864
0.294617 0.008942 0.548279
0.524719 0.019226 0.541870
0.744049 0.030457 0.534912
0.001770 0.137573 0.548462
0.142090 0.150024 0.542114
0.330780 0.163910 0.535187
0.567230 0.178955 0.527832
0.778381 0.195007 0.520294
0.023651 0.340332 0.535431
0.171356 0.360474 0.528107
0.372833 0.381622 0.520538
0.611420 0.403320 0.512939
0.811279 0.424927 0.505402
0.048523 0.597137 0.520813
0.204346 0.618500 0.513123
0.417084 0.639099 0.505676
0.652832 0.658600 0.498352
0.840424 0.676453 0.491547
0.074829 0.815399 0.505951
0.238586 0.830139 0.498566
0.459015 0.843689 0.491760
0.687683 0.855865 0.485535
0.863739 0.866364 0.480042
0.000000 0.000000 0.752930
0.122406 0.003113 0.748901
0.300812 0.012573 0.744202
0.532288 0.023193 0.738892
0.750427 0.034790 0.733154
0.005524 0.141937 0.744354
0.147125 0.154938 0.739105
0.338348 0.169312 0.733368
0.575470 0.184753 0.727356
0.784698 0.200958 0.721130
0.028076 0.347504 0.733551
0.177277 0.368164 0.727509
0.381104 0.389557 0.721344
0.619446 0.411346 0.714966
0.817108 0.432770 0.708771
0.053406 0.604980 0.721527
0.210754 0.626160 0.715210
0.425232 0.646362 0.708984
0.659851 0.665283 0.703003
0.845306 0.682495 0.697327
0.079742 0.820923 0.709198
0.244812 0.835236 0.703186
0.466278 0.848358 0.697510
0.693268 0.859924 0.692383
0.867279 0.869751 0.687927
