3d-lut/luts/Vireo 37.CUBE
#Created by: Adobe Photoshop Export Color Lookup Plugin
#Copyright: (C) Copyright 2017 RocketStock
TITLE "Cool Dark"
#LUT size
LUT_3D_SIZE 32
#data domain
DOMAIN_MIN 0.0 0.0 0.0
DOMAIN_MAX 1.0 1.0 1.0
#LUT data points
0.000000 0.000000 0.033875
0.000000 0.000000 0.033630
0.013367 0.000000 0.033356
0.031372 0.000000 0.033051
0.049774 0.000000 0.032745
0.068726 0.000000 0.032471
0.088257 0.000000 0.032166
0.108459 0.000000 0.031830
0.129456 0.000000 0.031494
0.151398 0.000000 0.031128
0.174286 0.000000 0.030792
0.198334 0.000000 0.030426
0.223602 0.000000 0.029999
0.250122 0.000000 0.029633
0.278107 0.000000 0.029205
0.307526 0.000305 0.028809
0.338135 0.001526 0.028351
0.369843 0.002777 0.027924
0.402435 0.003998 0.027466
0.435669 0.005341 0.027039
0.469391 0.006683 0.026581
0.503204 0.007996 0.026093
0.537018 0.009399 0.025635
0.570526 0.010803 0.025116
0.603485 0.012177 0.024658
0.635651 0.013672 0.024139
0.666809 0.015137 0.023651
0.696777 0.016632 0.023102
0.725311 0.018127 0.022552
0.752502 0.019684 0.022064
0.778534 0.021240 0.021545
0.803528 0.022858 0.020966
0.000000 0.004181 0.033356
0.000000 0.004974 0.033081
0.015045 0.005798 0.032745
0.033142 0.006683 0.032471
0.051727 0.007568 0.032166
0.070770 0.008484 0.031830
0.090393 0.009491 0.031525
0.110779 0.010468 0.031158
0.131989 0.011536 0.030792
0.154114 0.012573 0.030426
0.177216 0.013672 0.030029
0.201477 0.014832 0.029633
0.226959 0.016022 0.029236
0.253784 0.017212 0.028809
0.282043 0.018433 0.028381
0.311707 0.019684 0.027954
0.342590 0.020966 0.027466
0.374512 0.022308 0.027039
0.407227 0.023651 0.026581
0.440704 0.025024 0.026093
0.474579 0.026428 0.025635
0.508453 0.027863 0.025146
0.542328 0.029297 0.024658
0.575836 0.030792 0.024139
0.608734 0.032257 0.023651
0.640808 0.033813 0.023102
0.671906 0.035370 0.022583
0.701630 0.036896 0.022095
0.730011 0.038483 0.021545
0.757019 0.040070 0.020996
0.782928 0.041718 0.020477
0.807800 0.043396 0.019928
0.000000 0.022827 0.032806
0.000000 0.023682 0.032471
0.016876 0.024628 0.032196
0.035095 0.025543 0.031860
0.053741 0.026520 0.031525
0.072937 0.027557 0.031158
0.092773 0.028656 0.030792
0.113281 0.029694 0.030426
0.134674 0.030823 0.030029
0.156982 0.032013 0.029633
0.180267 0.033173 0.029236
0.204773 0.034393 0.028809
0.230560 0.035706 0.028381
0.257629 0.036896 0.027985
0.286194 0.038239 0.027527
0.316040 0.039551 0.027039
0.347229 0.040955 0.026611
0.379395 0.042389 0.026093
0.412354 0.043793 0.025635
0.445953 0.045258 0.025177
0.479889 0.046722 0.024689
0.513885 0.048218 0.024170
0.547791 0.049774 0.023682
0.581268 0.051331 0.023102
0.614105 0.052887 0.022614
0.646149 0.054535 0.022095
0.676971 0.056091 0.021576
0.706573 0.057739 0.020996
0.734802 0.059448 0.020477
0.761658 0.061066 0.019928
0.787354 0.062836 0.019379
0.812103 0.064545 0.018799
0.000000 0.041931 0.032196
0.000824 0.042908 0.031860
0.018799 0.043915 0.031555
0.037170 0.044983 0.031158
0.055969 0.046051 0.030792
0.075287 0.047150 0.030426
0.095245 0.048340 0.030029
0.115967 0.049500 0.029663
0.137543 0.050720 0.029266
0.160034 0.051971 0.028839
0.183594 0.053223 0.028412
0.208344 0.054535 0.027985
0.234344 0.055908 0.027527
0.261688 0.057220 0.027069
0.290527 0.058655 0.026611
0.320648 0.060059 0.026123
0.352051 0.061554 0.025696
0.384460 0.063049 0.025177
0.417603 0.064545 0.024689
0.451355 0.066071 0.024200
0.485413 0.067688 0.023682
0.519470 0.069244 0.023132
0.553375 0.070862 0.022644
0.586884 0.072540 0.022095
0.619598 0.074188 0.021576
0.651520 0.075867 0.021027
0.682190 0.077606 0.020508
0.711609 0.079285 0.019958
0.739624 0.081085 0.019409
0.766296 0.082825 0.018829
0.791870 0.084625 0.018311
0.816406 0.086456 0.017700
0.000000 0.061707 0.031555
0.002838 0.062744 0.031158
0.020935 0.063873 0.030823
0.039368 0.065002 0.030457
0.058289 0.066132 0.030060
0.077789 0.067413 0.029663
0.097931 0.068665 0.029266
0.118774 0.069885 0.028870
0.140564 0.071228 0.028412
0.163208 0.072571 0.027985
0.187012 0.073944 0.027557
0.211975 0.075378 0.027069
0.238251 0.076752 0.026642
0.265869 0.078278 0.026154
0.295074 0.079803 0.025696
0.325439 0.081268 0.025177
0.357086 0.082855 0.024689
0.389740 0.084473 0.024200
0.423035 0.086060 0.023682
0.456879 0.087738 0.023163
0.491028 0.089355 0.022644
0.525146 0.091034 0.022125
0.559052 0.092773 0.021606
0.592407 0.094513 0.021057
0.625183 0.096252 0.020508
0.656952 0.098083 0.019958
0.687469 0.099854 0.019409
0.716675 0.101715 0.018829
0.744476 0.103546 0.018311
0.770966 0.105408 0.017731
0.796387 0.107330 0.017151
0.820801 0.109253 0.016571
0.000000 0.082153 0.030823
0.004974 0.083313 0.030457
0.023163 0.084534 0.030060
0.041748 0.085785 0.029663
0.060822 0.087036 0.029297
0.080414 0.088409 0.028870
0.100677 0.089783 0.028442
0.121735 0.091095 0.028015
0.143707 0.092529 0.027557
0.166626 0.094025 0.027100
0.190582 0.095459 0.026672
0.215820 0.096985 0.026154
0.242310 0.098511 0.025726
0.270294 0.100098 0.025208
0.299744 0.101746 0.024719
0.330383 0.103363 0.024200
0.362305 0.105011 0.023712
0.395142 0.106750 0.023163
0.428589 0.108459 0.022644
0.462585 0.110229 0.022125
0.496857 0.112000 0.021606
0.530975 0.113770 0.021057
0.564880 0.115601 0.020508
0.598236 0.117432 0.019989
0.630829 0.119293 0.019440
0.662476 0.121216 0.018829
0.692780 0.123138 0.018341
0.721802 0.125031 0.017731
0.749359 0.127014 0.017181
0.775665 0.128967 0.016632
0.800934 0.131012 0.015991
0.825226 0.133026 0.015442
0.000000 0.103485 0.030060
0.007294 0.104797 0.029694
0.025574 0.106110 0.029297
0.044281 0.107483 0.028870
0.063416 0.108826 0.028442
0.083191 0.110260 0.028015
0.103607 0.111755 0.027557
0.124847 0.113220 0.027130
0.146973 0.114777 0.026672
0.170105 0.116333 0.026215
0.194366 0.117950 0.025757
0.219849 0.119598 0.025238
0.246613 0.121216 0.024750
0.274902 0.122925 0.024231
0.304596 0.124664 0.023712
0.335510 0.126404 0.023193
0.367706 0.128204 0.022675
0.400696 0.130035 0.022156
0.434326 0.131836 0.021637
0.468475 0.133728 0.021057
0.502716 0.135559 0.020538
0.536896 0.137543 0.019989
0.570801 0.139465 0.019440
0.604034 0.141418 0.018890
0.636536 0.143433 0.018341
0.667999 0.145416 0.017731
0.698151 0.147430 0.017181
0.726898 0.149506 0.016632
0.754272 0.151642 0.016022
0.780365 0.153687 0.015472
0.805511 0.155792 0.014893
0.829559 0.157928 0.014282
0.000000 0.125763 0.029297
0.009674 0.127136 0.028870
0.028076 0.128601 0.028442
0.046906 0.130127 0.028046
0.066132 0.131592 0.027588
0.086090 0.133148 0.027130
0.106689 0.134766 0.026672
0.128113 0.136353 0.026215
0.150452 0.138092 0.025757
0.173767 0.139709 0.025238
0.198273 0.141510 0.024750
0.223999 0.143219 0.024231
0.251068 0.145020 0.023743
0.279663 0.146851 0.023193
0.309662 0.148682 0.022705
0.340820 0.150543 0.022186
0.373169 0.152496 0.021637
0.406403 0.154449 0.021088
0.440155 0.156403 0.020569
0.474426 0.158417 0.020020
0.508728 0.160400 0.019501
0.542938 0.162445 0.018890
0.576813 0.164581 0.018372
0.609985 0.166626 0.017822
0.642334 0.168732 0.017212
0.673584 0.170898 0.016632
0.703491 0.173035 0.016052
0.732025 0.175262 0.015472
0.759216 0.177460 0.014923
0.785126 0.179657 0.014313
0.810028 0.181885 0.013733
0.833984 0.184143 0.013123
0.000000 0.149170 0.028473
0.012177 0.150665 0.028046
0.030731 0.152313 0.027588
0.049652 0.153931 0.027130
0.069061 0.155548 0.026672
0.089111 0.157227 0.026215
0.109863 0.158936 0.025757
0.131470 0.160706 0.025238
0.154022 0.162506 0.024750
0.177582 0.164337 0.024261
0.202301 0.166199 0.023773
0.228333 0.168091 0.023224
0.255707 0.170044 0.022736
0.284576 0.171967 0.022186
0.314819 0.174042 0.021667
0.346252 0.175995 0.021118
0.378845 0.178070 0.020569
0.412262 0.180145 0.020050
0.446198 0.182251 0.019501
0.480530 0.184387 0.018921
0.514832 0.186523 0.018372
0.549042 0.188690 0.017822
0.582855 0.190918 0.017212
0.615936 0.193115 0.016663
0.648102 0.195435 0.016052
0.679199 0.197723 0.015503
0.708893 0.199982 0.014923
0.737183 0.202301 0.014313
0.764130 0.204681 0.013763
0.789856 0.207001 0.013153
0.814606 0.209381 0.012543
0.838409 0.211792 0.012024
0.000000 0.173767 0.027588
0.014832 0.175446 0.027161
0.033447 0.177185 0.026703
0.052490 0.178955 0.026245
0.072052 0.180756 0.025787
0.092255 0.182587 0.025269
0.113220 0.184418 0.024780
0.134979 0.186310 0.024261
0.157776 0.188354 0.023773
0.181549 0.190247 0.023254
0.206543 0.192291 0.022736
0.232819 0.194336 0.022186
0.260468 0.196381 0.021698
0.289642 0.198486 0.021149
0.320190 0.200653 0.020599
0.351868 0.202789 0.020050
0.384674 0.205017 0.019501
0.418152 0.207245 0.018921
0.452271 0.209473 0.018402
0.486664 0.211823 0.017822
0.521027 0.214081 0.017273
0.555206 0.216400 0.016693
0.588989 0.218842 0.016083
0.621918 0.221130 0.015503
0.653961 0.223572 0.014954
0.684845 0.226074 0.014374
0.714264 0.228455 0.013763
0.742310 0.230927 0.013184
0.768982 0.233368 0.012573
0.794617 0.235931 0.012024
0.819214 0.238464 0.011414
0.842834 0.240967 0.010803
0.000000 0.199738 0.026733
0.017609 0.201569 0.026276
0.036316 0.203461 0.025787
0.055450 0.205322 0.025299
0.075165 0.207336 0.024780
0.095551 0.209351 0.024292
0.116669 0.211304 0.023804
0.138641 0.213409 0.023254
0.161621 0.215515 0.022736
0.185608 0.217621 0.022247
0.210907 0.219818 0.021698
0.237457 0.222076 0.021149
0.265411 0.224274 0.020599
0.294891 0.226532 0.020050
0.325623 0.228821 0.019531
0.357574 0.231171 0.018951
0.390625 0.233551 0.018402
0.424225 0.235901 0.017853
0.458496 0.238373 0.017273
0.492950 0.240784 0.016693
0.527313 0.243256 0.016113
0.561493 0.245758 0.015533
0.595154 0.248291 0.014954
0.627930 0.250824 0.014404
0.659821 0.253357 0.013794
0.690460 0.256012 0.013184
0.719666 0.258606 0.012604
0.747437 0.261261 0.012024
0.773895 0.263855 0.011475
0.799286 0.266541 0.010834
0.823700 0.269226 0.010254
0.847229 0.271881 0.009644
0.002045 0.227234 0.025818
0.020477 0.229218 0.025299
0.039276 0.231262 0.024780
0.058533 0.233337 0.024323
0.078400 0.235474 0.023804
0.098938 0.237640 0.023315
0.120209 0.239868 0.022797
0.142426 0.242096 0.022247
0.165588 0.244354 0.021729
0.189819 0.246643 0.021149
0.215363 0.249023 0.020630
0.242218 0.251404 0.020081
0.270508 0.253815 0.019531
0.300232 0.256256 0.018951
0.331268 0.258698 0.018433
0.363434 0.261230 0.017883
0.396637 0.263824 0.017303
0.430420 0.266296 0.016724
0.464813 0.268921 0.016144
0.499268 0.271576 0.015533
0.533661 0.274139 0.014984
0.567810 0.276825 0.014404
0.601318 0.279572 0.013794
0.633942 0.282227 0.013184
0.665680 0.285004 0.012634
0.695984 0.287689 0.012054
0.724945 0.290466 0.011475
0.752533 0.293274 0.010834
0.778778 0.296051 0.010284
0.803986 0.298889 0.009674
0.828217 0.301758 0.009033
0.851624 0.304565 0.008484
0.004883 0.256287 0.024811
0.023438 0.258545 0.024323
0.042358 0.260803 0.023834
0.061737 0.263000 0.023315
0.081757 0.265350 0.022827
0.102478 0.267700 0.022278
0.123871 0.270081 0.021729
0.146301 0.272491 0.021210
0.169678 0.274963 0.020630
0.194214 0.277466 0.020111
0.219971 0.279968 0.019562
0.247070 0.282501 0.018982
0.275665 0.285095 0.018433
0.305725 0.287720 0.017883
0.336975 0.290375 0.017334
0.369415 0.293091 0.016724
0.402802 0.295776 0.016144
0.436737 0.298462 0.015594
0.471130 0.301239 0.014984
0.505707 0.304016 0.014404
0.540039 0.306793 0.013855
0.574127 0.309662 0.013214
0.607544 0.312531 0.012634
0.640045 0.315338 0.012085
0.671478 0.318207 0.011475
0.701599 0.321045 0.010895
0.730286 0.324005 0.010315
0.757599 0.326904 0.009674
0.783630 0.329803 0.009094
0.808655 0.332764 0.008484
0.832703 0.335754 0.007904
0.855957 0.338623 0.007324
0.007843 0.287231 0.023865
0.026489 0.289612 0.023315
0.045532 0.292084 0.022827
0.065033 0.294464 0.022278
0.085175 0.296967 0.021759
0.106079 0.299530 0.021240
0.127686 0.302063 0.020721
0.150269 0.304718 0.020142
0.173920 0.307312 0.019592
0.198639 0.309906 0.019012
0.224701 0.312622 0.018463
0.252075 0.315308 0.017914
0.281006 0.318115 0.017334
0.311340 0.320923 0.016754
0.342804 0.323669 0.016144
0.375488 0.326508 0.015594
0.409027 0.329376 0.015015
0.443085 0.332214 0.014435
0.477570 0.335114 0.013855
0.512146 0.338074 0.013245
0.546478 0.340973 0.012665
0.580444 0.343994 0.012085
0.613647 0.346893 0.011536
0.646057 0.349884 0.010895
0.677307 0.352905 0.010315
0.707153 0.355835 0.009705
0.735535 0.358887 0.009125
0.762634 0.361938 0.008484
0.788452 0.364929 0.007965
0.813263 0.367981 0.007355
0.837189 0.371063 0.006744
0.860229 0.374084 0.006134
0.010895 0.319763 0.022858
0.029633 0.322388 0.022278
0.048798 0.324982 0.021759
0.068420 0.327545 0.021271
0.088745 0.330200 0.020721
0.109772 0.332947 0.020142
0.131561 0.335602 0.019592
0.154358 0.338379 0.019012
0.178192 0.341095 0.018463
0.203247 0.343933 0.017914
0.229553 0.346863 0.017365
0.257233 0.349640 0.016785
0.286469 0.352570 0.016205
0.317047 0.355499 0.015594
0.348785 0.358368 0.015045
0.381653 0.361389 0.014465
0.415405 0.364441 0.013855
0.449554 0.367371 0.013306
0.484039 0.370392 0.012665
0.518646 0.373413 0.012085
0.552887 0.376404 0.011536
0.586823 0.379547 0.010895
0.619904 0.382538 0.010345
0.652039 0.385620 0.009735
0.683075 0.388763 0.009155
0.712616 0.391815 0.008514
0.740784 0.394958 0.007965
0.767609 0.398102 0.007355
0.793213 0.401154 0.006775
0.817841 0.404266 0.006195
0.841583 0.407379 0.005554
0.864532 0.410461 0.005005
0.014008 0.353882 0.021820
0.032867 0.356567 0.021271
0.052155 0.359314 0.020721
0.071899 0.362030 0.020172
0.092377 0.364807 0.019592
0.113556 0.367737 0.019012
0.135559 0.370483 0.018494
0.158569 0.373413 0.017914
0.182648 0.376312 0.017365
0.207947 0.379272 0.016815
0.234558 0.382263 0.016235
0.262482 0.385223 0.015625
0.291992 0.388245 0.015045
0.322815 0.391296 0.014465
0.354828 0.394257 0.013885
0.387909 0.397430 0.013306
0.421722 0.400543 0.012695
0.455994 0.403534 0.012146
0.490570 0.406677 0.011536
0.525085 0.409760 0.010925
0.559357 0.412903 0.010345
0.593109 0.416046 0.009735
0.626038 0.419189 0.009155
0.657990 0.422333 0.008575
0.688782 0.425507 0.007965
0.718048 0.428650 0.007385
0.745911 0.431793 0.006805
0.772522 0.434967 0.006195
0.797943 0.438110 0.005585
0.822388 0.441284 0.005005
0.845886 0.444366 0.004486
0.868744 0.447540 0.003845
0.017273 0.389130 0.020752
0.036133 0.392029 0.020172
0.055573 0.394928 0.019623
0.075470 0.397736 0.019043
0.096069 0.400696 0.018494
0.117462 0.403656 0.017944
0.139679 0.406586 0.017365
0.162872 0.409637 0.016815
0.187164 0.412567 0.016266
0.212708 0.415619 0.015686
0.239563 0.418732 0.015045
0.267853 0.421722 0.014496
0.297638 0.424896 0.013916
0.328766 0.428040 0.013306
0.360962 0.431122 0.012726
0.394165 0.434296 0.012146
0.428192 0.437469 0.011536
0.462463 0.440613 0.010956
0.497131 0.443756 0.010345
0.531647 0.447021 0.009735
0.565796 0.450134 0.009186
0.599457 0.453339 0.008606
0.632172 0.456482 0.007996
0.663971 0.459686 0.007416
0.694458 0.462860 0.006805
0.723389 0.465973 0.006226
0.751068 0.469177 0.005615
0.777405 0.472382 0.005005
0.802582 0.475494 0.004486
0.826874 0.478668 0.003876
0.850250 0.481812 0.003296
0.872894 0.484924 0.002716
0.020508 0.425385 0.019653
0.039551 0.428406 0.019104
0.059052 0.431366 0.018524
0.079102 0.434296 0.017975
0.099854 0.437317 0.017395
0.121460 0.440430 0.016815
0.143829 0.443390 0.016266
0.167267 0.446533 0.015686
0.191803 0.449585 0.015106
0.217590 0.452698 0.014496
0.244751 0.455841 0.013916
0.273285 0.458923 0.013367
0.303375 0.462097 0.012726
0.334686 0.465332 0.012146
0.367157 0.468475 0.011597
0.400574 0.471680 0.010986
0.434631 0.474823 0.010376
0.469025 0.477997 0.009766
0.503662 0.481262 0.009186
0.538086 0.484375 0.008606
0.572205 0.487610 0.008057
0.605743 0.490845 0.007416
0.638275 0.493958 0.006836
0.669800 0.497162 0.006256
0.700043 0.500366 0.005676
0.728729 0.503479 0.005066
0.756073 0.506683 0.004486
0.782196 0.509857 0.003876
0.807190 0.512909 0.003326
0.831238 0.516022 0.002716
0.854462 0.519135 0.002167
0.877014 0.522186 0.001617
0.023865 0.462250 0.018585
0.043030 0.465332 0.017975
0.062653 0.468384 0.017426
0.082825 0.471405 0.016846
0.103760 0.474518 0.016266
0.125397 0.477570 0.015717
0.148071 0.480713 0.015106
0.171753 0.483795 0.014526
0.196472 0.486938 0.013947
0.222565 0.490112 0.013367
0.250000 0.493286 0.012726
0.278870 0.496429 0.012177
0.309174 0.499664 0.011597
0.340790 0.502808 0.010986
0.373383 0.505981 0.010406
0.406891 0.509186 0.009766
0.441162 0.512451 0.009216
0.475586 0.515594 0.008606
0.510223 0.518799 0.008057
0.544617 0.521912 0.007446
0.578613 0.525116 0.006836
0.611938 0.528290 0.006256
0.644287 0.531403 0.005676
0.675568 0.534607 0.005066
0.705566 0.537750 0.004517
0.733948 0.540802 0.003906
0.761047 0.543945 0.003326
0.786957 0.546997 0.002777
0.811737 0.550110 0.002167
0.835602 0.553131 0.001617
0.858612 0.556152 0.001068
0.881042 0.559143 0.000488
0.027313 0.499542 0.017456
0.046570 0.502594 0.016876
0.066315 0.505707 0.016296
0.086609 0.508759 0.015717
0.107727 0.511902 0.015137
0.129517 0.514954 0.014557
0.152405 0.518127 0.013947
0.176270 0.521271 0.013367
0.201263 0.524323 0.012817
0.227600 0.527588 0.012177
0.255341 0.530762 0.011597
0.284485 0.533875 0.011017
0.315063 0.537018 0.010437
0.346924 0.540222 0.009796
0.379700 0.543304 0.009247
0.413361 0.546570 0.008636
0.447601 0.549652 0.008087
0.482147 0.552856 0.007477
0.516754 0.556030 0.006836
0.551025 0.559052 0.006287
0.584991 0.562225 0.005707
0.618164 0.565399 0.005096
0.650269 0.568451 0.004547
0.681274 0.571564 0.003906
0.710968 0.574646 0.003357
0.739075 0.577637 0.002808
0.765900 0.580688 0.002197
0.791504 0.583588 0.001648
0.816132 0.586639 0.001099
0.839844 0.589600 0.000488
0.862701 0.592438 0.000000
0.885010 0.595398 0.000000
0.030792 0.536713 0.016327
0.050140 0.539795 0.015747
0.069977 0.542816 0.015137
0.090454 0.545929 0.014587
0.111725 0.549103 0.013977
0.133759 0.552155 0.013397
0.156799 0.555267 0.012817
0.180878 0.558441 0.012207
0.206116 0.561493 0.011627
0.232727 0.564636 0.011017
0.260742 0.567810 0.010437
0.290131 0.570862 0.009827
0.320984 0.574036 0.009247
0.352966 0.577118 0.008698
0.386047 0.580261 0.008118
0.419830 0.583374 0.007477
0.454102 0.586487 0.006866
0.488678 0.589539 0.006287
0.523224 0.592621 0.005707
0.557465 0.595673 0.005096
0.591248 0.598724 0.004547
0.624207 0.601746 0.003937
0.656158 0.604706 0.003357
0.686890 0.607727 0.002838
0.716309 0.610718 0.002197
0.744110 0.613556 0.001678
0.770691 0.616516 0.001099
0.796082 0.619354 0.000519
0.820496 0.622223 0.000000
0.843994 0.625122 0.000000
0.866730 0.627869 0.000000
0.888916 0.630676 0.000000
0.034332 0.573517 0.015167
0.053772 0.576599 0.014587
0.073730 0.579590 0.014008
0.094391 0.582703 0.013428
0.115753 0.585815 0.012848
0.137970 0.588837 0.012268
0.161255 0.591888 0.011627
0.185547 0.595001 0.011047
0.211029 0.598022 0.010468
0.237915 0.601105 0.009888
0.266205 0.604187 0.009277
0.295898 0.607239 0.008698
0.326996 0.610260 0.008118
0.359131 0.613312 0.007507
0.392334 0.616364 0.006897
0.426270 0.619354 0.006287
0.460571 0.622345 0.005768
0.495148 0.625397 0.005157
0.529694 0.628296 0.004547
0.563812 0.631226 0.003967
0.597443 0.634125 0.003387
0.630249 0.637115 0.002838
0.661926 0.639954 0.002258
0.692444 0.642822 0.001678
0.721436 0.645569 0.001129
0.749054 0.648438 0.000519
0.775391 0.651215 0.000000
0.800537 0.653931 0.000000
0.824738 0.656677 0.000000
0.848083 0.659393 0.000000
0.870667 0.661987 0.000000
0.892670 0.664642 0.000000
0.037903 0.609680 0.014008
0.057465 0.612732 0.013428
0.077545 0.615631 0.012848
0.098328 0.618713 0.012268
0.119904 0.621674 0.011627
0.142334 0.624634 0.011078
0.165741 0.627655 0.010468
0.190277 0.630676 0.009888
0.216034 0.633636 0.009308
0.243164 0.636597 0.008698
0.271667 0.639557 0.008118
0.301697 0.642487 0.007507
0.332977 0.645508 0.006927
0.365326 0.648407 0.006317
0.398712 0.651306 0.005768
0.432739 0.654236 0.005188
0.467041 0.657074 0.004578
0.501617 0.659943 0.003998
0.536072 0.662781 0.003387
0.570099 0.665588 0.002838
0.603607 0.668365 0.002289
0.636169 0.671143 0.001678
0.667603 0.673828 0.001129
0.697815 0.676544 0.000549
0.726532 0.679199 0.000031
0.753845 0.681854 0.000000
0.779968 0.684509 0.000000
0.804901 0.687042 0.000000
0.828918 0.689636 0.000000
0.852112 0.692169 0.000000
0.874542 0.694611 0.000000
0.896393 0.697052 0.000000
0.041534 0.644806 0.012878
0.061157 0.647766 0.012299
0.081360 0.650604 0.011688
0.102325 0.653564 0.011078
0.124054 0.656464 0.010498
0.146637 0.659332 0.009918
0.170288 0.662231 0.009308
0.195068 0.665131 0.008698
0.221039 0.667999 0.008148
0.248444 0.670837 0.007538
0.277222 0.673615 0.006927
0.307495 0.676483 0.006348
0.338989 0.679291 0.005768
0.371552 0.682037 0.005219
0.404999 0.684845 0.004608
0.439117 0.687622 0.003998
0.473541 0.690277 0.003448
0.508026 0.693054 0.002869
0.542450 0.695740 0.002289
0.576324 0.698334 0.001709
0.609619 0.700989 0.001160
0.641907 0.703491 0.000580
0.673187 0.706116 0.000031
0.703125 0.708649 0.000000
0.731506 0.711151 0.000000
0.758545 0.713623 0.000000
0.784424 0.716095 0.000000
0.809143 0.718445 0.000000
0.832977 0.720825 0.000000
0.855988 0.723206 0.000000
0.878265 0.725464 0.000000
0.900024 0.727722 0.000000
0.045197 0.678650 0.011719
0.064941 0.681488 0.011108
0.085297 0.684265 0.010529
0.106415 0.687042 0.009918
0.128296 0.689850 0.009308
0.151031 0.692535 0.008759
0.174896 0.695312 0.008148
0.199890 0.698090 0.007538
0.226135 0.700775 0.006927
0.253784 0.703491 0.006348
0.282837 0.706146 0.005798
0.313354 0.708832 0.005219
0.345062 0.711548 0.004608
0.377777 0.714111 0.004028
0.411346 0.716705 0.003448
0.445526 0.719360 0.002899
0.479889 0.721863 0.002319
0.514404 0.724365 0.001709
0.548706 0.726929 0.001190
0.582428 0.729340 0.000610
0.615570 0.731842 0.000031
0.647675 0.734192 0.000000
0.678650 0.736633 0.000000
0.708282 0.738983 0.000000
0.736359 0.741302 0.000000
0.763184 0.743622 0.000000
0.788757 0.745880 0.000000
0.813293 0.748108 0.000000
0.836914 0.750305 0.000000
0.859772 0.752502 0.000000
0.881897 0.754608 0.000000
0.903534 0.756714 0.000000
0.048889 0.710938 0.010529
0.068787 0.713623 0.009949
0.089233 0.716248 0.009399
0.110443 0.718872 0.008759
0.132507 0.721558 0.008148
0.155487 0.724091 0.007568
0.179565 0.726715 0.006989
0.204742 0.729279 0.006378
0.231201 0.731873 0.005829
0.259125 0.734436 0.005219
0.288452 0.736938 0.004639
0.319183 0.739471 0.004028
0.351105 0.741943 0.003448
0.383942 0.744415 0.002899
0.417664 0.746857 0.002350
0.451874 0.749268 0.001709
0.486267 0.751678 0.001190
0.520691 0.754059 0.000610
0.554810 0.756378 0.000061
0.588470 0.758698 0.000000
0.621368 0.761047 0.000000
0.653229 0.763275 0.000000
0.683929 0.765503 0.000000
0.713318 0.767700 0.000000
0.741089 0.769867 0.000000
0.767609 0.772003 0.000000
0.792969 0.774170 0.000000
0.817291 0.776184 0.000000
0.840759 0.778259 0.000000
0.863403 0.780243 0.000000
0.885437 0.782257 0.000000
0.906921 0.784180 0.000000
0.052612 0.741486 0.009399
0.072601 0.744049 0.008759
0.093201 0.746490 0.008209
0.114594 0.749054 0.007568
0.136810 0.751526 0.007019
0.159912 0.753998 0.006378
0.184235 0.756470 0.005829
0.209595 0.758850 0.005249
0.236389 0.761322 0.004639
0.264526 0.763702 0.004089
0.294067 0.766052 0.003479
0.325043 0.768494 0.002930
0.357117 0.770844 0.002350
0.390106 0.773163 0.001770
0.423859 0.775452 0.001190
0.458099 0.777740 0.000610
0.492462 0.779968 0.000061
0.526886 0.782196 0.000000
0.560883 0.784363 0.000000
0.594360 0.786591 0.000000
0.627075 0.788727 0.000000
0.658661 0.790833 0.000000
0.689087 0.792908 0.000000
0.718170 0.795013 0.000000
0.745667 0.797058 0.000000
0.771942 0.799072 0.000000
0.797119 0.801025 0.000000
0.821167 0.802948 0.000000
0.844513 0.804901 0.000000
0.866974 0.806732 0.000000
0.888855 0.808563 0.000000
0.910217 0.810394 0.000000
0.056366 0.770477 0.008209
0.076416 0.772919 0.007568
0.097168 0.775269 0.007050
0.118652 0.777679 0.006409
0.141022 0.779999 0.005859
0.164398 0.782349 0.005280
0.188904 0.784729 0.004639
0.214508 0.787018 0.004120
0.241516 0.789276 0.003510
0.269958 0.791626 0.002930
0.299713 0.793854 0.002380
0.330841 0.796112 0.001770
0.363129 0.798340 0.001221
0.396240 0.800507 0.000671
0.430054 0.802673 0.000061
0.464264 0.804810 0.000000
