3d-lut/luts/Zed 32.CUBE
#Created by: Adobe Photoshop Export Color Lookup Plugin
#Copyright: (C) Copyright 2017 RocketStock
TITLE "Untitled"
#LUT size
LUT_3D_SIZE 8
#data domain
#LUT data points
DOMAIN_MIN 0.000000 0.000000 0.000000
DOMAIN_MAX 0.903226 0.903226 0.903226
0.001434 0.001434 0.001434
0.001434 0.001434 0.001434
0.074982 0.008240 0.008362
0.228210 0.024109 0.023712
0.379456 0.039276 0.038239
0.529633 0.055206 0.053528
0.678375 0.071838 0.069794
0.824982 0.087311 0.085388
0.001434 0.001434 0.001434
0.001434 0.001434 0.001434
0.074982 0.008240 0.008362
0.228210 0.024109 0.023712
0.379456 0.039276 0.038239
0.529633 0.055206 0.053528
0.678375 0.071838 0.069794
0.824982 0.087311 0.085388
0.011566 0.076782 0.010864
0.011566 0.076782 0.010864
0.079041 0.078003 0.012024
0.230896 0.092712 0.026337
0.382050 0.108185 0.041473
0.531860 0.124237 0.057526
0.679688 0.139984 0.073578
0.825562 0.154633 0.089142
0.029724 0.227783 0.027466
0.029724 0.227783 0.027466
0.097290 0.229309 0.029114
0.237549 0.233093 0.033325
0.388062 0.248688 0.049988
0.535583 0.262909 0.065369
0.681885 0.277161 0.081482
0.826843 0.291626 0.098022
0.049591 0.373260 0.045990
0.049591 0.373260 0.045990
0.116852 0.374847 0.048340
0.254639 0.377319 0.052185
0.392090 0.380615 0.057251
0.538757 0.394379 0.073700
0.684174 0.408386 0.090393
0.829803 0.427704 0.115417
0.067749 0.515594 0.064697
0.067749 0.515594 0.064697
0.133759 0.516510 0.066772
0.270294 0.518524 0.071381
0.406036 0.520630 0.076294
0.543884 0.526154 0.086853
0.691315 0.543945 0.108093
0.834503 0.559998 0.118378
0.085938 0.662537 0.085419
0.085938 0.662537 0.085419
0.151520 0.663269 0.087769
0.290802 0.666626 0.098083
0.430054 0.670776 0.106598
0.566467 0.674255 0.106598
0.698730 0.677734 0.107452
0.836273 0.689178 0.117737
0.117889 0.819977 0.117615
0.117889 0.819977 0.117615
0.185883 0.820923 0.117615
0.325867 0.822754 0.117584
0.455963 0.823395 0.116943
0.584351 0.823944 0.116943
0.711304 0.824493 0.116943
0.837799 0.825867 0.117737
0.001434 0.001434 0.001434
0.001434 0.001434 0.001434
0.074982 0.008240 0.008362
0.228210 0.024109 0.023712
0.379456 0.039276 0.038239
0.529633 0.055206 0.053528
0.678375 0.071838 0.069794
0.824982 0.087311 0.085388
0.001434 0.001434 0.001434
0.001434 0.001434 0.001434
0.074982 0.008240 0.008362
0.228210 0.024109 0.023712
0.379456 0.039276 0.038239
0.529633 0.055206 0.053528
0.678375 0.071838 0.069794
0.824982 0.087311 0.085388
0.011566 0.076782 0.010864
0.011566 0.076782 0.010864
0.079041 0.078003 0.012024
0.230896 0.092712 0.026337
0.382050 0.108185 0.041473
0.531860 0.124237 0.057526
0.679688 0.139984 0.073578
0.825562 0.154633 0.089142
0.029724 0.227783 0.027466
0.029724 0.227783 0.027466
0.097290 0.229309 0.029114
0.237549 0.233093 0.033325
0.388062 0.248688 0.049988
0.535583 0.262909 0.065369
0.681885 0.277161 0.081482
0.826843 0.291626 0.098022
0.049591 0.373260 0.045990
0.049591 0.373260 0.045990
0.116852 0.374847 0.048340
0.254639 0.377319 0.052185
0.392090 0.380615 0.057251
0.538757 0.394379 0.073700
0.684174 0.408386 0.090393
0.829803 0.427704 0.115417
0.067749 0.515594 0.064697
0.067749 0.515594 0.064697
0.133759 0.516510 0.066772
0.270294 0.518524 0.071381
0.406036 0.520630 0.076294
0.543884 0.526154 0.086853
0.691315 0.543945 0.108093
0.834503 0.559998 0.118378
0.085938 0.662537 0.085419
0.085938 0.662537 0.085419
0.151520 0.663269 0.087769
0.290802 0.666626 0.098083
0.430054 0.670776 0.106598
0.566467 0.674255 0.106598
0.698730 0.677734 0.107452
0.836273 0.689178 0.117737
0.117889 0.819977 0.117615
0.117889 0.819977 0.117615
0.185883 0.820923 0.117615
0.325867 0.822754 0.117584
0.455963 0.823395 0.116943
0.584351 0.823944 0.116943
0.711304 0.824493 0.116943
0.837799 0.825867 0.117737
0.005493 0.005402 0.052429
0.005493 0.005402 0.052429
0.076385 0.009644 0.056519
0.228546 0.024506 0.070709
0.379761 0.039734 0.085175
0.529907 0.055756 0.100342
0.678589 0.072449 0.116333
0.825043 0.087738 0.131683
0.005493 0.005402 0.052429
0.005493 0.005402 0.052429
0.076385 0.009644 0.056519
0.228546 0.024506 0.070709
0.379761 0.039734 0.085175
0.529907 0.055756 0.100342
0.678589 0.072449 0.116333
0.825043 0.087738 0.131683
0.011902 0.077087 0.057922
0.011902 0.077087 0.057922
0.083374 0.082306 0.062927
0.235260 0.097076 0.077240
0.386322 0.112671 0.092285
0.536011 0.128845 0.108215
0.683533 0.144287 0.123779
0.829285 0.158997 0.139252
0.030243 0.228149 0.074341
0.030243 0.228149 0.074341
0.101837 0.233673 0.079956
0.242065 0.237579 0.084106
0.392242 0.253052 0.100433
0.539551 0.267059 0.115540
0.685699 0.281494 0.131470
0.830566 0.295990 0.147736
0.050201 0.373657 0.092621
0.050201 0.373657 0.092621
0.121490 0.379211 0.098999
0.258850 0.381409 0.102386
0.396149 0.384735 0.107361
0.542725 0.398590 0.123566
0.688171 0.412811 0.140503
0.833801 0.432770 0.164948
0.068176 0.515839 0.110901
0.068176 0.515839 0.110901
0.137970 0.520538 0.116882
0.274475 0.522552 0.121338
0.410065 0.524658 0.125977
0.548676 0.531128 0.137756
0.695770 0.548492 0.155731
0.838196 0.563843 0.165741
0.086395 0.662720 0.131195
0.086395 0.662720 0.131195
0.155884 0.667145 0.137390
0.296356 0.671112 0.148651
0.435242 0.675018 0.154236
0.571320 0.678406 0.154236
0.702484 0.681335 0.155121
0.839844 0.692719 0.165405
0.119415 0.820251 0.161652
0.119415 0.820251 0.161652
0.192139 0.824799 0.165222
0.330322 0.826355 0.164948
0.460052 0.826935 0.164612
0.588104 0.827484 0.164612
0.714935 0.828033 0.164612
0.841248 0.829315 0.165405
0.016998 0.016510 0.172729
0.016998 0.016510 0.172729
0.085175 0.018433 0.174194
0.229340 0.025421 0.180237
0.380554 0.040863 0.194427
0.530609 0.057068 0.209259
0.679108 0.073944 0.224976
0.825226 0.088745 0.239349
0.016998 0.016510 0.172729
0.016998 0.016510 0.172729
0.085175 0.018433 0.174194
0.229340 0.025421 0.180237
0.380554 0.040863 0.194427
0.530609 0.057068 0.209259
0.679108 0.073944 0.224976
0.825226 0.088745 0.239349
0.020386 0.085388 0.175110
0.020386 0.085388 0.175110
0.093536 0.092346 0.181641
0.237793 0.099762 0.188202
0.388794 0.115540 0.203003
0.538330 0.131866 0.218475
0.685364 0.146729 0.233093
0.830963 0.161591 0.248260
0.031494 0.229095 0.183685
0.031494 0.229095 0.183685
0.104767 0.236328 0.190765
0.252472 0.247925 0.202301
0.401703 0.262817 0.217438
0.548767 0.276978 0.232300
0.694672 0.291382 0.247742
0.839233 0.305908 0.263275
0.051666 0.374634 0.201324
0.051666 0.374634 0.201324
0.124023 0.381439 0.208618
0.268524 0.391022 0.219299
0.405670 0.394409 0.223969
0.551971 0.408264 0.239563
0.698395 0.425018 0.259308
0.843048 0.444061 0.277130
0.069153 0.516388 0.218475
0.069153 0.516388 0.218475
0.140533 0.522675 0.225861
0.284210 0.531952 0.237396
0.420166 0.534515 0.242340
0.559845 0.542328 0.254425
0.706177 0.558899 0.266846
0.846558 0.572601 0.276611
0.087463 0.663177 0.237701
0.087463 0.663177 0.237701
0.159485 0.669586 0.246460
0.309265 0.681366 0.264496
0.447601 0.684845 0.265381
0.581360 0.687347 0.265015
0.711151 0.689911 0.266327
0.848083 0.701141 0.276611
0.123077 0.820801 0.264709
0.123077 0.820801 0.264709
0.197845 0.826843 0.269684
0.340027 0.834656 0.275818
0.469238 0.835205 0.275818
0.597015 0.835724 0.275818
0.723419 0.836212 0.275818
0.849365 0.837555 0.276855
0.030701 0.030060 0.327209
0.030701 0.030060 0.327209
0.098206 0.031403 0.328003
0.238342 0.034698 0.329926
0.381622 0.042419 0.335968
0.531494 0.058838 0.350250
0.679504 0.075134 0.364746
0.825470 0.090057 0.378723
0.030701 0.030060 0.327209
0.030701 0.030060 0.327209
0.098206 0.031403 0.328003
0.238342 0.034698 0.329926
0.381622 0.042419 0.335968
0.531494 0.058838 0.350250
0.679504 0.075134 0.364746
0.825470 0.090057 0.378723
0.033722 0.098419 0.328857
0.033722 0.098419 0.328857
0.106903 0.105560 0.335266
0.246979 0.109161 0.337585
0.389954 0.117126 0.344025
0.539093 0.133331 0.358734
0.685760 0.147949 0.372620
0.831207 0.162933 0.386993
0.041565 0.238556 0.333221
0.041565 0.238556 0.333221
0.114777 0.245911 0.340149
0.265778 0.261261 0.354706
0.406067 0.267487 0.360748
0.552979 0.281769 0.375092
0.698639 0.296204 0.389771
0.843506 0.313354 0.406860
0.053497 0.375824 0.341858
0.053497 0.375824 0.341858
0.125153 0.382233 0.348389
0.273468 0.395844 0.362610
0.417969 0.406921 0.374451
0.563965 0.420776 0.389130
0.711548 0.440399 0.409607
0.855072 0.458313 0.421295
0.070435 0.517120 0.357666
0.070435 0.517120 0.357666
0.141785 0.523468 0.364685
0.289276 0.536591 0.379395
0.435669 0.549316 0.394836
0.574249 0.556305 0.400726
0.719452 0.572052 0.410889
0.857361 0.583923 0.420868
0.088867 0.663727 0.375336
0.088867 0.663727 0.375336
0.163483 0.671295 0.385681
0.317230 0.686646 0.402588
0.463715 0.697327 0.409515
0.593140 0.698425 0.409088
0.722290 0.700836 0.410553
0.858673 0.712097 0.420868
0.128174 0.821533 0.398315
0.128174 0.821533 0.398315
0.202759 0.827515 0.403259
0.345154 0.838409 0.413086
0.481079 0.845856 0.420074
0.608307 0.846344 0.420074
0.734131 0.846802 0.420074
0.859894 0.848206 0.422729
0.046021 0.045197 0.505066
0.046021 0.045197 0.505066
0.113586 0.046753 0.505737
0.253601 0.050446 0.507385
0.392914 0.054657 0.509308
0.532562 0.060944 0.513153
0.679993 0.076538 0.526459
0.825745 0.091644 0.539673
0.046021 0.045197 0.505066
0.046021 0.045197 0.505066
0.113586 0.046753 0.505737
0.253601 0.050446 0.507385
0.392914 0.054657 0.509308
0.532562 0.060944 0.513153
0.679993 0.076538 0.526459
0.825745 0.091644 0.539673
0.049438 0.113770 0.506470
0.049438 0.113770 0.506470
0.122620 0.121094 0.512665
0.262482 0.125031 0.514618
0.401337 0.129425 0.516907
0.539764 0.134674 0.520447
0.686279 0.149445 0.533630
0.831512 0.164490 0.547211
0.057892 0.253998 0.510132
0.057892 0.253998 0.510132
0.130951 0.261566 0.516754
0.280273 0.275879 0.529785
0.416748 0.278625 0.531799
0.553741 0.283081 0.535553
0.699158 0.297577 0.549133
0.844391 0.317383 0.566193
0.065765 0.387390 0.514191
0.065765 0.387390 0.514191
0.137299 0.393951 0.520569
0.285339 0.407623 0.534027
0.431335 0.420502 0.546722
0.568970 0.426880 0.552582
0.715973 0.446167 0.568237
0.858643 0.463531 0.578522
0.072021 0.518005 0.518311
0.072021 0.518005 0.518311
0.143250 0.524384 0.524902
0.290680 0.537628 0.538666
0.442902 0.555664 0.556732
0.591217 0.571869 0.567657
0.732452 0.585083 0.577637
0.869690 0.596832 0.587952
0.093231 0.665497 0.535950
0.093231 0.665497 0.535950
0.168274 0.673187 0.544830
0.321747 0.688110 0.557312
0.468719 0.701172 0.567261
0.606567 0.711121 0.576233
0.735077 0.713531 0.577667
0.870850 0.724670 0.587982
0.134399 0.822327 0.552979
0.134399 0.822327 0.552979
0.205566 0.827881 0.557709
0.346619 0.838654 0.567932
0.485596 0.849335 0.578217
0.621185 0.858582 0.587189
0.746674 0.859131 0.587982
0.871887 0.860657 0.591156
0.061401 0.060394 0.679657
0.061401 0.060394 0.679657
0.128845 0.062103 0.680176
0.268829 0.066162 0.681366
0.407806 0.070709 0.682800
0.545197 0.075165 0.684296
0.680939 0.078522 0.685547
0.826019 0.093292 0.697479
0.061401 0.060394 0.679657
0.061401 0.060394 0.679657
0.128845 0.062103 0.680176
0.268829 0.066162 0.681366
0.407806 0.070709 0.682800
0.545197 0.075165 0.684296
0.680939 0.078522 0.685547
0.826019 0.093292 0.697479
0.065155 0.129181 0.680695
0.065155 0.129181 0.680695
0.138275 0.136627 0.686584
0.277771 0.140839 0.688019
0.415833 0.144897 0.689453
0.552002 0.148010 0.690704
0.687164 0.151428 0.692139
0.831787 0.166077 0.704254
0.074097 0.269501 0.683411
0.074097 0.269501 0.683411
0.146484 0.276703 0.689423
0.294617 0.290344 0.701385
0.430664 0.293213 0.702820
0.565918 0.296265 0.704346
0.700287 0.299683 0.706055
0.845276 0.321106 0.720764
0.080627 0.401581 0.685883
0.080627 0.401581 0.685883
0.152039 0.408203 0.691864
0.299744 0.421875 0.704376
0.446075 0.435516 0.716431
0.583771 0.442963 0.720245
0.718292 0.449188 0.721069
0.859070 0.464478 0.730743
0.087036 0.531952 0.688751
0.087036 0.531952 0.688751
0.158112 0.538239 0.694794
0.309509 0.554443 0.709412
0.460602 0.571289 0.721893
0.605286 0.584747 0.730682
0.733490 0.586090 0.730560
0.869965 0.597382 0.740417
0.100800 0.669617 0.694397
0.100800 0.669617 0.694397
0.175476 0.677032 0.701202
0.328796 0.691498 0.711578
0.471954 0.703552 0.721680
0.610687 0.714783 0.731964
0.746063 0.724426 0.740814
0.880890 0.735107 0.750763
0.139008 0.822906 0.705322
0.139008 0.822906 0.705322
0.207367 0.828125 0.710175
0.348022 0.838867 0.720428
0.486572 0.849548 0.730713
0.623108 0.860077 0.741028
0.758484 0.870880 0.752777
0.883606 0.872681 0.755768
0.074890 0.073730 0.830231
0.074890 0.073730 0.830231
0.142426 0.075592 0.830505
0.282013 0.079926 0.831238
0.420654 0.084686 0.832062
0.556915 0.088104 0.832733
0.692413 0.091614 0.833466
0.826965 0.095428 0.834290
0.074890 0.073730 0.830231
0.074890 0.073730 0.830231
0.142426 0.075592 0.830505
0.282013 0.079926 0.831238
0.420654 0.084686 0.832062
0.556915 0.088104 0.832733
0.692413 0.091614 0.833466
0.826965 0.095428 0.834290
0.078888 0.142487 0.830841
0.078888 0.142487 0.830841
0.151855 0.150177 0.836426
0.291168 0.154602 0.837250
0.427856 0.157654 0.837860
0.563782 0.160950 0.838593
0.698669 0.164459 0.839417
0.832703 0.168121 0.840240
0.087585 0.282410 0.832336
0.087585 0.282410 0.832336
0.159149 0.289093 0.837860
0.306915 0.302917 0.849091
0.442810 0.305878 0.849854
0.577759 0.308929 0.850647
0.713196 0.316254 0.852417
0.846710 0.324677 0.853699
0.093536 0.413971 0.833649
0.093536 0.413971 0.833649
0.164825 0.420471 0.839264
0.312195 0.434204 0.850800
0.461151 0.450928 0.862457
0.597717 0.457489 0.863434
0.731445 0.463135 0.863434
0.859924 0.465729 0.863312
0.100037 0.543976 0.835236
0.100037 0.543976 0.835236
0.171875 0.550842 0.841034
0.325836 0.568481 0.853851
0.476379 0.584473 0.864258
0.616852 0.595886 0.873047
0.744415 0.597168 0.873047
0.870728 0.598450 0.873047
0.118896 0.682648 0.838715
0.118896 0.682648 0.838715
0.193390 0.689728 0.843658
0.343597 0.703064 0.853882
0.483826 0.714325 0.864166
0.621918 0.725555 0.874451
0.756714 0.735138 0.883270
0.881653 0.736176 0.883484
0.142242 0.824493 0.838593
0.142242 0.824493 0.838593
0.210419 0.829773 0.843567
0.350616 0.840454 0.853851
0.488739 0.851105 0.864166
0.625122 0.861664 0.874603
0.760132 0.872467 0.885712
0.892914 0.882324 0.896118
