3d-lut/luts/Zed 32.CUBE
#Created by: Adobe Photoshop Export Color Lookup Plugin
#Copyright: (C) Copyright 2017 RocketStock
TITLE "Untitled"
#LUT size
LUT_3D_SIZE 5
#data domain
#LUT data points
DOMAIN_MIN 0.000000 0.000000 0.000000
DOMAIN_MAX 0.903226 0.903226 0.903226
0.001434 0.001434 0.001434
0.036316 0.004303 0.004364
0.303894 0.031586 0.030884
0.566986 0.059326 0.057495
0.824982 0.087311 0.085388
0.005157 0.036591 0.005005
0.039276 0.038635 0.006989
0.305145 0.064636 0.032227
0.567963 0.092529 0.059448
0.825256 0.119781 0.087128
0.039490 0.301056 0.036407
0.071899 0.301819 0.037354
0.316132 0.308350 0.045807
0.573730 0.332672 0.073456
0.827759 0.358551 0.104218
0.072113 0.551605 0.069611
0.103729 0.552032 0.070618
0.342224 0.555389 0.079010
0.583801 0.565216 0.098480
0.835022 0.591827 0.117828
0.117889 0.819977 0.117615
0.150635 0.820465 0.117615
0.391205 0.823090 0.117004
0.616302 0.824097 0.116943
0.837799 0.825867 0.117737
0.003387 0.003357 0.025757
0.036438 0.004364 0.026855
0.304047 0.031769 0.053253
0.567108 0.059570 0.079803
0.825012 0.087524 0.107452
0.005554 0.036926 0.027710
0.041809 0.041138 0.031738
0.307159 0.066681 0.056458
0.569946 0.094788 0.083618
0.827057 0.121765 0.111053
0.039795 0.301270 0.058716
0.074097 0.303894 0.061584
0.318085 0.310303 0.069733
0.575653 0.334747 0.097321
0.829712 0.361298 0.128723
0.072327 0.551697 0.091614
0.105774 0.553925 0.094513
0.344177 0.557312 0.102722
0.586029 0.567413 0.122009
0.836761 0.593597 0.140472
0.118622 0.820129 0.138702
0.153503 0.822296 0.140259
0.393158 0.824799 0.139648
0.618103 0.825775 0.139648
0.839478 0.827515 0.140442
0.023804 0.023224 0.245544
0.056183 0.023834 0.245941
0.305542 0.033691 0.253784
0.568298 0.062073 0.279236
0.825348 0.089355 0.304718
0.025085 0.055969 0.246338
0.060181 0.059296 0.249390
0.309540 0.069489 0.257629
0.571930 0.098083 0.283600
0.828125 0.124390 0.308868
0.042297 0.303009 0.258453
0.077423 0.306519 0.261963
0.335632 0.328033 0.284058
0.592438 0.352692 0.310272
0.846710 0.383881 0.343201
0.074188 0.552704 0.288239
0.108398 0.555695 0.291748
0.364319 0.576141 0.317352
0.606262 0.586517 0.326782
0.852020 0.609436 0.344299
0.125427 0.821136 0.327301
0.161407 0.824036 0.329681
0.410583 0.839935 0.343506
0.634033 0.840820 0.343506
0.854309 0.842590 0.345306
0.049957 0.049072 0.550079
0.082397 0.049835 0.550385
0.327209 0.056549 0.553131
0.570007 0.065796 0.557709
0.825806 0.092072 0.580444
0.051575 0.082001 0.550690
0.086639 0.085510 0.553589
0.331299 0.092468 0.556580
0.573212 0.100861 0.560974
0.828583 0.127136 0.583923
0.066711 0.325775 0.556976
0.101105 0.328888 0.559906
0.359711 0.352539 0.582153
0.597107 0.358398 0.586823
0.851746 0.392883 0.612946
0.077606 0.554901 0.563416
0.111755 0.557922 0.566528
0.375916 0.585327 0.594086
0.632019 0.610413 0.611664
0.872498 0.630768 0.629669
0.135895 0.822510 0.592224
0.170441 0.825226 0.594513
0.416656 0.844055 0.612335
0.655853 0.861816 0.629578
0.874908 0.863708 0.633667
0.074890 0.073730 0.830231
0.107361 0.074615 0.830353
0.351501 0.082245 0.831635
0.590881 0.088959 0.832886
0.826965 0.095428 0.834290
0.076782 0.106873 0.830505
0.111877 0.110413 0.833160
0.355621 0.118164 0.834534
0.594208 0.123962 0.835693
0.829681 0.130402 0.837128
0.090485 0.348602 0.832947
0.124817 0.351929 0.835632
0.382538 0.375732 0.855316
0.621246 0.386078 0.857941
0.853973 0.397888 0.858582
0.101837 0.577057 0.835663
0.137909 0.581055 0.838837
0.405975 0.609894 0.859100
0.652252 0.630096 0.875519
0.873413 0.632141 0.875519
0.142242 0.824493 0.838593
0.175018 0.827057 0.840973
0.419922 0.845795 0.859009
0.659058 0.864410 0.877350
0.892914 0.882324 0.896118
