3d-lut/luts/Zed 32.CUBE
#Created by: Adobe Photoshop Export Color Lookup Plugin
#Copyright: (C) Copyright 2017 RocketStock
TITLE "Untitled"
#LUT size
LUT_3D_SIZE 32
#data domain
DOMAIN_MIN 0.0 0.0 0.0
DOMAIN_MAX 1.0 1.0 1.0
#LUT data points
0.001434 0.001434 0.001434
0.001434 0.001434 0.001434
0.001434 0.001434 0.001434
0.001434 0.001434 0.001434
0.001434 0.001434 0.001434
0.001434 0.001434 0.001434
0.001434 0.001434 0.001434
0.036316 0.004303 0.004364
0.074982 0.008240 0.008362
0.114532 0.013336 0.013306
0.152435 0.016876 0.016724
0.190338 0.020477 0.020203
0.228210 0.024109 0.023712
0.266083 0.027802 0.027252
0.303894 0.031586 0.030884
0.341675 0.035400 0.034515
0.379456 0.039276 0.038239
0.417114 0.043213 0.041992
0.454681 0.047119 0.045746
0.492188 0.051147 0.049591
0.529633 0.055206 0.053528
0.566986 0.059326 0.057495
0.604218 0.063477 0.061554
0.641357 0.067627 0.065613
0.678375 0.071838 0.069794
0.715302 0.076111 0.074036
0.751953 0.079956 0.077881
0.788513 0.083618 0.081604
0.824982 0.087311 0.085388
0.861389 0.091064 0.089264
0.897705 0.094818 0.093201
0.933960 0.098633 0.097198
0.001434 0.001434 0.001434
0.001434 0.001434 0.001434
0.001434 0.001434 0.001434
0.001434 0.001434 0.001434
0.001434 0.001434 0.001434
0.001434 0.001434 0.001434
0.001434 0.001434 0.001434
0.036316 0.004303 0.004364
0.074982 0.008240 0.008362
0.114532 0.013336 0.013306
0.152435 0.016876 0.016724
0.190338 0.020477 0.020203
0.228210 0.024109 0.023712
0.266083 0.027802 0.027252
0.303894 0.031586 0.030884
0.341675 0.035400 0.034515
0.379456 0.039276 0.038239
0.417114 0.043213 0.041992
0.454681 0.047119 0.045746
0.492188 0.051147 0.049591
0.529633 0.055206 0.053528
0.566986 0.059326 0.057495
0.604218 0.063477 0.061554
0.641357 0.067627 0.065613
0.678375 0.071838 0.069794
0.715302 0.076111 0.074036
0.751953 0.079956 0.077881
0.788513 0.083618 0.081604
0.824982 0.087311 0.085388
0.861389 0.091064 0.089264
0.897705 0.094818 0.093201
0.933960 0.098633 0.097198
0.001434 0.001434 0.001434
0.001434 0.001434 0.001434
0.001434 0.001434 0.001434
0.001434 0.001434 0.001434
0.001434 0.001434 0.001434
0.001434 0.001434 0.001434
0.001434 0.001434 0.001434
0.036316 0.004303 0.004364
0.074982 0.008240 0.008362
0.114532 0.013336 0.013306
0.152435 0.016876 0.016724
0.190338 0.020477 0.020203
0.228210 0.024109 0.023712
0.266083 0.027802 0.027252
0.303894 0.031586 0.030884
0.341675 0.035400 0.034515
0.379456 0.039276 0.038239
0.417114 0.043213 0.041992
0.454681 0.047119 0.045746
0.492188 0.051147 0.049591
0.529633 0.055206 0.053528
0.566986 0.059326 0.057495
0.604218 0.063477 0.061554
0.641357 0.067627 0.065613
0.678375 0.071838 0.069794
0.715302 0.076111 0.074036
0.751953 0.079956 0.077881
0.788513 0.083618 0.081604
0.824982 0.087311 0.085388
0.861389 0.091064 0.089264
0.897705 0.094818 0.093201
0.933960 0.098633 0.097198
0.001434 0.001434 0.001434
0.001434 0.001434 0.001434
0.001434 0.001434 0.001434
0.001434 0.001434 0.001434
0.001434 0.001434 0.001434
0.001434 0.001434 0.001434
0.001434 0.001434 0.001434
0.036316 0.004303 0.004364
0.074982 0.008240 0.008362
0.114532 0.013336 0.013306
0.152435 0.016876 0.016724
0.190338 0.020477 0.020203
0.228210 0.024109 0.023712
0.266083 0.027802 0.027252
0.303894 0.031586 0.030884
0.341675 0.035400 0.034515
0.379456 0.039276 0.038239
0.417114 0.043213 0.041992
0.454681 0.047119 0.045746
0.492188 0.051147 0.049591
0.529633 0.055206 0.053528
0.566986 0.059326 0.057495
0.604218 0.063477 0.061554
0.641357 0.067627 0.065613
0.678375 0.071838 0.069794
0.715302 0.076111 0.074036
0.751953 0.079956 0.077881
0.788513 0.083618 0.081604
0.824982 0.087311 0.085388
0.861389 0.091064 0.089264
0.897705 0.094818 0.093201
0.933960 0.098633 0.097198
0.001434 0.001434 0.001434
0.001434 0.001434 0.001434
0.001434 0.001434 0.001434
0.001434 0.001434 0.001434
0.001434 0.001434 0.001434
0.001434 0.001434 0.001434
0.001434 0.001434 0.001434
0.036316 0.004303 0.004364
0.074982 0.008240 0.008362
0.114532 0.013336 0.013306
0.152435 0.016876 0.016724
0.190338 0.020477 0.020203
0.228210 0.024109 0.023712
0.266083 0.027802 0.027252
0.303894 0.031586 0.030884
0.341675 0.035400 0.034515
0.379456 0.039276 0.038239
0.417114 0.043213 0.041992
0.454681 0.047119 0.045746
0.492188 0.051147 0.049591
0.529633 0.055206 0.053528
0.566986 0.059326 0.057495
0.604218 0.063477 0.061554
0.641357 0.067627 0.065613
0.678375 0.071838 0.069794
0.715302 0.076111 0.074036
0.751953 0.079956 0.077881
0.788513 0.083618 0.081604
0.824982 0.087311 0.085388
0.861389 0.091064 0.089264
0.897705 0.094818 0.093201
0.933960 0.098633 0.097198
0.001434 0.001434 0.001434
0.001434 0.001434 0.001434
0.001434 0.001434 0.001434
0.001434 0.001434 0.001434
0.001434 0.001434 0.001434
0.001434 0.001434 0.001434
0.001434 0.001434 0.001434
0.036316 0.004303 0.004364
0.074982 0.008240 0.008362
0.114532 0.013336 0.013306
0.152435 0.016876 0.016724
0.190338 0.020477 0.020203
0.228210 0.024109 0.023712
0.266083 0.027802 0.027252
0.303894 0.031586 0.030884
0.341675 0.035400 0.034515
0.379456 0.039276 0.038239
0.417114 0.043213 0.041992
0.454681 0.047119 0.045746
0.492188 0.051147 0.049591
0.529633 0.055206 0.053528
0.566986 0.059326 0.057495
0.604218 0.063477 0.061554
0.641357 0.067627 0.065613
0.678375 0.071838 0.069794
0.715302 0.076111 0.074036
0.751953 0.079956 0.077881
0.788513 0.083618 0.081604
0.824982 0.087311 0.085388
0.861389 0.091064 0.089264
0.897705 0.094818 0.093201
0.933960 0.098633 0.097198
0.001434 0.001434 0.001434
0.001434 0.001434 0.001434
0.001434 0.001434 0.001434
0.001434 0.001434 0.001434
0.001434 0.001434 0.001434
0.001434 0.001434 0.001434
0.001434 0.001434 0.001434
0.036316 0.004303 0.004364
0.074982 0.008240 0.008362
0.114532 0.013336 0.013306
0.152435 0.016876 0.016724
0.190338 0.020477 0.020203
0.228210 0.024109 0.023712
0.266083 0.027802 0.027252
0.303894 0.031586 0.030884
0.341675 0.035400 0.034515
0.379456 0.039276 0.038239
0.417114 0.043213 0.041992
0.454681 0.047119 0.045746
0.492188 0.051147 0.049591
0.529633 0.055206 0.053528
0.566986 0.059326 0.057495
0.604218 0.063477 0.061554
0.641357 0.067627 0.065613
0.678375 0.071838 0.069794
0.715302 0.076111 0.074036
0.751953 0.079956 0.077881
0.788513 0.083618 0.081604
0.824982 0.087311 0.085388
0.861389 0.091064 0.089264
0.897705 0.094818 0.093201
0.933960 0.098633 0.097198
0.005157 0.036591 0.005005
0.005157 0.036591 0.005005
0.005157 0.036591 0.005005
0.005157 0.036591 0.005005
0.005157 0.036591 0.005005
0.005157 0.036591 0.005005
0.005157 0.036591 0.005005
0.039276 0.038635 0.006989
0.077728 0.042603 0.010895
0.115662 0.046112 0.014313
0.153595 0.049683 0.017792
0.191528 0.053345 0.021362
0.229431 0.057037 0.024902
0.267303 0.060791 0.028534
0.305145 0.064636 0.032227
0.342926 0.068451 0.035950
0.380646 0.072388 0.039734
0.418274 0.076294 0.043549
0.455811 0.080261 0.047424
0.493286 0.084320 0.051361
0.530670 0.088409 0.055359
0.567963 0.092529 0.059448
0.605133 0.096619 0.063538
0.642212 0.100830 0.067749
0.679169 0.105072 0.071960
0.715790 0.108704 0.075653
0.752350 0.112305 0.079407
0.788849 0.116028 0.083252
0.825256 0.119781 0.087128
0.861603 0.123444 0.091095
0.897858 0.127167 0.095093
0.934052 0.131012 0.099152
0.011566 0.076782 0.010864
0.011566 0.076782 0.010864
0.011566 0.076782 0.010864
0.011566 0.076782 0.010864
0.011566 0.076782 0.010864
0.011566 0.076782 0.010864
0.011566 0.076782 0.010864
0.043945 0.077362 0.011414
0.079041 0.078003 0.012024
0.117035 0.081573 0.015503
0.154999 0.085236 0.019073
0.192963 0.088928 0.022705
0.230896 0.092712 0.026337
0.268738 0.096466 0.030029
0.306580 0.100311 0.033813
0.344330 0.104187 0.037628
0.382050 0.108185 0.041473
0.419647 0.112183 0.045410
0.457123 0.116180 0.049347
0.494537 0.120209 0.053406
0.531860 0.124237 0.057526
0.569092 0.128448 0.061707
0.606171 0.132599 0.065948
0.643005 0.136414 0.069855
0.679688 0.139984 0.073578
0.716278 0.143646 0.077393
0.752747 0.147278 0.081238
0.789185 0.150909 0.085175
0.825562 0.154633 0.089142
0.861847 0.158478 0.093201
0.898071 0.162109 0.097260
0.934174 0.165924 0.101349
0.015839 0.114868 0.014832
0.015839 0.114868 0.014832
0.015839 0.114868 0.014832
0.015839 0.114868 0.014832
0.015839 0.114868 0.014832
0.015839 0.114868 0.014832
0.015839 0.114868 0.014832
0.048248 0.115479 0.015411
0.083405 0.116180 0.016083
0.118530 0.116974 0.016815
0.156555 0.120667 0.020477
0.194489 0.124359 0.024139
0.232422 0.128204 0.027893
0.270294 0.132019 0.031677
0.308075 0.135864 0.035522
0.345825 0.139801 0.039429
0.383484 0.143768 0.043396
0.421021 0.147705 0.047394
0.458466 0.151733 0.051453
0.495819 0.155792 0.055634
0.533081 0.159912 0.059845
0.570160 0.163940 0.064026
0.606903 0.167511 0.067719
0.643585 0.171112 0.071503
0.680206 0.174774 0.075348
0.716736 0.178406 0.079285
0.753174 0.181946 0.083191
0.789581 0.185730 0.087219
0.825867 0.189453 0.091278
0.862091 0.193085 0.095367
0.898254 0.196960 0.099487
0.934296 0.200684 0.103607
0.020355 0.152832 0.018951
0.020355 0.152832 0.018951
0.020355 0.152832 0.018951
0.020355 0.152832 0.018951
0.020355 0.152832 0.018951
0.020355 0.152832 0.018951
0.020355 0.152832 0.018951
0.052765 0.153473 0.019592
0.087921 0.154236 0.020325
0.123016 0.154999 0.021088
0.158203 0.155853 0.021973
0.196167 0.159637 0.025757
0.234070 0.163483 0.029572
0.271912 0.167328 0.033447
0.309662 0.171234 0.037384
0.347351 0.175171 0.041382
0.384979 0.179138 0.045441
0.422485 0.183105 0.049591
0.459839 0.187103 0.053711
0.497131 0.191193 0.057983
0.534058 0.194824 0.061859
0.570862 0.198425 0.065613
0.607574 0.202026 0.069458
0.644196 0.205627 0.073364
0.680756 0.209290 0.077301
0.717255 0.212952 0.081299
0.753632 0.216461 0.085327
0.789948 0.220123 0.089386
0.826202 0.223969 0.093506
0.862366 0.227600 0.097626
0.898438 0.231293 0.101746
0.934418 0.234955 0.105896
0.024963 0.190460 0.023132
0.024963 0.190460 0.023132
0.024963 0.190460 0.023132
0.024963 0.190460 0.023132
0.024963 0.190460 0.023132
0.024963 0.190460 0.023132
0.024963 0.190460 0.023132
0.057434 0.191193 0.023865
0.092560 0.191956 0.024628
0.127655 0.192780 0.025482
0.162689 0.193604 0.026337
0.197906 0.194641 0.027466
0.235779 0.198486 0.031372
0.273590 0.202332 0.035339
0.311310 0.206238 0.039398
0.348938 0.210205 0.043488
0.386536 0.214172 0.047668
0.423920 0.218140 0.051880
0.461151 0.221985 0.056030
0.498016 0.225525 0.059753
0.534821 0.229126 0.063538
0.571564 0.232666 0.067413
0.608215 0.236176 0.071320
0.644806 0.239807 0.075317
0.681305 0.243500 0.079346
0.717743 0.247101 0.083435
0.754059 0.250671 0.087463
0.790344 0.254303 0.091614
0.826508 0.258026 0.095734
0.862610 0.261627 0.099915
0.898621 0.265350 0.104065
0.934540 0.269104 0.108185
0.029724 0.227783 0.027466
0.029724 0.227783 0.027466
0.029724 0.227783 0.027466
0.029724 0.227783 0.027466
0.029724 0.227783 0.027466
0.029724 0.227783 0.027466
0.029724 0.227783 0.027466
0.062195 0.228485 0.028229
0.097290 0.229309 0.029114
0.132355 0.230133 0.030029
0.167389 0.230988 0.030975
0.202362 0.231903 0.031982
0.237549 0.233093 0.033325
0.275330 0.236969 0.037384
0.312988 0.240875 0.041534
0.350586 0.244781 0.045746
0.388062 0.248688 0.049988
0.425140 0.252350 0.053894
0.462006 0.255798 0.057617
0.498840 0.259308 0.061462
0.535583 0.262909 0.065369
0.572266 0.266418 0.069305
0.608887 0.270081 0.073334
0.645416 0.273590 0.077393
0.681885 0.277161 0.081482
0.718262 0.280823 0.085632
0.754517 0.284485 0.089722
0.790710 0.287994 0.093872
0.826843 0.291626 0.098022
0.862885 0.295319 0.102173
0.898834 0.298859 0.106293
0.934784 0.303711 0.112244
0.034576 0.264618 0.031891
0.034576 0.264618 0.031891
0.034576 0.264618 0.031891
0.034576 0.264618 0.031891
0.034576 0.264618 0.031891
0.034576 0.264618 0.031891
0.034576 0.264618 0.031891
0.066986 0.265350 0.032745
0.102142 0.266174 0.033722
0.137115 0.267029 0.034698
0.172150 0.267914 0.035736
0.207031 0.268799 0.036835
0.241913 0.269714 0.037964
0.277100 0.271118 0.039581
0.314728 0.274963 0.043823
0.352112 0.278748 0.047974
0.389130 0.282196 0.051727
0.426056 0.285675 0.055542
0.462891 0.289185 0.059387
0.499664 0.292725 0.063324
0.536377 0.296295 0.067322
0.572998 0.299805 0.071350
0.609558 0.303314 0.075439
0.646027 0.306885 0.079559
0.682434 0.310425 0.083679
0.718750 0.314178 0.087860
0.754974 0.317657 0.091949
0.791107 0.321198 0.096130
0.827179 0.324890 0.100281
0.863159 0.328491 0.104675
0.899323 0.334167 0.111786
0.935181 0.339539 0.118408
0.039490 0.301056 0.036407
0.039490 0.301056 0.036407
0.039490 0.301056 0.036407
0.039490 0.301056 0.036407
0.039490 0.301056 0.036407
0.039490 0.301056 0.036407
0.039490 0.301056 0.036407
0.071899 0.301819 0.037354
0.106934 0.302643 0.038391
0.141937 0.303497 0.039490
0.176910 0.304352 0.040619
0.211761 0.305267 0.041809
0.246521 0.306183 0.043030
0.281189 0.307129 0.044312
0.316132 0.308350 0.045807
0.353119 0.311737 0.049591
0.390106 0.315277 0.053436
0.426971 0.318726 0.057312
0.463745 0.322174 0.061279
0.500488 0.325714 0.065308
0.537140 0.329254 0.069366
0.573730 0.332672 0.073456
0.610229 0.336212 0.077606
0.646667 0.339813 0.081757
0.683014 0.343292 0.085907
0.719269 0.346893 0.090088
0.755402 0.350403 0.094208
0.791504 0.353912 0.098358
0.827759 0.358551 0.104218
0.863983 0.363922 0.111145
0.899933 0.369324 0.117615
0.935577 0.374542 0.123444
0.044525 0.337250 0.041138
0.044525 0.337250 0.041138
0.044525 0.337250 0.041138
0.044525 0.337250 0.041138
0.044525 0.337250 0.041138
0.044525 0.337250 0.041138
0.044525 0.337250 0.041138
0.076874 0.338013 0.042145
0.111938 0.338837 0.043304
0.146790 0.339691 0.044464
0.181702 0.340576 0.045715
0.216492 0.341461 0.046967
0.250854 0.342072 0.047852
0.285034 0.342621 0.048676
0.319275 0.343201 0.049591
0.354156 0.344513 0.051300
0.391083 0.347992 0.055267
0.427917 0.351410 0.059265
0.464661 0.354919 0.063293
0.501343 0.358337 0.067352
0.537964 0.361847 0.071503
0.574493 0.365356 0.075653
0.610931 0.368896 0.079803
0.647308 0.372375 0.083984
0.683594 0.375885 0.088135
0.719788 0.379517 0.092346
0.755890 0.383087 0.096558
0.792480 0.388214 0.103638
0.828766 0.393494 0.110382
0.864777 0.398529 0.116547
0.900543 0.403687 0.122101
0.935974 0.408325 0.126099
0.049591 0.373260 0.045990
0.049591 0.373260 0.045990
0.049591 0.373260 0.045990
0.049591 0.373260 0.045990
0.049591 0.373260 0.045990
0.049591 0.373260 0.045990
0.049591 0.373260 0.045990
0.081940 0.374023 0.047089
0.116852 0.374847 0.048340
0.151672 0.375702 0.049591
0.186096 0.376221 0.050415
0.220398 0.376770 0.051270
0.254639 0.377319 0.052185
0.288818 0.377899 0.053131
0.322998 0.378479 0.054169
0.357147 0.379089 0.055206
0.392090 0.380615 0.057251
0.428894 0.384064 0.061310
0.465576 0.387482 0.065399
0.502197 0.390961 0.069519
0.538757 0.394379 0.073700
0.575256 0.397919 0.077881
0.611633 0.401337 0.082031
0.647949 0.404785 0.086212
0.684174 0.408386 0.090393
0.720673 0.412720 0.096069
0.757294 0.417664 0.102936
0.793701 0.422791 0.109497
0.829803 0.427704 0.115417
0.865631 0.432556 0.120544
0.901154 0.437073 0.123535
0.936401 0.441559 0.126099
0.054749 0.409119 0.051025
0.054749 0.409119 0.051025
0.054749 0.409119 0.051025
0.054749 0.409119 0.051025
0.054749 0.409119 0.051025
0.054749 0.409119 0.051025
0.054749 0.409119 0.051025
0.087006 0.409851 0.052185
0.121338 0.410339 0.053009
0.155701 0.410858 0.053864
0.189972 0.411377 0.054779
0.224243 0.411896 0.055725
0.258514 0.412476 0.056732
0.292633 0.413025 0.057770
0.326782 0.413635 0.058868
0.360779 0.414215 0.059967
0.394806 0.414825 0.061127
0.429871 0.416504 0.063446
0.466522 0.419952 0.067596
0.503113 0.423401 0.071777
0.539581 0.426819 0.075928
0.576019 0.430237 0.080109
0.612366 0.433655 0.084320
0.648621 0.437134 0.088470
0.685577 0.442139 0.095520
0.722321 0.447021 0.102264
0.758759 0.451965 0.108521
0.794952 0.456665 0.114136
0.830872 0.461304 0.118378
0.866486 0.465668 0.120941
0.901825 0.470154 0.123535
0.936859 0.474335 0.126099
0.059265 0.444580 0.055634
0.059265 0.444580 0.055634
0.059265 0.444580 0.055634
0.059265 0.444580 0.055634
0.059265 0.444580 0.055634
0.059265 0.444580 0.055634
0.059265 0.444580 0.055634
0.091003 0.445038 0.056427
0.125366 0.445526 0.057373
0.159729 0.446045 0.058319
0.194031 0.446564 0.059326
0.228149 0.447113 0.060364
0.262329 0.447662 0.061462
0.296478 0.448212 0.062592
0.330536 0.448792 0.063721
0.364594 0.449371 0.064880
0.398529 0.449951 0.066071
0.432465 0.450562 0.067291
0.467468 0.452423 0.069824
0.503998 0.455719 0.074005
0.540436 0.459167 0.078217
0.576813 0.462585 0.082397
0.613525 0.466644 0.087860
0.650604 0.471436 0.094818
0.687439 0.476288 0.101440
0.723999 0.481110 0.107483
0.760254 0.485657 0.112671
0.796234 0.489990 0.115784
0.831970 0.494385 0.118378
0.867432 0.498535 0.120941
0.902557 0.502869 0.123535
0.937347 0.506958 0.126099
0.063507 0.479980 0.060089
0.063507 0.479980 0.060089
0.063507 0.479980 0.060089
0.063507 0.479980 0.060089
0.063507 0.479980 0.060089
0.063507 0.479980 0.060089
0.063507 0.479980 0.060089
0.095215 0.480438 0.060974
0.129547 0.480927 0.062012
0.163757 0.481415 0.063049
0.198029 0.481934 0.064117
0.232208 0.482452 0.065216
0.266296 0.483002 0.066376
0.300354 0.483551 0.067535
0.334320 0.484100 0.068726
0.368286 0.484650 0.069916
0.402222 0.485229 0.071167
0.436127 0.485779 0.072418
0.469788 0.486359 0.073608
0.504913 0.488251 0.076294
0.541321 0.491608 0.080475
0.578613 0.496246 0.087341
0.615814 0.501038 0.094238
0.652710 0.505676 0.100555
0.689362 0.510376 0.106232
0.725708 0.514771 0.110657
0.761810 0.519012 0.113220
0.797668 0.523193 0.115784
0.833221 0.527313 0.118378
0.868439 0.531250 0.120941
0.903198 0.535065 0.123322
0.937531 0.537964 0.125580
0.067749 0.515594 0.064697
0.067749 0.515594 0.064697
0.067749 0.515594 0.064697
0.067749 0.515594 0.064697
0.067749 0.515594 0.064697
0.067749 0.515594 0.064697
0.067749 0.515594 0.064697
0.099396 0.516022 0.065704
0.133759 0.516510 0.066772
0.167969 0.516998 0.067902
0.202118 0.517517 0.069031
0.236267 0.518005 0.070221
0.270294 0.518524 0.071381
0.304291 0.519043 0.072601
0.338196 0.519562 0.073792
0.372101 0.520111 0.075043
0.406036 0.520630 0.076294
0.439789 0.521179 0.077515
0.473480 0.521729 0.078735
0.507721 0.522888 0.081360
0.543884 0.526154 0.086853
0.581146 0.530762 0.093536
0.618164 0.535339 0.099609
0.654907 0.539795 0.104858
0.691315 0.543945 0.108093
0.727570 0.548004 0.110657
0.763519 0.552094 0.113220
0.799164 0.556000 0.115784
0.834503 0.559998 0.118378
0.869080 0.563202 0.120575
0.903442 0.566162 0.122864
0.937683 0.569122 0.125458
0.072113 0.551605 0.069611
0.072113 0.551605 0.069611
0.072113 0.551605 0.069611
0.072113 0.551605 0.069611
0.072113 0.551605 0.069611
0.072113 0.551605 0.069611
0.072113 0.551605 0.069611
0.103729 0.552032 0.070618
0.138000 0.552490 0.071777
0.172150 0.552979 0.072968
0.206299 0.553436 0.074127
0.240326 0.553925 0.075348
0.274384 0.554413 0.076538
0.308289 0.554901 0.077789
0.342224 0.555389 0.079010
0.376007 0.555908 0.080231
0.409882 0.556396 0.081482
0.444366 0.557648 0.084503
0.479156 0.559174 0.088043
0.513580 0.560669 0.091248
0.547974 0.562103 0.094177
0.583801 0.565216 0.098480
0.620605 0.569427 0.102936
0.657166 0.573486 0.105530
0.693512 0.577423 0.108093
0.729614 0.581421 0.110657
0.765350 0.585266 0.113220
0.800507 0.588837 0.115570
0.835022 0.591827 0.117828
0.869415 0.594757 0.120300
0.903687 0.597717 0.122864
0.937836 0.600586 0.125458
0.076599 0.588013 0.074677
0.076599 0.588013 0.074677
0.076599 0.588013 0.074677
0.076599 0.588013 0.074677
0.076599 0.588013 0.074677
0.076599 0.588013 0.074677
0.076599 0.588013 0.074677
0.108246 0.588409 0.075775
0.142395 0.588837 0.076935
0.176514 0.589294 0.078156
0.210541 0.589752 0.079376
0.244537 0.590210 0.080597
0.278564 0.590668 0.081818
0.312439 0.591125 0.083038
0.346283 0.591583 0.084290
0.381195 0.592926 0.087738
0.416199 0.594330 0.091217
0.450867 0.595673 0.094360
0.485352 0.597015 0.097229
0.519653 0.598267 0.099548
0.553741 0.599457 0.101410
0.587769 0.600586 0.101410
0.623230 0.603333 0.102936
0.659729 0.607208 0.105530
0.695892 0.610992 0.108093
0.731750 0.614777 0.110657
0.766510 0.617889 0.112823
0.801025 0.620758 0.115143
0.835449 0.623688 0.117737
0.869751 0.626556 0.120300
0.903931 0.629578 0.122864
0.937988 0.632324 0.125458
0.081207 0.624969 0.079956
0.081207 0.624969 0.079956
0.081207 0.624969 0.079956
0.081207 0.624969 0.079956
0.081207 0.624969 0.079956
0.081207 0.624969 0.079956
0.081207 0.624969 0.079956
0.112701 0.625336 0.081085
0.146851 0.625763 0.082275
0.180939 0.626190 0.083527
0.214966 0.626587 0.084717
0.248932 0.627014 0.085968
0.283081 0.627563 0.087555
0.318207 0.628845 0.091156
0.353302 0.630096 0.094513
0.388245 0.631348 0.097656
0.422943 0.632568 0.100403
0.457458 0.633698 0.102631
0.491791 0.634766 0.103973
0.525940 0.635742 0.103973
0.559937 0.636749 0.103973
0.593658 0.637695 0.103973
0.627289 0.638641 0.103973
0.662415 0.641174 0.105530
0.697906 0.644592 0.107849
0.732605 0.647400 0.110107
0.767120 0.650330 0.112579
0.801544 0.653290 0.115143
0.835876 0.656128 0.117737
0.870056 0.658997 0.120300
0.904175 0.661865 0.122864
0.938141 0.664764 0.125458
0.085938 0.662537 0.085419
0.085938 0.662537 0.085419
0.085938 0.662537 0.085419
0.085938 0.662537 0.085419
0.085938 0.662537 0.085419
0.085938 0.662537 0.085419
0.085938 0.662537 0.085419
0.117462 0.662903 0.086548
0.151520 0.663269 0.087769
0.185516 0.663635 0.088989
0.220154 0.664368 0.091248
0.255585 0.665527 0.094818
0.290802 0.666626 0.098083
0.325897 0.667755 0.101105
0.360718 0.668823 0.103668
0.395447 0.669830 0.105804
0.430054 0.670776 0.106598
0.464355 0.671661 0.106598
0.498596 0.672546 0.106598
0.532623 0.673401 0.106598
0.566467 0.674255 0.106598
0.600006 0.675079 0.106598
0.632965 0.675690 0.106415
0.665070 0.675934 0.106140
0.698730 0.677734 0.107452
0.733307 0.680511 0.110016
0.767731 0.683441 0.112579
0.802063 0.686188 0.115143
0.836273 0.689178 0.117737
0.870392 0.691864 0.120300
0.904388 0.694824 0.122864
0.938293 0.697479 0.125458
0.090820 0.700775 0.091003
0.090820 0.700775 0.091003
0.090820 0.700775 0.091003
0.090820 0.700775 0.091003
0.090820 0.700775 0.091003
0.090820 0.700775 0.091003
0.090820 0.700775 0.091003
0.122192 0.701080 0.092102
0.157562 0.701935 0.095154
0.193268 0.702972 0.098663
0.228699 0.703949 0.101807
0.263885 0.704926 0.104736
0.298981 0.705872 0.107117
0.333893 0.706757 0.109039
0.368439 0.707550 0.109283
0.403076 0.708374 0.109283
0.437622 0.709137 0.109283
0.471893 0.709900 0.109283
0.505859 0.710632 0.109283
0.539673 0.711365 0.109283
0.572418 0.711761 0.109009
0.604553 0.711975 0.108765
0.636749 0.712219 0.108643
0.668823 0.712463 0.108643
0.700714 0.712677 0.108643
0.734009 0.714264 0.110016
0.768341 0.717010 0.112579
0.802582 0.719940 0.115143
0.836700 0.722626 0.117737
0.870697 0.725372 0.120300
0.904602 0.728210 0.122864
0.938416 0.731079 0.125458
0.098114 0.740082 0.099487
0.098114 0.740082 0.099487
0.098114 0.740082 0.099487
0.098114 0.740082 0.099487
0.098114 0.740082 0.099487
0.098114 0.740082 0.099487
0.098114 0.740082 0.099487
0.131073 0.740906 0.102570
0.166779 0.741791 0.105682
0.202087 0.742615 0.108368
0.237396 0.743408 0.110626
0.272491 0.744171 0.112030
0.307312 0.744873 0.112030
0.342224 0.745575 0.112030
0.376770 0.746216 0.112030
0.411346 0.746887 0.112030
0.445618 0.747528 0.112030
0.479462 0.748138 0.111908
0.511902 0.748322 0.111633
0.544128 0.748535 0.111389
0.576385 0.748749 0.111359
0.608429 0.748962 0.111359
0.640503 0.749146 0.111359
0.672363 0.749359 0.111359
0.704254 0.749573 0.111359
0.736115 0.749756 0.111359
0.768921 0.751129 0.112579
0.803070 0.753906 0.115143
0.837097 0.756622 0.117737
0.871002 0.759491 0.120300
0.904816 0.762268 0.122864
0.938538 0.764923 0.125458
0.107880 0.780212 0.109802
0.107880 0.780212 0.109802
0.107880 0.780212 0.109802
0.107880 0.780212 0.109802
0.107880 0.780212 0.109802
0.107880 0.780212 0.109802
0.107880 0.780212 0.109802
0.140686 0.780853 0.112122
0.176208 0.781525 0.114166
0.211273 0.782135 0.114777
0.246521 0.782745 0.114777
0.281525 0.783325 0.114777
0.316467 0.783875 0.114777
0.351135 0.784454 0.114777
0.385590 0.784973 0.114777
0.418976 0.785339 0.114563
