3d-lut/luts/Zeke 39.CUBE
#Created by: Adobe Photoshop Export Color Lookup Plugin
#Copyright: (C) Copyright 2017 RocketStock
TITLE "Untitled"
#LUT size
LUT_3D_SIZE 32
#data domain
DOMAIN_MIN 0.0 0.0 0.0
DOMAIN_MAX 1.0 1.0 1.0
#LUT data points
0.149811 0.121979 0.109802
0.151154 0.123383 0.109802
0.152527 0.124847 0.109802
0.154053 0.126434 0.109802
0.155609 0.128082 0.109802
0.157257 0.129791 0.109802
0.159027 0.131592 0.109802
0.160767 0.133423 0.109802
0.162689 0.135376 0.109802
0.164673 0.137421 0.109802
0.166687 0.139496 0.109802
0.168823 0.141693 0.109802
0.171021 0.143982 0.109802
0.173279 0.146240 0.109802
0.175659 0.148651 0.109802
0.178101 0.151184 0.109802
0.180603 0.153687 0.109802
0.183228 0.156342 0.109802
0.185852 0.158997 0.109802
0.188629 0.161774 0.109802
0.191528 0.164673 0.109802
0.194427 0.167603 0.109802
0.197479 0.170654 0.109802
0.200592 0.173767 0.110657
0.203766 0.176941 0.114105
0.207092 0.180267 0.117706
0.210541 0.183655 0.121368
0.213928 0.187073 0.125000
0.217529 0.190643 0.128784
0.221161 0.194244 0.132538
0.224945 0.198029 0.136444
0.228882 0.201935 0.140442
0.152496 0.124817 0.109802
0.154022 0.126373 0.109802
0.155548 0.128021 0.109802
0.157227 0.129730 0.109802
0.158966 0.131561 0.109802
0.160736 0.133392 0.109802
0.162628 0.135345 0.109802
0.164551 0.137329 0.109802
0.166626 0.139435 0.109802
0.168762 0.141632 0.109802
0.170929 0.143829 0.109802
0.173218 0.146179 0.109802
0.175568 0.148590 0.109802
0.177979 0.151031 0.109802
0.180542 0.153625 0.109802
0.183075 0.156219 0.109802
0.185791 0.158936 0.109802
0.188568 0.161713 0.109802
0.191406 0.164551 0.109802
0.194336 0.167511 0.109802
0.197388 0.170563 0.109802
0.200439 0.173615 0.110474
0.203705 0.176849 0.114014
0.207001 0.180176 0.117615
0.210327 0.183472 0.121185
0.213867 0.186981 0.124908
0.217438 0.190552 0.128693
0.221069 0.194153 0.132446
0.224884 0.197937 0.136353
0.228668 0.201752 0.140259
0.232666 0.205719 0.144318
0.236786 0.209778 0.148499
0.155518 0.127960 0.109802
0.157166 0.129700 0.109802
0.158875 0.131470 0.109802
0.160675 0.133331 0.109802
0.162537 0.135223 0.109802
0.164520 0.137268 0.109802
0.166565 0.139404 0.109802
0.168640 0.141510 0.109802
0.170868 0.143768 0.109802
0.173157 0.146118 0.109802
0.175476 0.148499 0.109802
0.177948 0.150970 0.109802
0.180450 0.153534 0.109802
0.183044 0.156128 0.109802
0.185730 0.158844 0.109802
0.188416 0.161591 0.109802
0.191315 0.164459 0.109802
0.194275 0.167419 0.109802
0.197235 0.170410 0.109802
0.200378 0.173553 0.110382
0.203613 0.176758 0.113922
0.206848 0.180023 0.117432
0.210266 0.183411 0.121094
0.213776 0.186890 0.124817
0.217285 0.190369 0.128479
0.220978 0.194061 0.132324
0.224670 0.197723 0.136169
0.228577 0.201630 0.140167
0.232574 0.205597 0.144226
0.236572 0.209564 0.148254
0.240784 0.213776 0.152496
0.245117 0.218048 0.156799
0.158813 0.131409 0.109802
0.160645 0.133301 0.109802
0.162506 0.135193 0.109802
0.164459 0.137238 0.109802
0.166473 0.139282 0.109802
0.168610 0.141449 0.109802
0.170807 0.143707 0.109802
0.173035 0.146027 0.109802
0.175415 0.148438 0.109802
0.177856 0.150909 0.109802
0.180328 0.153412 0.109802
0.182953 0.156036 0.109802
0.185638 0.158783 0.109802
0.188354 0.161530 0.109802
0.191254 0.164398 0.109802
0.194122 0.167267 0.109802
0.197174 0.170349 0.109802
0.200287 0.173462 0.110291
0.203461 0.176605 0.113739
0.206757 0.179932 0.117340
0.210175 0.183319 0.121002
0.213562 0.186737 0.124634
0.217194 0.190277 0.128387
0.220886 0.193970 0.132233
0.224579 0.197632 0.136078
0.228485 0.201508 0.140076
0.232361 0.205414 0.144012
0.236481 0.209473 0.148163
0.240662 0.213654 0.152374
0.244904 0.217834 0.156616
0.249329 0.222260 0.161011
0.253876 0.226746 0.165497
0.162445 0.135132 0.109802
0.164368 0.137115 0.109802
0.166412 0.139221 0.109802
0.168549 0.141388 0.109802
0.170685 0.143616 0.109802
0.172974 0.145966 0.109802
0.175354 0.148346 0.109802
0.177734 0.150787 0.109802
0.180267 0.153351 0.109802
0.182892 0.155975 0.109802
0.185486 0.158630 0.109802
0.188293 0.161438 0.109802
0.191101 0.164246 0.109802
0.194031 0.167206 0.109802
0.197083 0.170258 0.109802
0.200134 0.173309 0.110138
0.203369 0.176514 0.113647
0.206665 0.179840 0.117249
0.209991 0.183136 0.120819
0.213501 0.186615 0.124542
0.217102 0.190216 0.128296
0.220703 0.193787 0.132050
0.224487 0.197540 0.135986
0.228271 0.201324 0.139862
0.232269 0.205261 0.143921
0.236389 0.209381 0.148071
0.240479 0.213440 0.152191
0.244781 0.217743 0.156494
0.249207 0.222137 0.160889
0.253601 0.226532 0.165283
0.258270 0.231140 0.169861
0.263031 0.235901 0.174561
0.166382 0.139160 0.109802
0.168427 0.141296 0.109802
0.170624 0.143555 0.109802
0.172913 0.145874 0.109802
0.175232 0.148224 0.109802
0.177673 0.150726 0.109802
0.180206 0.153290 0.109802
0.182739 0.155853 0.109802
0.185455 0.158569 0.109802
0.188232 0.161377 0.109802
0.191010 0.164185 0.109802
0.193970 0.167145 0.109802
0.196930 0.170105 0.109802
0.200073 0.173248 0.110046
0.203278 0.176453 0.113556
0.206512 0.179657 0.117065
0.209900 0.183075 0.120728
0.213409 0.186523 0.124451
0.216919 0.190033 0.128113
0.220612 0.193695 0.131958
0.224396 0.197449 0.135864
0.228180 0.201202 0.139771
0.232147 0.205170 0.143829
0.236176 0.209167 0.147858
0.240356 0.213348 0.152069
0.244690 0.217621 0.156372
0.248962 0.221924 0.160675
0.253479 0.226410 0.165161
0.258148 0.231049 0.169739
0.262787 0.235626 0.174347
0.267609 0.240479 0.179138
0.272614 0.245483 0.184052
0.170563 0.143494 0.109802
0.172791 0.145752 0.109802
0.175171 0.148163 0.109802
0.177612 0.150665 0.109802
0.180084 0.153137 0.109802
0.182678 0.155792 0.109802
0.185394 0.158508 0.109802
0.188080 0.161224 0.109802
0.190948 0.164093 0.109802
0.193817 0.166992 0.109802
0.196869 0.170013 0.109802
0.199982 0.173157 0.109955
0.203094 0.176270 0.113373
0.206451 0.179596 0.116974
0.209808 0.182983 0.120636
0.213226 0.186371 0.124268
0.216797 0.189941 0.128021
0.220520 0.193573 0.131866
0.224213 0.197266 0.135681
0.228088 0.201111 0.139648
0.231964 0.204987 0.143616
0.236084 0.209045 0.147736
0.240265 0.213226 0.151947
0.244476 0.217407 0.156158
0.248871 0.221802 0.160553
0.253387 0.226288 0.165039
0.257904 0.230804 0.169525
0.262665 0.235535 0.174225
0.267487 0.240387 0.179016
0.272369 0.245239 0.183807
0.277435 0.250336 0.188843
0.282532 0.255402 0.193878
0.175110 0.148102 0.109802
0.177490 0.150543 0.109802
0.180023 0.153076 0.109802
0.182617 0.155731 0.109802
0.185242 0.158356 0.109802
0.188019 0.161163 0.109802
0.190857 0.164032 0.109802
0.193726 0.166931 0.109802
0.196777 0.169952 0.109802
0.199829 0.173004 0.109802
0.203033 0.176178 0.113281
0.206329 0.179504 0.116882
0.209656 0.182800 0.120453
0.213104 0.186279 0.124176
0.216705 0.189850 0.127930
0.220337 0.193390 0.131683
0.224091 0.197174 0.135590
0.227997 0.201019 0.139557
0.231873 0.204895 0.143494
0.235962 0.208954 0.147644
0.240021 0.213013 0.151764
0.244354 0.217316 0.156036
0.248779 0.221680 0.160461
0.253174 0.226074 0.164825
0.257812 0.230713 0.169403
0.262543 0.235413 0.174103
0.267242 0.240112 0.178802
0.272247 0.245117 0.183685
0.277313 0.250183 0.188721
0.282410 0.255249 0.193756
0.287720 0.260620 0.199005
0.293030 0.265961 0.204285
0.179962 0.153015 0.109802
0.182495 0.155579 0.109802
0.185181 0.158295 0.109802
0.187927 0.161072 0.109802
0.190735 0.163879 0.109802
0.193665 0.166840 0.109802
0.196594 0.169800 0.109802
0.199738 0.172913 0.109802
0.202942 0.176117 0.113220
0.206177 0.179352 0.116699
0.209564 0.182709 0.120361
0.213043 0.186188 0.124084
0.216553 0.189667 0.127747
0.220215 0.193298 0.131592
0.223999 0.197052 0.135468
0.227783 0.200836 0.139343
0.231750 0.204803 0.143402
0.235870 0.208862 0.147522
0.239929 0.212921 0.151672
0.244232 0.217224 0.155945
0.248505 0.221466 0.160217
0.253052 0.225952 0.164703
0.257690 0.230560 0.169281
0.262299 0.235168 0.173859
0.267120 0.240021 0.178650
0.272095 0.244965 0.183563
0.277039 0.249939 0.188477
0.282257 0.255127 0.193604
0.287598 0.260468 0.198883
0.292877 0.265808 0.204163
0.298431 0.271393 0.209717
0.303955 0.276978 0.215240
0.185120 0.158234 0.109802
0.187775 0.160950 0.109802
0.190643 0.163788 0.109802
0.193573 0.166779 0.109802
0.196533 0.169708 0.109802
0.199677 0.172821 0.109802
0.202759 0.175964 0.113037
0.206085 0.179260 0.116608
0.209473 0.182617 0.120270
0.212860 0.186005 0.123871
0.216461 0.189545 0.127655
0.220123 0.193207 0.131500
0.223816 0.196869 0.135284
0.227661 0.200745 0.139252
0.231659 0.204712 0.143311
0.235626 0.208679 0.147339
0.239838 0.212799 0.151550
0.244019 0.216980 0.155731
0.248413 0.221344 0.160126
0.252930 0.225830 0.164612
0.257416 0.230347 0.169067
0.262177 0.235046 0.173737
0.267029 0.239868 0.178528
0.271851 0.244720 0.183319
0.276917 0.249786 0.188354
0.282135 0.255005 0.193481
0.287323 0.260193 0.198639
0.292755 0.265656 0.204010
0.298126 0.271118 0.209442
0.303802 0.276794 0.215088
0.309601 0.282684 0.220947
0.315369 0.288483 0.226746
0.190582 0.163727 0.109802
0.193420 0.166626 0.109802
0.196442 0.169647 0.109802
0.199524 0.172668 0.109802
0.202698 0.175873 0.112946
0.205994 0.179169 0.116516
0.209320 0.182465 0.120087
0.212799 0.185944 0.123779
0.216370 0.189484 0.127563
0.219940 0.193024 0.131287
0.223694 0.196777 0.135162
0.227600 0.200653 0.139160
0.231445 0.204498 0.143097
0.235535 0.208527 0.147217
0.239624 0.212585 0.151337
0.243927 0.216888 0.155609
0.248291 0.221252 0.160004
0.252686 0.225616 0.164368
0.257324 0.230225 0.168945
0.262054 0.234924 0.173615
0.266785 0.239655 0.178314
0.271729 0.244598 0.183167
0.276794 0.249664 0.188232
0.281830 0.254730 0.193207
0.287170 0.260071 0.198486
0.292603 0.265533 0.203888
0.298004 0.270966 0.209290
0.303680 0.276672 0.214966
0.309296 0.282379 0.220642
0.315216 0.288330 0.226593
0.321259 0.294464 0.232727
0.327240 0.300537 0.238861
0.196381 0.169556 0.109802
0.199432 0.172607 0.109802
0.202606 0.175812 0.112854
0.205841 0.178986 0.116333
0.209198 0.182373 0.119995
0.212708 0.185852 0.123688
0.216187 0.189301 0.127380
0.219879 0.192963 0.131195
0.223633 0.196686 0.135071
0.227417 0.200439 0.138947
0.231384 0.204407 0.142975
0.235443 0.208435 0.147095
0.239502 0.212494 0.151215
0.243805 0.216766 0.155518
0.248077 0.221008 0.159790
0.252594 0.225494 0.164276
0.257233 0.230103 0.168823
0.261810 0.234680 0.173401
0.266663 0.239502 0.178162
0.271606 0.244507 0.183075
0.276550 0.249420 0.187958
0.281738 0.254639 0.193085
0.287048 0.259949 0.198334
0.292328 0.265259 0.203613
0.297882 0.270813 0.209137
0.303406 0.276398 0.214661
0.309174 0.282257 0.220490
0.315063 0.288208 0.226471
0.320953 0.294128 0.232391
0.327087 0.300385 0.238678
0.333344 0.306732 0.245117
0.339600 0.313110 0.251526
0.202454 0.175629 0.112671
0.205750 0.178925 0.116241
0.209137 0.182281 0.119904
0.212524 0.185638 0.123505
0.216095 0.189209 0.127289
0.219757 0.192871 0.131073
0.223419 0.196503 0.134888
0.227295 0.200348 0.138855
0.231262 0.204285 0.142883
0.235229 0.208252 0.146912
0.239410 0.212402 0.151123
0.243591 0.216553 0.155273
0.247986 0.220917 0.159668
0.252472 0.225403 0.164154
0.256989 0.229858 0.168610
0.261688 0.234558 0.173279
0.266541 0.239410 0.178070
0.271332 0.244232 0.182831
0.276428 0.249298 0.187836
0.281616 0.254486 0.192963
0.286774 0.259674 0.198090
0.292175 0.265106 0.203491
0.297729 0.270691 0.209015
0.303253 0.276245 0.214539
0.309021 0.282074 0.220337
0.314789 0.287872 0.226166
0.320801 0.293976 0.232239
0.326935 0.300232 0.238525
0.333038 0.306427 0.244781
0.339447 0.312927 0.251373
0.345917 0.319580 0.258118
0.352356 0.326202 0.264862
0.208954 0.182129 0.119720
0.212433 0.185547 0.123413
0.215973 0.189117 0.127167
0.219574 0.192688 0.130890
0.223328 0.196411 0.134796
0.227203 0.200256 0.138763
0.231049 0.204071 0.142700
0.235138 0.208130 0.146820
0.239319 0.212311 0.151001
0.243500 0.216461 0.155182
0.247864 0.220795 0.159546
0.252258 0.225159 0.163910
0.256836 0.229736 0.168488
0.261566 0.234436 0.173157
0.266266 0.239166 0.177795
0.271210 0.244110 0.182678
0.276306 0.249146 0.187683
0.281342 0.254211 0.192719
0.286652 0.259552 0.197937
0.292023 0.264954 0.203369
0.297455 0.270416 0.208740
0.303101 0.276093 0.214386
0.308716 0.281769 0.220032
0.314636 0.287750 0.226013
0.320648 0.293854 0.232086
0.326630 0.299927 0.238190
0.332886 0.306274 0.244629
0.339264 0.312775 0.251221
0.345612 0.319244 0.257782
0.352203 0.326019 0.264679
0.358948 0.332916 0.271790
0.365631 0.339783 0.278870
0.215820 0.188934 0.126953
0.219482 0.192596 0.130798
0.223236 0.196320 0.134705
0.226990 0.200073 0.138550
0.230957 0.203979 0.142578
0.235016 0.208038 0.146698
0.239105 0.212067 0.150787
0.243378 0.216309 0.155090
0.247650 0.220581 0.159332
0.252136 0.225037 0.163788
0.256744 0.229645 0.168365
0.261322 0.234222 0.172913
0.266174 0.239044 0.177704
0.271088 0.243958 0.182556
0.276031 0.248901 0.187469
0.281189 0.254089 0.192596
0.286530 0.259399 0.197815
0.291748 0.264679 0.203064
0.297302 0.270233 0.208618
0.302979 0.275970 0.214264
0.308594 0.281616 0.219910
0.314484 0.287598 0.225861
0.320343 0.293549 0.231781
0.326477 0.299774 0.238037
0.332703 0.306091 0.244476
0.338959 0.312469 0.250854
0.345428 0.319092 0.257599
0.352051 0.325836 0.264496
0.358612 0.332550 0.271423
0.365448 0.339600 0.278687
0.372437 0.346771 0.286102
0.379303 0.353851 0.293488
0.223053 0.196106 0.134491
0.226898 0.199982 0.138458
0.230865 0.203888 0.142487
0.234833 0.207794 0.146484
0.239014 0.211975 0.150696
0.243256 0.216217 0.154968
0.247559 0.220459 0.159210
0.252014 0.224915 0.163696
0.256531 0.229401 0.168152
0.261200 0.234100 0.172791
0.266052 0.238922 0.177582
0.270844 0.243744 0.182343
0.275909 0.248779 0.187347
0.281067 0.253967 0.192444
0.286255 0.259125 0.197571
0.291626 0.264557 0.202911
0.297180 0.270111 0.208435
0.302673 0.275696 0.213959
0.308441 0.281464 0.219757
0.314178 0.287292 0.225555
0.320190 0.293396 0.231628
0.326324 0.299622 0.237854
0.332397 0.305786 0.244141
0.338806 0.312286 0.250702
0.345276 0.318909 0.257416
0.351715 0.325500 0.264160
0.358429 0.332367 0.271240
0.365265 0.339447 0.278473
0.372070 0.346405 0.285736
0.379120 0.353668 0.293335
0.386139 0.360901 0.300873
0.393402 0.368469 0.308807
0.230682 0.203705 0.142273
0.234711 0.207703 0.146393
0.238892 0.211884 0.150604
0.243042 0.216003 0.154755
0.247437 0.220367 0.159119
0.251892 0.224823 0.163574
0.256409 0.229279 0.167999
0.261078 0.233978 0.172668
0.265808 0.238678 0.177307
0.270721 0.243591 0.182220
0.275787 0.248657 0.187195
0.280823 0.253693 0.192200
0.286102 0.258972 0.197418
0.291504 0.264404 0.202789
0.296906 0.269836 0.208191
0.302551 0.275543 0.213837
0.308289 0.281342 0.219604
0.314026 0.287170 0.225403
0.320038 0.293213 0.231476
0.326172 0.299438 0.237732
0.332245 0.305603 0.243988
0.338623 0.312103 0.250549
0.344940 0.318573 0.257111
0.351532 0.325317 0.263977
0.358276 0.332214 0.271057
0.364929 0.339050 0.278107
0.371887 0.346222 0.285553
0.378937 0.353516 0.293121
0.385956 0.360748 0.300659
0.393219 0.368256 0.308594
0.400635 0.375946 0.316742
0.407898 0.383514 0.324829
0.238678 0.211639 0.150360
0.242950 0.215881 0.154633
0.247314 0.220276 0.159027
0.251678 0.224579 0.163361
0.256256 0.229187 0.167908
0.260986 0.233856 0.172546
0.265656 0.238556 0.177216
0.270599 0.243500 0.182098
0.275543 0.248383 0.186951
0.280701 0.253571 0.192047
0.285980 0.258881 0.197296
0.291229 0.264130 0.202515
0.296753 0.269684 0.208038
0.302399 0.275360 0.213684
0.308014 0.281036 0.219330
0.313904 0.286987 0.225250
0.319885 0.293060 0.231323
0.325867 0.299133 0.237427
0.332092 0.305481 0.243805
0.338318 0.311798 0.250214
0.344788 0.318390 0.256927
0.351379 0.325165 0.263824
0.357941 0.331879 0.270691
0.364746 0.338898 0.277924
0.371704 0.346039 0.285339
0.378601 0.353119 0.292755
0.385773 0.360535 0.300507
0.393036 0.368103 0.308411
0.400238 0.375549 0.316315
0.407715 0.383362 0.324615
0.415131 0.391022 0.332825
0.422760 0.399048 0.341492
0.247101 0.220032 0.158783
0.251587 0.224487 0.163239
0.256165 0.229065 0.167786
0.260742 0.233643 0.172333
0.265564 0.238434 0.177094
0.270355 0.243225 0.181824
0.275391 0.248260 0.186829
0.280579 0.253448 0.191925
0.285706 0.258575 0.197021
0.291077 0.264008 0.202393
0.296600 0.269562 0.207886
0.302124 0.275085 0.213409
0.307861 0.280884 0.219177
0.313721 0.286865 0.225098
0.319611 0.292786 0.231018
0.325714 0.298981 0.237244
0.331940 0.305298 0.243652
0.338165 0.311646 0.250061
0.344635 0.318237 0.256744
0.351044 0.324829 0.263458
0.357788 0.331696 0.270538
0.364594 0.338715 0.277771
0.371338 0.345673 0.284973
0.378418 0.352936 0.292572
0.385590 0.360352 0.300323
0.392670 0.367706 0.308044
0.400055 0.375336 0.316101
0.407501 0.383148 0.324402
0.414917 0.390869 0.332642
0.422577 0.398865 0.341248
0.430145 0.406799 0.349854
0.437958 0.415039 0.358826
0.255920 0.228821 0.167542
0.260620 0.233521 0.172211
0.265411 0.238312 0.176971
0.270233 0.243103 0.181702
0.275269 0.248138 0.186707
0.280304 0.253174 0.191681
0.285583 0.258453 0.196899
0.290985 0.263855 0.202271
0.296356 0.269287 0.207611
0.301971 0.274933 0.213257
0.307709 0.280762 0.219025
0.313416 0.286530 0.224792
0.319458 0.292603 0.230865
0.325562 0.298828 0.237091
0.331635 0.304993 0.243317
0.338013 0.311462 0.249878
0.344299 0.317902 0.256409
0.350891 0.324646 0.263275
0.357574 0.331543 0.270355
0.364258 0.338348 0.277405
0.371185 0.345490 0.284790
0.378235 0.352783 0.292358
0.385223 0.359985 0.299927
0.392487 0.367493 0.307831
0.399872 0.375153 0.315918
0.407135 0.382751 0.323975
0.414734 0.390656 0.332428
0.422211 0.398438 0.340820
0.429932 0.406555 0.349609
0.437744 0.414795 0.358551
0.445435 0.422913 0.367462
0.453430 0.431335 0.376770
0.265167 0.238037 0.176727
0.270081 0.242981 0.181580
0.274994 0.247894 0.186432
0.280151 0.253052 0.191528
0.285461 0.258331 0.196747
0.290680 0.263580 0.201996
0.296204 0.269135 0.207489
0.301819 0.274780 0.213104
0.307434 0.280457 0.218719
0.313263 0.286407 0.224640
0.319305 0.292480 0.230713
0.325226 0.298492 0.236786
0.331482 0.304810 0.243164
0.337646 0.311157 0.249542
0.344147 0.317749 0.256256
0.350708 0.324463 0.263123
0.357239 0.331146 0.269989
0.364075 0.338196 0.277222
0.371002 0.345306 0.284607
0.377899 0.352417 0.291931
0.385040 0.359772 0.299713
0.392303 0.367340 0.307648
0.399445 0.374786 0.315521
0.406952 0.382568 0.323792
0.414520 0.390442 0.332214
0.422028 0.398254 0.340607
0.429749 0.406372 0.349365
0.437378 0.414398 0.358124
0.445282 0.422729 0.367218
0.453217 0.431152 0.376495
0.460999 0.439392 0.385712
0.469086 0.447968 0.395233
0.274872 0.247742 0.186310
0.280029 0.252899 0.191437
0.285187 0.258057 0.196503
0.290558 0.263458 0.201874
0.296051 0.269012 0.207336
0.301544 0.274536 0.212830
0.307281 0.280334 0.218597
0.313141 0.286255 0.224487
0.319000 0.292145 0.230408
0.325073 0.298340 0.236603
0.331299 0.304688 0.243011
0.337494 0.310974 0.249390
0.343933 0.317566 0.256073
0.350403 0.324127 0.262787
0.357056 0.330994 0.269836
0.363892 0.338013 0.277008
0.370667 0.344940 0.284210
0.377716 0.352203 0.291748
0.384857 0.359619 0.299500
0.391907 0.366943 0.307220
0.399292 0.374573 0.315308
0.406738 0.382324 0.323578
0.414124 0.390015 0.331787
0.421814 0.398041 0.340393
0.429352 0.405945 0.348938
0.437195 0.414185 0.357880
0.445068 0.422485 0.367004
0.452789 0.430695 0.376007
0.460785 0.439178 0.385437
0.468872 0.447754 0.395020
0.476746 0.456146 0.404510
0.484833 0.464874 0.414337
0.285034 0.257904 0.196350
0.290405 0.263306 0.201752
0.295776 0.268707 0.207062
0.301392 0.274353 0.212677
0.307159 0.280151 0.218445
0.312836 0.285950 0.224213
0.318817 0.291962 0.230255
0.324921 0.298157 0.236481
0.330994 0.304352 0.242676
0.337341 0.310822 0.249207
0.343628 0.317230 0.255737
0.350220 0.323975 0.262604
0.356903 0.330811 0.269623
0.363556 0.337646 0.276642
0.370483 0.344757 0.284027
0.377533 0.352051 0.291565
0.384491 0.359253 0.299103
0.391754 0.366760 0.307037
0.399109 0.374390 0.315094
0.406403 0.381989 0.323151
0.413940 0.389832 0.331573
0.421631 0.397827 0.340149
0.429138 0.405762 0.348724
0.436981 0.413971 0.357666
0.444672 0.422089 0.366547
0.452637 0.430511 0.375793
0.460632 0.438995 0.385193
0.468475 0.447388 0.394501
0.476501 0.455963 0.404236
0.484589 0.464630 0.414062
0.492523 0.473114 0.423798
0.500610 0.481873 0.433838
0.295654 0.268585 0.206909
0.301239 0.274231 0.212524
0.306854 0.279877 0.218170
0.312683 0.285828 0.224060
0.318665 0.291840 0.230103
0.324615 0.297882 0.236176
0.330841 0.304199 0.242523
0.337189 0.310638 0.249054
0.343475 0.317047 0.255585
0.350037 0.323792 0.262451
0.356567 0.330475 0.269287
0.363373 0.337463 0.276489
0.370300 0.344604 0.283875
0.377167 0.351685 0.291199
0.384308 0.359039 0.298950
0.391571 0.366577 0.306824
0.398743 0.374023 0.314697
0.406219 0.381744 0.322937
0.413757 0.389648 0.331390
0.421234 0.397461 0.339752
0.428986 0.405579 0.348511
0.436554 0.413574 0.357208
0.444458 0.421906 0.366302
0.452423 0.430298 0.375549
0.460205 0.438599 0.384705
0.468262 0.447113 0.394287
0.476318 0.455750 0.403961
0.484192 0.464203 0.413605
0.492310 0.472900 0.423553
0.500397 0.481659 0.433594
0.508331 0.490173 0.443542
0.516418 0.498901 0.453766
0.306671 0.279724 0.218018
0.312561 0.285675 0.223907
0.318359 0.291534 0.229797
0.324463 0.297729 0.235992
0.330688 0.304047 0.242371
0.336853 0.310333 0.248718
0.343323 0.316925 0.255402
0.349884 0.323639 0.262268
0.356415 0.330322 0.269104
0.363220 0.337280 0.276306
0.369934 0.344238 0.283508
0.376984 0.351471 0.291016
0.384125 0.358887 0.298737
0.391174 0.366211 0.306427
0.398560 0.373810 0.314484
0.406036 0.381592 0.322723
0.413361 0.389252 0.330933
0.421021 0.397247 0.339539
0.428772 0.405334 0.348297
0.436401 0.413361 0.356995
0.444275 0.421661 0.366089
0.452057 0.429871 0.375092
0.459991 0.438354 0.384491
0.468048 0.446930 0.394043
0.475891 0.455322 0.403503
0.484039 0.463989 0.413330
0.492126 0.472687 0.423279
0.500000 0.481201 0.433136
0.508148 0.489929 0.443268
0.516235 0.498688 0.453522
0.524048 0.507233 0.463593
0.532104 0.515900 0.473877
0.318237 0.291382 0.229645
0.324310 0.297577 0.235840
0.330383 0.303711 0.242035
0.336700 0.310150 0.248535
0.343140 0.316742 0.255249
0.349548 0.323273 0.261902
0.356232 0.330139 0.268951
0.362885 0.336914 0.275940
0.369781 0.344055 0.283325
0.376831 0.351318 0.290833
0.383759 0.358459 0.298340
0.390991 0.365997 0.306213
0.398376 0.373596 0.314301
0.405640 0.381195 0.322327
0.413208 0.389038 0.330719
0.420868 0.397034 0.339294
0.428375 0.404968 0.347839
0.436218 0.413147 0.356781
0.443878 0.421265 0.365631
0.451843 0.429657 0.374847
0.459839 0.438141 0.384247
0.467651 0.446503 0.393585
0.475708 0.455078 0.403259
0.483795 0.463745 0.413116
0.491730 0.472229 0.422821
0.499817 0.480988 0.432892
0.507904 0.489716 0.442993
0.515808 0.498230 0.453003
0.523865 0.506989 0.463318
0.531708 0.515503 0.473358
0.539673 0.524200 0.483704
0.547638 0.532837 0.494110
0.330231 0.303558 0.241882
0.336548 0.309967 0.248383
0.342834 0.316406 0.254883
0.349365 0.323120 0.261719
0.356049 0.329987 0.268738
0.362701 0.336761 0.275757
0.369598 0.343872 0.283112
0.376465 0.350952 0.290436
0.383606 0.358307 0.298126
0.390869 0.365814 0.306030
0.397980 0.373230 0.313873
0.405457 0.380981 0.322113
0.413025 0.388855 0.330505
0.420471 0.396606 0.338898
0.428162 0.404724 0.347595
0.436005 0.412933 0.356537
0.443665 0.421082 0.365417
0.451630 0.429443 0.374634
0.459381 0.437714 0.383759
0.467438 0.446289 0.393341
0.475494 0.454865 0.403046
0.483429 0.463318 0.412567
0.491516 0.472015 0.422577
0.499603 0.480774 0.432617
0.507538 0.489319 0.442535
0.515625 0.498016 0.452759
0.523651 0.506775 0.463043
0.531525 0.515259 0.473114
0.539490 0.523926 0.483490
0.547272 0.532410 0.493561
0.555145 0.540955 0.503906
0.562958 0.549500 0.514221
0.342651 0.316223 0.254730
0.349213 0.322937 0.261536
0.355743 0.329620 0.268372
0.362518 0.336578 0.275574
0.369263 0.343536 0.282745
0.376251 0.350739 0.290253
0.383423 0.358124 0.297943
0.390503 0.365448 0.305603
0.397797 0.373047 0.313660
0.405273 0.380768 0.321869
0.412628 0.388458 0.330109
0.420288 0.396423 0.338684
0.427979 0.404541 0.347412
0.435577 0.412506 0.356079
0.443451 0.420837 0.365173
0.451263 0.429016 0.374146
