3d-lut/luts/Zeke 39.CUBE
#Created by: Adobe Photoshop Export Color Lookup Plugin
#Copyright: (C) Copyright 2017 RocketStock
TITLE "Untitled"
#LUT size
LUT_3D_SIZE 8
#data domain
#LUT data points
DOMAIN_MIN 0.000000 0.000000 0.000000
DOMAIN_MAX 0.903226 0.903226 0.903226
0.149811 0.121979 0.109802
0.155609 0.128082 0.109802
0.162689 0.135376 0.109802
0.171021 0.143982 0.109802
0.180603 0.153687 0.109802
0.191528 0.164673 0.109802
0.203766 0.176941 0.114105
0.217529 0.190643 0.128784
0.162445 0.135132 0.109802
0.170685 0.143616 0.109802
0.180267 0.153351 0.109802
0.191101 0.164246 0.109802
0.203369 0.176514 0.113647
0.217102 0.190216 0.128296
0.232269 0.205261 0.143921
0.249207 0.222137 0.160889
0.179962 0.153015 0.109802
0.190735 0.163879 0.109802
0.202942 0.176117 0.113220
0.216553 0.189667 0.127747
0.231750 0.204803 0.143402
0.248505 0.221466 0.160217
0.267120 0.240021 0.178650
0.287598 0.260468 0.198883
0.202454 0.175629 0.112671
0.216095 0.189209 0.127289
0.231262 0.204285 0.142883
0.247986 0.220917 0.159668
0.266541 0.239410 0.178070
0.286774 0.259674 0.198090
0.309021 0.282074 0.220337
0.333038 0.306427 0.244781
0.230682 0.203705 0.142273
0.247437 0.220367 0.159119
0.265808 0.238678 0.177307
0.286102 0.258972 0.197418
0.308289 0.281342 0.219604
0.332245 0.305603 0.243988
0.358276 0.332214 0.271057
0.385956 0.360748 0.300659
0.265167 0.238037 0.176727
0.285461 0.258331 0.196747
0.307434 0.280457 0.218719
0.331482 0.304810 0.243164
0.357239 0.331146 0.269989
0.385040 0.359772 0.299713
0.414520 0.390442 0.332214
0.445282 0.422729 0.367218
0.306671 0.279724 0.218018
0.330688 0.304047 0.242371
0.356415 0.330322 0.269104
0.384125 0.358887 0.298737
0.413361 0.389252 0.330933
0.444275 0.421661 0.366089
0.475891 0.455322 0.403503
0.508148 0.489929 0.443268
0.355560 0.329437 0.268219
0.383057 0.357758 0.297577
0.412415 0.388275 0.329895
0.443298 0.420624 0.364929
0.474915 0.454224 0.402283
0.507141 0.488831 0.442017
0.538910 0.523315 0.482727
0.570099 0.557373 0.523682
0.151794 0.124084 0.109802
0.158081 0.130615 0.109802
0.165588 0.138367 0.109802
0.174408 0.147400 0.109802
0.184418 0.157532 0.109802
0.195831 0.169037 0.109802
0.208618 0.181763 0.119354
0.222961 0.196014 0.134399
0.165344 0.138123 0.109802
0.174103 0.147064 0.109802
0.184113 0.157196 0.109802
0.195496 0.168640 0.109802
0.208191 0.181366 0.118896
0.222473 0.195557 0.133911
0.238220 0.211243 0.149933
0.255798 0.228699 0.167450
0.183746 0.156860 0.109802
0.195038 0.168182 0.109802
0.207764 0.180939 0.118408
0.221924 0.195007 0.133331
0.237732 0.210724 0.149414
0.255219 0.228149 0.166870
0.274353 0.247284 0.185822
0.295502 0.268433 0.206787
0.207336 0.180511 0.117981
0.221436 0.194550 0.132843
0.237213 0.210205 0.148895
0.254547 0.227448 0.166168
0.273743 0.246613 0.185211
0.294678 0.267609 0.205963
0.317627 0.290771 0.229034
0.342346 0.315887 0.254364
0.236694 0.209686 0.148376
0.253967 0.226868 0.165619
0.273102 0.245972 0.184570
0.293976 0.266907 0.205261
0.316895 0.290009 0.228271
0.341522 0.315063 0.253540
0.368225 0.342438 0.281616
0.396515 0.371704 0.312256
0.272369 0.245239 0.183807
0.293304 0.266235 0.204590
0.315948 0.289124 0.227356
0.340698 0.314240 0.252716
0.367340 0.341553 0.280701
0.395599 0.370758 0.311249
0.425659 0.402100 0.344757
0.456818 0.434937 0.380676
0.315216 0.288330 0.226593
0.339905 0.313416 0.251862
0.366302 0.340485 0.279572
0.394684 0.369781 0.310242
0.424500 0.400879 0.343445
0.455811 0.433899 0.379547
0.487671 0.467926 0.417816
0.519836 0.502625 0.458160
0.365448 0.339600 0.278687
0.393768 0.368835 0.309235
0.423553 0.399872 0.342377
0.454803 0.432831 0.378387
0.486633 0.466827 0.416565
0.518860 0.501526 0.456909
0.550415 0.535858 0.497711
0.581207 0.569458 0.538513
0.153931 0.126312 0.109802
0.160675 0.133331 0.109802
0.168640 0.141510 0.109802
0.177948 0.150970 0.109802
0.188416 0.161591 0.109802
0.200378 0.173553 0.110382
0.213776 0.186890 0.124817
0.228577 0.201630 0.140167
0.168365 0.141235 0.109802
0.177612 0.150665 0.109802
0.188080 0.161224 0.109802
0.199982 0.173157 0.109955
0.213226 0.186371 0.124268
0.228088 0.201111 0.139648
0.244476 0.217407 0.156158
0.262665 0.235535 0.174225
0.187744 0.160889 0.109802
0.199524 0.172668 0.109802
0.212799 0.185944 0.123779
0.227600 0.200653 0.139160
0.243927 0.216888 0.155609
0.262054 0.234924 0.173615
0.281830 0.254730 0.193207
0.303680 0.276672 0.214966
0.212372 0.185486 0.123322
0.226990 0.200073 0.138550
0.243378 0.216309 0.155090
0.261322 0.234222 0.172913
0.281189 0.254089 0.192596
0.302826 0.275818 0.214081
0.326477 0.299774 0.238037
0.352051 0.325836 0.264496
0.242859 0.215790 0.154541
0.260742 0.233643 0.172333
0.280579 0.253448 0.191925
0.302124 0.275085 0.213409
0.325714 0.298981 0.237244
0.351044 0.324829 0.263458
0.378418 0.352936 0.292572
0.407318 0.382965 0.324188
0.279755 0.252625 0.191162
0.301392 0.274353 0.212677
0.324921 0.298157 0.236481
0.350220 0.323975 0.262604
0.377533 0.352051 0.291565
0.406403 0.381989 0.323151
0.436981 0.413971 0.357666
0.468475 0.447388 0.394501
0.324005 0.297241 0.235504
0.349365 0.323120 0.261719
0.376465 0.350952 0.290436
0.405457 0.380981 0.322113
0.436005 0.412933 0.356537
0.467438 0.446289 0.393341
0.499603 0.480774 0.432617
0.531525 0.515259 0.473114
0.375580 0.350006 0.289520
0.404510 0.380005 0.321075
0.434814 0.411713 0.355194
0.466461 0.445190 0.392151
0.498413 0.479462 0.431122
0.530518 0.514191 0.471802
0.561798 0.548218 0.512665
0.592010 0.581390 0.553070
0.156250 0.128723 0.109802
0.163483 0.136200 0.109802
0.171906 0.144836 0.109802
0.181610 0.154724 0.109802
0.192719 0.165863 0.109802
0.205078 0.178253 0.115540
0.218994 0.192139 0.130310
0.234406 0.207428 0.146088
0.171600 0.144531 0.109802
0.181305 0.154388 0.109802
0.192261 0.165436 0.109802
0.204681 0.177826 0.115082
0.218475 0.191559 0.129761
0.233887 0.206909 0.145569
0.251007 0.223907 0.162689
0.269745 0.242615 0.181213
0.191895 0.165070 0.109802
0.204254 0.177429 0.114624
0.218018 0.191101 0.129272
0.233398 0.206421 0.145050
0.250336 0.223236 0.161987
0.269104 0.242004 0.180634
0.289612 0.262512 0.200897
0.312103 0.285217 0.223450
0.217529 0.190643 0.128784
0.232788 0.205811 0.144409
0.249756 0.222687 0.161438
0.268463 0.241394 0.179993
0.288910 0.261810 0.200256
0.311371 0.284454 0.222717
0.335602 0.309021 0.247406
0.361816 0.335876 0.274811
0.249207 0.222137 0.160889
0.267761 0.240631 0.179260
0.288239 0.261139 0.199585
0.310455 0.283569 0.221832
0.334778 0.308197 0.246552
0.360992 0.334991 0.273926
0.388824 0.363739 0.303833
0.418549 0.394623 0.336700
0.287598 0.260468 0.198883
0.309753 0.282837 0.221069
0.333984 0.307404 0.245758
0.359955 0.333954 0.272858
0.387939 0.362762 0.302856
0.417358 0.393433 0.335419
0.448425 0.426056 0.370911
0.480164 0.459869 0.408661
0.333038 0.306427 0.244781
0.359131 0.333099 0.271942
0.387024 0.361847 0.301849
0.416443 0.392456 0.334351
0.447449 0.425018 0.369751
0.479126 0.458740 0.407440
0.511353 0.493408 0.447388
0.543091 0.527863 0.488098
0.385956 0.360748 0.300659
0.415497 0.391449 0.333282
0.446289 0.423767 0.368378
0.478149 0.457703 0.406189
0.510162 0.492126 0.445831
0.542053 0.526764 0.486816
0.573181 0.560760 0.527802
0.602692 0.593079 0.567474
0.158783 0.131378 0.109802
0.166412 0.139221 0.109802
0.175354 0.148346 0.109802
0.185486 0.158630 0.109802
0.197083 0.170258 0.109802
0.209991 0.183136 0.120819
0.224487 0.197540 0.135986
0.240479 0.213440 0.152191
0.174988 0.148010 0.109802
0.185181 0.158295 0.109802
0.196594 0.169800 0.109802
0.209564 0.182709 0.120361
0.223999 0.197052 0.135468
0.239929 0.212921 0.151672
0.257690 0.230560 0.169281
0.277039 0.249939 0.188477
0.196228 0.169434 0.109802
0.209137 0.182281 0.119904
0.223419 0.196503 0.134888
0.239410 0.212402 0.151123
0.256989 0.229858 0.168610
0.276428 0.249298 0.187836
0.297607 0.270538 0.208893
0.320801 0.293976 0.232239
0.222961 0.196014 0.134399
0.238892 0.211884 0.150604
0.256409 0.229279 0.167999
0.275787 0.248657 0.187195
0.296906 0.269836 0.208191
0.320038 0.293213 0.231476
0.344940 0.318573 0.257111
0.371887 0.346222 0.285553
0.255798 0.228699 0.167450
0.274994 0.247894 0.186432
0.296204 0.269135 0.207489
0.319305 0.292480 0.230713
0.344147 0.317749 0.256256
0.371002 0.345306 0.284607
0.399445 0.374786 0.315521
0.429749 0.406372 0.349365
0.295502 0.268433 0.206787
0.318359 0.291534 0.229797
0.343323 0.316925 0.255402
0.369934 0.344238 0.283508
0.398560 0.373810 0.314484
0.428589 0.405151 0.348083
0.459991 0.438354 0.384491
0.492126 0.472687 0.423279
0.342499 0.316071 0.254547
0.369080 0.343353 0.282562
0.397614 0.372864 0.313446
0.427612 0.404114 0.346954
0.459015 0.437286 0.383331
0.490906 0.471375 0.421814
0.523041 0.506073 0.462280
0.554565 0.540344 0.503143
0.396515 0.371704 0.312256
0.426666 0.403107 0.345856
0.457825 0.436005 0.381897
0.489899 0.470276 0.420532
0.522064 0.505035 0.460968
0.553558 0.539276 0.501862
0.584229 0.572784 0.542542
0.613037 0.604431 0.581512
0.161438 0.134094 0.109802
0.169525 0.142426 0.109802
0.178925 0.151978 0.109802
0.189575 0.162720 0.109802
0.201660 0.174835 0.111786
0.215088 0.188232 0.126221
0.230164 0.203186 0.141785
0.246735 0.219696 0.158447
0.178558 0.151611 0.109802
0.189209 0.162384 0.109802
0.201263 0.174438 0.111359
0.214661 0.187775 0.125763
0.229645 0.202698 0.141266
0.246185 0.219147 0.157928
0.264587 0.237457 0.176117
0.284637 0.257538 0.195953
0.200775 0.173950 0.110809
0.214203 0.187347 0.125275
0.229065 0.202118 0.140656
0.245667 0.218597 0.157349
0.263977 0.236847 0.175537
0.283966 0.256836 0.195312
0.305969 0.279022 0.217285
0.329773 0.303101 0.241394
0.228577 0.201630 0.140167
0.245117 0.218048 0.156799
0.263245 0.236145 0.174805
0.283325 0.256195 0.194672
0.305115 0.278107 0.216431
0.328949 0.302277 0.240570
0.354584 0.328400 0.267151
0.382172 0.356842 0.296570
0.262665 0.235535 0.174225
0.282684 0.255524 0.194000
0.304382 0.277405 0.215698
0.328186 0.301514 0.239777
0.353699 0.327545 0.266266
0.381256 0.355896 0.295624
0.410370 0.386078 0.327545
0.441132 0.418304 0.362396
0.303680 0.276672 0.214966
0.327240 0.300537 0.238861
0.352875 0.326691 0.265381
0.380371 0.354950 0.294647
0.409424 0.385071 0.326508
0.440125 0.417297 0.361298
0.471680 0.450775 0.398407
0.503876 0.485352 0.437927
0.352051 0.325836 0.264496
0.379303 0.353851 0.293488
0.408478 0.384094 0.325439
0.438934 0.416046 0.359924
0.470673 0.449707 0.397186
0.502686 0.484039 0.436401
0.534729 0.518768 0.477264
0.566040 0.552917 0.518372
0.407501 0.383148 0.324402
0.437958 0.415039 0.358826
0.469635 0.448608 0.395996
0.501617 0.482941 0.435150
0.533722 0.517639 0.475952
0.564880 0.551636 0.516785
0.595032 0.584625 0.557068
0.623108 0.615509 0.595276
0.164276 0.137024 0.109802
0.172791 0.145752 0.109802
0.182678 0.155792 0.109802
0.193817 0.166992 0.109802
0.206451 0.179596 0.116974
0.220520 0.193573 0.131866
0.236084 0.209045 0.147736
0.253387 0.226288 0.165039
0.182373 0.155457 0.109802
0.193420 0.166626 0.109802
0.205994 0.179169 0.116516
0.219940 0.193024 0.131287
0.235535 0.208527 0.147217
0.252686 0.225616 0.164368
0.271729 0.244598 0.183167
0.292480 0.265381 0.203766
0.205505 0.178650 0.115967
0.219482 0.192596 0.130798
0.235016 0.208038 0.146698
0.252136 0.225037 0.163788
0.271088 0.243958 0.182556
0.291748 0.264679 0.203064
0.314484 0.287598 0.225861
0.338959 0.312469 0.250854
0.234406 0.207428 0.146088
0.251587 0.224487 0.163239
0.270355 0.243225 0.181824
0.291077 0.264008 0.202393
0.313568 0.286713 0.224915
0.338165 0.311646 0.250061
0.364594 0.338715 0.277771
0.392670 0.367706 0.308044
0.269745 0.242615 0.181213
0.290405 0.263306 0.201752
0.312836 0.285950 0.224213
0.337341 0.310822 0.249207
0.363556 0.337646 0.276642
0.391754 0.366760 0.307037
0.421417 0.397614 0.339966
0.452637 0.430511 0.375793
0.312103 0.285217 0.223450
0.336548 0.309967 0.248383
0.362701 0.336761 0.275757
0.390869 0.365814 0.306030
0.420471 0.396606 0.338898
0.451630 0.429443 0.374634
0.483429 0.463318 0.412567
0.515625 0.498016 0.452759
0.361816 0.335876 0.274811
0.389709 0.364685 0.304810
0.419525 0.395660 0.337799
0.450439 0.428162 0.373230
0.482391 0.462250 0.411346
0.514618 0.496918 0.451447
0.546265 0.531342 0.492249
0.577209 0.565125 0.533142
0.418549 0.394623 0.336700
0.449402 0.427155 0.372070
0.481384 0.461121 0.410126
0.513397 0.495636 0.449921
0.545258 0.530243 0.490997
0.576080 0.563873 0.531647
0.605621 0.596222 0.571381
0.632904 0.626343 0.608643
0.167236 0.140106 0.109802
0.176239 0.149261 0.109802
0.186615 0.159760 0.109802
0.198303 0.171509 0.109802
0.211395 0.184540 0.122284
0.226044 0.199097 0.137543
0.242188 0.215149 0.153870
0.260132 0.233032 0.171722
0.186279 0.159424 0.109802
0.197845 0.171021 0.109802
0.210938 0.184113 0.121826
0.225433 0.198486 0.136963
0.241669 0.214600 0.153351
0.259460 0.232300 0.171021
0.279144 0.252014 0.190491
0.300659 0.273682 0.211975
0.210541 0.183655 0.121368
0.224945 0.198029 0.136444
0.241119 0.214081 0.152802
0.258850 0.231750 0.170441
0.278473 0.251373 0.189880
0.299835 0.272797 0.211121
0.323242 0.296478 0.234741
0.348389 0.322083 0.260681
0.240479 0.213440 0.152191
0.258270 0.231140 0.169861
0.277710 0.250580 0.189117
0.299133 0.272064 0.210419
0.322479 0.295685 0.233948
0.347565 0.321259 0.259857
0.374695 0.349121 0.288513
0.403381 0.378845 0.319824
0.277039 0.249939 0.188477
0.298431 0.271393 0.209717
0.321564 0.294769 0.233032
0.346771 0.320404 0.258972
0.373810 0.348206 0.287598
0.402466 0.377899 0.318787
0.432892 0.409637 0.352936
0.464203 0.442841 0.389465
0.320801 0.293976 0.232239
0.345917 0.319580 0.258118
0.372772 0.347107 0.286499
0.401520 0.376892 0.317749
0.431702 0.408386 0.351624
0.463226 0.441772 0.388306
0.495178 0.475952 0.427063
0.527283 0.510712 0.467712
0.371887 0.346222 0.285553
0.400452 0.375732 0.316528
0.430725 0.407410 0.350494
0.462250 0.440704 0.387115
0.494141 0.474854 0.425812
0.526306 0.509613 0.466400
0.557678 0.543762 0.507263
0.588135 0.577118 0.547821
0.429749 0.406372 0.349365
0.460999 0.439392 0.385712
0.493103 0.473755 0.424561
0.525085 0.508331 0.464874
0.556732 0.542725 0.505981
0.587219 0.576080 0.546600
0.615875 0.607513 0.585327
0.642487 0.636841 0.621826
