3d-lut/luts/Zeke 39.CUBE
#Created by: Adobe Photoshop Export Color Lookup Plugin
#Copyright: (C) Copyright 2017 RocketStock
TITLE "Untitled"
#LUT size
LUT_3D_SIZE 5
#data domain
#LUT data points
DOMAIN_MIN 0.000000 0.000000 0.000000
DOMAIN_MAX 0.903226 0.903226 0.903226
0.149811 0.121979 0.109802
0.160767 0.133423 0.109802
0.175659 0.148651 0.109802
0.194427 0.167603 0.109802
0.217529 0.190643 0.128784
0.175110 0.148102 0.109802
0.193726 0.166931 0.109802
0.216705 0.189850 0.127930
0.244354 0.217316 0.156036
0.277313 0.250183 0.188721
0.215820 0.188934 0.126953
0.243378 0.216309 0.155090
0.276031 0.248901 0.187469
0.314484 0.287598 0.225861
0.358612 0.332550 0.271423
0.274872 0.247742 0.186310
0.313141 0.286255 0.224487
0.357056 0.330994 0.269836
0.406738 0.382324 0.323578
0.460785 0.439178 0.385437
0.355560 0.329437 0.268219
0.404877 0.380402 0.321503
0.459015 0.437286 0.383331
0.515045 0.497375 0.451996
0.570099 0.557373 0.523682
0.153381 0.125763 0.109802
0.165771 0.138580 0.109802
0.182098 0.155182 0.109802
0.202393 0.175537 0.112579
0.227203 0.200256 0.138763
0.181458 0.154541 0.109802
0.201660 0.174835 0.111786
0.226227 0.199310 0.137756
0.255798 0.228699 0.167450
0.290680 0.263580 0.201996
0.225342 0.198395 0.136871
0.254761 0.227661 0.166412
0.289490 0.262360 0.200745
0.330078 0.303406 0.241730
0.376251 0.350739 0.290253
0.288239 0.261139 0.199585
0.328491 0.301788 0.240112
0.374695 0.349121 0.288513
0.426056 0.402496 0.345215
0.481384 0.461121 0.410126
0.373138 0.347473 0.286865
0.424316 0.400665 0.343231
0.479584 0.459198 0.407898
0.535522 0.519592 0.478302
0.589294 0.578278 0.549377
0.157471 0.130005 0.109802
0.171295 0.144257 0.109802
0.189026 0.162140 0.109802
0.210938 0.184113 0.121826
0.237427 0.210388 0.149109
0.188354 0.161530 0.109802
0.210175 0.183319 0.121002
0.236481 0.209473 0.148163
0.268005 0.240875 0.179504
0.304962 0.277985 0.216248
0.235535 0.208527 0.147217
0.266785 0.239655 0.178314
0.303680 0.276672 0.214966
0.346252 0.319916 0.258484
0.394684 0.369781 0.310242
0.302399 0.275360 0.213684
0.344788 0.318390 0.256927
0.393036 0.368103 0.308411
0.446075 0.423553 0.368164
0.501862 0.483154 0.435394
0.391174 0.366211 0.306427
0.444275 0.421661 0.366089
0.500000 0.481201 0.433136
0.555725 0.541626 0.504669
0.607910 0.598785 0.574493
0.162109 0.134796 0.109802
0.177368 0.150391 0.109802
0.196533 0.169708 0.109802
0.220123 0.193207 0.131500
0.248413 0.221344 0.160126
0.195831 0.169037 0.109802
0.219208 0.192291 0.130493
0.247437 0.220367 0.159119
0.280823 0.253693 0.192200
0.320038 0.293213 0.231476
0.246429 0.219360 0.158112
0.279633 0.252533 0.191040
0.318512 0.291687 0.229950
0.363373 0.337463 0.276489
0.413574 0.389435 0.331146
0.317169 0.290314 0.228577
0.361816 0.335876 0.274811
0.411865 0.387665 0.329254
0.466461 0.445190 0.392151
0.522491 0.505432 0.461517
0.410156 0.385925 0.327332
0.464630 0.443268 0.389954
0.520691 0.503510 0.459167
0.575287 0.563019 0.530609
0.625702 0.618378 0.598785
0.167236 0.140106 0.109802
0.183868 0.156982 0.109802
0.204681 0.177826 0.115082
0.229858 0.202881 0.141449
0.260132 0.233032 0.171722
0.203918 0.177094 0.114288
0.228973 0.202026 0.140533
0.259064 0.231964 0.170685
0.294556 0.267456 0.205811
0.335754 0.309204 0.247559
0.257904 0.230804 0.169525
0.293304 0.266235 0.204590
0.334320 0.307709 0.246063
0.381256 0.355896 0.295624
0.433258 0.410034 0.353394
0.332886 0.306274 0.244629
0.379669 0.354218 0.293884
0.431519 0.408203 0.351379
0.486816 0.467041 0.416840
0.542908 0.527618 0.487885
0.429749 0.406372 0.349365
0.485016 0.465088 0.414581
0.541107 0.525696 0.485535
0.594482 0.584045 0.556335
0.642487 0.636841 0.621826
